; generated by Slic3r 1.0.0RC2 on 2014-01-05 at 12:22:20

; layer_height = 0.3
; perimeters = 3
; top_solid_layers = 3
; bottom_solid_layers = 3
; fill_density = 0.4
; perimeter_speed = 30
; infill_speed = 60
; travel_speed = 130
; nozzle_diameter = 0.35
; filament_diameter = 1.75
; extrusion_multiplier = 1
; perimeters extrusion width = 0.35mm
; infill extrusion width = 0.37mm
; solid infill extrusion width = 0.37mm
; top infill extrusion width = 0.37mm
; support material extrusion width = 0.35mm
; first layer extrusion width = 0.70mm

G21 ; set units to millimeters
M107
M190 S65 ; wait for bed temperature to be reached
M104 S175 ; set temperature
G28 ; home all axes
G1 Z5 F5000 ; lift nozzle
M109 S175 ; wait for temperature to be reached
G90 ; use absolute coordinates
G92 E0
M82 ; use absolute distances for extrusion
G1 Z0.350 F7800.000
G1 X66.450 Y61.770 F7800.000
G1 X67.410 Y60.980 E0.06332 F540.000
G1 X68.510 Y60.390 E0.12689
G1 X69.700 Y60.030 E0.19021
G1 X70.940 Y59.910 E0.25366
G1 X99.000 Y59.910 E1.68274
G1 X100.240 Y60.030 E1.74619
G1 X101.430 Y60.390 E1.80951
G1 X102.530 Y60.980 E1.87308
G1 X103.490 Y61.770 E1.93640
G1 X104.280 Y62.730 E1.99972
G1 X104.870 Y63.830 E2.06329
G1 X105.230 Y65.020 E2.12661
G1 X105.350 Y66.260 E2.19006
G1 X105.350 Y93.750 E3.59011
G1 X105.230 Y94.990 E3.65356
G1 X104.870 Y96.180 E3.71688
G1 X104.280 Y97.280 E3.78045
G1 X103.490 Y98.240 E3.84377
G1 X102.530 Y99.030 E3.90709
G1 X101.430 Y99.620 E3.97066
G1 X100.240 Y99.980 E4.03398
G1 X99.000 Y100.100 E4.09743
G1 X70.940 Y100.100 E5.52651
G1 X69.700 Y99.980 E5.58996
G1 X68.510 Y99.620 E5.65328
G1 X67.410 Y99.030 E5.71685
G1 X66.450 Y98.240 E5.78017
G1 X65.660 Y97.280 E5.84349
G1 X65.070 Y96.180 E5.90706
G1 X64.710 Y94.990 E5.97038
G1 X64.590 Y93.750 E6.03383
G1 X64.590 Y66.260 E7.43388
G1 X64.710 Y65.020 E7.49733
G1 X65.070 Y63.830 E7.56065
G1 X65.660 Y62.730 E7.62422
G1 X66.417 Y61.811 E7.68486
G1 X69.888 Y65.719 F7800.000
G1 X70.400 Y65.207 E7.72178 F540.000
G1 X99.247 Y65.207 E9.19092
G1 X99.568 Y65.340 E9.20865
G1 X99.917 Y65.689 E9.23376
G1 X100.050 Y66.010 E9.25149
G1 X100.050 Y67.753 E9.34025
G1 X99.922 Y68.062 E9.35727
G1 X99.922 Y68.201 E9.36436
G1 X100.050 Y68.510 E9.38138
G1 X100.050 Y70.253 E9.47014
G1 X99.922 Y70.561 E9.48716
G1 X99.922 Y70.701 E9.49425
G1 X100.050 Y71.009 E9.51127
G1 X100.050 Y72.752 E9.60004
G1 X99.922 Y73.061 E9.61706
G1 X99.922 Y73.200 E9.62415
G1 X100.050 Y73.509 E9.64117
G1 X100.050 Y75.252 E9.72993
G1 X99.922 Y75.561 E9.74695
G1 X99.922 Y75.700 E9.75404
G1 X100.050 Y76.009 E9.77106
G1 X100.050 Y77.751 E9.85982
G1 X99.922 Y78.060 E9.87684
G1 X99.922 Y78.199 E9.88393
G1 X100.050 Y78.508 E9.90095
G1 X100.050 Y80.251 E9.98971
G1 X99.922 Y80.560 E10.00673
G1 X99.922 Y80.699 E10.01382
G1 X100.050 Y81.008 E10.03084
G1 X100.050 Y82.751 E10.11961
G1 X99.922 Y83.059 E10.13663
G1 X99.922 Y83.198 E10.14372
G1 X100.050 Y83.507 E10.16074
G1 X100.050 Y85.250 E10.24950
G1 X99.922 Y85.559 E10.26652
G1 X99.922 Y85.698 E10.27361
G1 X100.050 Y86.007 E10.29063
G1 X100.050 Y87.750 E10.37939
G1 X99.922 Y88.058 E10.39641
G1 X99.922 Y88.198 E10.40350
G1 X100.050 Y88.506 E10.42052
G1 X100.050 Y90.249 E10.50928
G1 X99.922 Y90.558 E10.52630
G1 X99.922 Y90.697 E10.53339
G1 X100.050 Y91.006 E10.55041
G1 X100.050 Y92.749 E10.63918
G1 X99.962 Y92.960 E10.65083
G1 X100.004 Y93.168 E10.66164
G1 X100.050 Y93.215 E10.66497
G1 X100.050 Y94.289 E10.71971
G1 X99.537 Y94.802 E10.75663
G1 X70.691 Y94.802 E12.22577
G1 X70.369 Y94.669 E12.24350
G1 X70.021 Y94.320 E12.26861
G1 X69.888 Y93.999 E12.28634
G1 X69.888 Y92.256 E12.37510
G1 X70.015 Y91.947 E12.39212
G1 X70.015 Y91.808 E12.39921
G1 X69.888 Y91.499 E12.41623
G1 X69.888 Y89.756 E12.50499
G1 X70.015 Y89.447 E12.52201
G1 X70.015 Y89.308 E12.52910
G1 X69.888 Y88.999 E12.54612
G1 X69.888 Y87.257 E12.63488
G1 X70.015 Y86.948 E12.65190
G1 X70.015 Y86.809 E12.65899
G1 X69.888 Y86.500 E12.67601
G1 X69.888 Y84.757 E12.76478
G1 X70.015 Y84.448 E12.78180
G1 X70.015 Y84.309 E12.78889
G1 X69.888 Y84.000 E12.80591
G1 X69.888 Y82.257 E12.89467
G1 X70.015 Y81.949 E12.91169
G1 X70.015 Y81.809 E12.91878
G1 X69.888 Y81.501 E12.93580
G1 X69.888 Y79.758 E13.02456
G1 X70.015 Y79.449 E13.04158
G1 X70.015 Y79.310 E13.04867
G1 X69.888 Y79.001 E13.06569
G1 X69.888 Y77.258 E13.15445
G1 X70.015 Y76.950 E13.17147
G1 X70.015 Y76.810 E13.17856
G1 X69.888 Y76.502 E13.19558
G1 X69.888 Y74.759 E13.28435
G1 X70.015 Y74.450 E13.30137
G1 X70.015 Y74.311 E13.30846
G1 X69.888 Y74.002 E13.32548
G1 X69.888 Y72.259 E13.41424
G1 X70.015 Y71.950 E13.43126
G1 X70.015 Y71.811 E13.43835
G1 X69.888 Y71.503 E13.45537
G1 X69.888 Y69.760 E13.54413
G1 X70.015 Y69.451 E13.56115
G1 X70.015 Y69.312 E13.56824
G1 X69.888 Y69.003 E13.58526
G1 X69.888 Y67.260 E13.67402
G1 X69.975 Y67.049 E13.68568
G1 X69.934 Y66.840 E13.69649
G1 X69.888 Y66.794 E13.69981
G1 X69.888 Y65.772 E13.75188
G1 X70.238 Y65.864 F7800.000
G1 X70.545 Y65.557 E13.77403 F540.000
G1 X99.177 Y65.557 E15.23224
G1 X99.370 Y65.637 E15.24288
G1 X99.620 Y65.887 E15.26090
G1 X99.700 Y66.080 E15.27154
G1 X99.700 Y67.684 E15.35321
G1 X99.620 Y67.877 E15.36385
G1 X99.510 Y67.987 E15.37177
G1 X99.510 Y68.277 E15.38654
G1 X99.620 Y68.387 E15.39447
G1 X99.700 Y68.580 E15.40510
G1 X99.700 Y70.183 E15.48677
G1 X99.620 Y70.376 E15.49741
G1 X99.510 Y70.486 E15.50534
G1 X99.510 Y70.776 E15.52010
G1 X99.620 Y70.886 E15.52803
G1 X99.700 Y71.079 E15.53867
G1 X99.700 Y72.683 E15.62034
G1 X99.620 Y72.876 E15.63097
G1 X99.510 Y72.986 E15.63890
G1 X99.510 Y73.276 E15.65367
G1 X99.620 Y73.386 E15.66159
G1 X99.700 Y73.579 E15.67223
G1 X99.700 Y75.182 E15.75390
G1 X99.620 Y75.375 E15.76454
G1 X99.510 Y75.485 E15.77246
G1 X99.510 Y75.775 E15.78723
G1 X99.620 Y75.885 E15.79516
G1 X99.700 Y76.078 E15.80579
G1 X99.700 Y77.682 E15.88746
G1 X99.620 Y77.875 E15.89810
G1 X99.510 Y77.985 E15.90603
G1 X99.510 Y78.275 E15.92079
G1 X99.620 Y78.385 E15.92872
G1 X99.700 Y78.578 E15.93936
G1 X99.700 Y80.181 E16.02103
G1 X99.620 Y80.374 E16.03166
G1 X99.510 Y80.484 E16.03959
G1 X99.510 Y80.774 E16.05436
G1 X99.620 Y80.884 E16.06228
G1 X99.700 Y81.077 E16.07292
G1 X99.700 Y82.681 E16.15459
G1 X99.620 Y82.874 E16.16523
G1 X99.510 Y82.984 E16.17315
G1 X99.510 Y83.274 E16.18792
G1 X99.620 Y83.384 E16.19585
G1 X99.700 Y83.577 E16.20648
G1 X99.700 Y85.180 E16.28815
G1 X99.620 Y85.373 E16.29879
G1 X99.510 Y85.483 E16.30672
G1 X99.510 Y85.773 E16.32148
G1 X99.620 Y85.883 E16.32941
G1 X99.700 Y86.076 E16.34005
G1 X99.700 Y87.680 E16.42172
G1 X99.620 Y87.873 E16.43236
G1 X99.510 Y87.983 E16.44028
G1 X99.510 Y88.273 E16.45505
G1 X99.620 Y88.383 E16.46297
G1 X99.700 Y88.576 E16.47361
G1 X99.700 Y90.180 E16.55528
G1 X99.620 Y90.373 E16.56592
G1 X99.510 Y90.483 E16.57384
G1 X99.510 Y90.773 E16.58861
G1 X99.620 Y90.883 E16.59654
G1 X99.700 Y91.076 E16.60717
G1 X99.700 Y92.679 E16.68885
G1 X99.620 Y92.872 E16.69948
G1 X99.561 Y92.931 E16.70372
G1 X99.561 Y93.221 E16.71848
G1 X99.700 Y93.360 E16.72847
G1 X99.700 Y94.144 E16.76845
G1 X99.392 Y94.452 E16.79060
G1 X70.761 Y94.452 E18.24881
G1 X70.568 Y94.372 E18.25945
G1 X70.317 Y94.122 E18.27747
G1 X70.238 Y93.929 E18.28811
G1 X70.238 Y92.325 E18.36978
G1 X70.317 Y92.132 E18.38041
G1 X70.427 Y92.022 E18.38834
G1 X70.427 Y91.732 E18.40311
G1 X70.317 Y91.622 E18.41103
G1 X70.238 Y91.429 E18.42167
G1 X70.238 Y89.826 E18.50334
G1 X70.317 Y89.633 E18.51398
G1 X70.427 Y89.523 E18.52190
G1 X70.427 Y89.233 E18.53667
G1 X70.317 Y89.123 E18.54459
G1 X70.238 Y88.930 E18.55523
G1 X70.238 Y87.326 E18.63690
G1 X70.317 Y87.133 E18.64754
G1 X70.427 Y87.023 E18.65547
G1 X70.427 Y86.733 E18.67023
G1 X70.317 Y86.623 E18.67816
G1 X70.238 Y86.430 E18.68880
G1 X70.238 Y84.827 E18.77047
G1 X70.317 Y84.634 E18.78110
G1 X70.427 Y84.524 E18.78903
G1 X70.427 Y84.234 E18.80380
G1 X70.317 Y84.124 E18.81172
G1 X70.238 Y83.931 E18.82236
G1 X70.238 Y82.327 E18.90403
G1 X70.317 Y82.134 E18.91467
G1 X70.427 Y82.024 E18.92259
G1 X70.427 Y81.734 E18.93736
G1 X70.317 Y81.624 E18.94529
G1 X70.238 Y81.431 E18.95592
G1 X70.238 Y79.828 E19.03759
G1 X70.317 Y79.635 E19.04823
G1 X70.427 Y79.525 E19.05616
G1 X70.427 Y79.235 E19.07092
G1 X70.317 Y79.125 E19.07885
G1 X70.238 Y78.932 E19.08949
G1 X70.238 Y77.328 E19.17116
G1 X70.317 Y77.135 E19.18179
G1 X70.427 Y77.025 E19.18972
G1 X70.427 Y76.735 E19.20449
G1 X70.317 Y76.625 E19.21241
G1 X70.238 Y76.432 E19.22305
G1 X70.238 Y74.828 E19.30472
G1 X70.317 Y74.635 E19.31536
G1 X70.427 Y74.525 E19.32328
G1 X70.427 Y74.235 E19.33805
G1 X70.317 Y74.125 E19.34598
G1 X70.238 Y73.932 E19.35661
G1 X70.238 Y72.329 E19.43828
G1 X70.317 Y72.136 E19.44892
G1 X70.427 Y72.026 E19.45685
G1 X70.427 Y71.736 E19.47161
G1 X70.317 Y71.626 E19.47954
G1 X70.238 Y71.433 E19.49018
G1 X70.238 Y69.829 E19.57185
G1 X70.317 Y69.636 E19.58248
G1 X70.427 Y69.526 E19.59041
G1 X70.427 Y69.236 E19.60518
G1 X70.317 Y69.126 E19.61310
G1 X70.238 Y68.933 E19.62374
G1 X70.238 Y67.330 E19.70541
G1 X70.317 Y67.137 E19.71605
G1 X70.376 Y67.078 E19.72028
G1 X70.376 Y66.788 E19.73505
G1 X70.238 Y66.649 E19.74504
G1 X70.238 Y65.917 E19.78234
G1 X70.588 Y66.009 F7800.000
G1 X70.690 Y65.907 E19.78973 F540.000
G1 X99.107 Y65.907 E21.23701
G1 X99.172 Y65.934 E21.24055
G1 X99.323 Y66.085 E21.25148
G1 X99.350 Y66.150 E21.25503
G1 X99.350 Y67.614 E21.32961
G1 X99.323 Y67.678 E21.33315
G1 X99.172 Y67.830 E21.34408
G1 X99.008 Y67.898 E21.35309
G1 X99.008 Y68.365 E21.37691
G1 X99.172 Y68.433 E21.38591
G1 X99.323 Y68.585 E21.39684
G1 X99.350 Y68.649 E21.40039
G1 X99.350 Y70.113 E21.47497
G1 X99.323 Y70.178 E21.47851
G1 X99.172 Y70.330 E21.48944
G1 X99.008 Y70.397 E21.49845
G1 X99.008 Y70.865 E21.52227
G1 X99.172 Y70.933 E21.53128
G1 X99.323 Y71.084 E21.54221
G1 X99.350 Y71.149 E21.54575
G1 X99.350 Y72.613 E21.62033
G1 X99.323 Y72.677 E21.62388
G1 X99.172 Y72.829 E21.63481
G1 X99.008 Y72.897 E21.64381
G1 X99.008 Y73.365 E21.66763
G1 X99.172 Y73.432 E21.67664
G1 X99.323 Y73.584 E21.68757
G1 X99.350 Y73.648 E21.69111
G1 X99.350 Y75.113 E21.76569
G1 X99.323 Y75.177 E21.76924
G1 X99.172 Y75.329 E21.78017
G1 X99.008 Y75.396 E21.78917
G1 X99.008 Y75.864 E21.81299
G1 X99.172 Y75.932 E21.82200
G1 X99.323 Y76.083 E21.83293
G1 X99.350 Y76.148 E21.83648
G1 X99.350 Y77.612 E21.91106
G1 X99.323 Y77.676 E21.91460
G1 X99.172 Y77.828 E21.92553
G1 X99.008 Y77.896 E21.93454
G1 X99.008 Y78.364 E21.95836
G1 X99.172 Y78.431 E21.96736
G1 X99.323 Y78.583 E21.97829
G1 X99.350 Y78.647 E21.98184
G1 X99.350 Y80.112 E22.05642
G1 X99.323 Y80.176 E22.05996
G1 X99.172 Y80.328 E22.07089
G1 X99.008 Y80.395 E22.07990
G1 X99.008 Y80.863 E22.10372
G1 X99.172 Y80.931 E22.11273
G1 X99.323 Y81.083 E22.12365
G1 X99.350 Y81.147 E22.12720
G1 X99.350 Y82.611 E22.20178
G1 X99.323 Y82.676 E22.20533
G1 X99.172 Y82.827 E22.21625
G1 X99.008 Y82.895 E22.22526
G1 X99.008 Y83.363 E22.24908
G1 X99.172 Y83.430 E22.25809
G1 X99.323 Y83.582 E22.26902
G1 X99.350 Y83.646 E22.27256
G1 X99.350 Y85.111 E22.34714
G1 X99.323 Y85.175 E22.35069
G1 X99.172 Y85.327 E22.36162
G1 X99.008 Y85.395 E22.37062
G1 X99.008 Y85.862 E22.39444
G1 X99.172 Y85.930 E22.40345
G1 X99.323 Y86.082 E22.41438
G1 X99.350 Y86.146 E22.41792
G1 X99.350 Y87.610 E22.49250
G1 X99.323 Y87.675 E22.49605
G1 X99.172 Y87.826 E22.50698
G1 X99.008 Y87.894 E22.51599
G1 X99.008 Y88.362 E22.53981
G1 X99.172 Y88.430 E22.54881
G1 X99.323 Y88.581 E22.55974
G1 X99.350 Y88.646 E22.56329
G1 X99.350 Y90.110 E22.63787
G1 X99.323 Y90.174 E22.64141
G1 X99.172 Y90.326 E22.65234
G1 X99.008 Y90.394 E22.66135
G1 X99.008 Y90.861 E22.68517
G1 X99.172 Y90.929 E22.69417
G1 X99.323 Y91.081 E22.70510
G1 X99.350 Y91.145 E22.70865
G1 X99.350 Y92.610 E22.78323
G1 X99.323 Y92.674 E22.78677
G1 X99.066 Y92.931 E22.80529
G1 X99.066 Y93.221 E22.82006
G1 X99.350 Y93.505 E22.84049
G1 X99.350 Y93.999 E22.86570
G1 X99.247 Y94.102 E22.87308
G1 X70.830 Y94.102 E24.32036
G1 X70.766 Y94.075 E24.32391
G1 X70.614 Y93.924 E24.33484
G1 X70.588 Y93.859 E24.33838
G1 X70.588 Y92.395 E24.41296
G1 X70.614 Y92.331 E24.41651
G1 X70.766 Y92.179 E24.42744
G1 X70.929 Y92.111 E24.43644
G1 X70.929 Y91.643 E24.46026
G1 X70.766 Y91.576 E24.46927
G1 X70.614 Y91.424 E24.48020
G1 X70.588 Y91.360 E24.48374
G1 X70.588 Y89.895 E24.55832
G1 X70.614 Y89.831 E24.56187
G1 X70.766 Y89.679 E24.57280
G1 X70.929 Y89.612 E24.58180
G1 X70.929 Y89.144 E24.60563
G1 X70.766 Y89.076 E24.61463
G1 X70.614 Y88.924 E24.62556
G1 X70.588 Y88.860 E24.62911
G1 X70.588 Y87.396 E24.70369
G1 X70.614 Y87.331 E24.70723
G1 X70.766 Y87.180 E24.71816
G1 X70.929 Y87.112 E24.72717
G1 X70.929 Y86.644 E24.75099
G1 X70.766 Y86.577 E24.75999
G1 X70.614 Y86.425 E24.77092
G1 X70.588 Y86.361 E24.77447
G1 X70.588 Y84.896 E24.84905
G1 X70.614 Y84.832 E24.85259
G1 X70.766 Y84.680 E24.86352
G1 X70.929 Y84.613 E24.87253
G1 X70.929 Y84.145 E24.89635
G1 X70.766 Y84.077 E24.90536
G1 X70.614 Y83.925 E24.91628
G1 X70.588 Y83.861 E24.91983
G1 X70.588 Y82.397 E24.99441
G1 X70.614 Y82.332 E24.99796
G1 X70.766 Y82.181 E25.00889
G1 X70.929 Y82.113 E25.01789
G1 X70.929 Y81.645 E25.04171
G1 X70.766 Y81.578 E25.05072
G1 X70.614 Y81.426 E25.06165
G1 X70.588 Y81.362 E25.06519
G1 X70.588 Y79.897 E25.13977
G1 X70.614 Y79.833 E25.14332
G1 X70.766 Y79.681 E25.15425
G1 X70.929 Y79.613 E25.16325
G1 X70.929 Y79.146 E25.18707
G1 X70.766 Y79.078 E25.19608
G1 X70.614 Y78.926 E25.20701
G1 X70.588 Y78.862 E25.21055
G1 X70.588 Y77.398 E25.28513
G1 X70.614 Y77.333 E25.28868
G1 X70.766 Y77.182 E25.29961
G1 X70.929 Y77.114 E25.30862
G1 X70.929 Y76.646 E25.33244
G1 X70.766 Y76.578 E25.34144
G1 X70.614 Y76.427 E25.35237
G1 X70.588 Y76.362 E25.35592
G1 X70.588 Y74.898 E25.43050
G1 X70.614 Y74.834 E25.43404
G1 X70.766 Y74.682 E25.44497
G1 X70.929 Y74.614 E25.45398
G1 X70.929 Y74.147 E25.47780
G1 X70.766 Y74.079 E25.48680
G1 X70.614 Y73.927 E25.49773
G1 X70.588 Y73.863 E25.50128
G1 X70.588 Y72.398 E25.57586
G1 X70.614 Y72.334 E25.57940
G1 X70.766 Y72.182 E25.59033
G1 X70.929 Y72.115 E25.59934
G1 X70.929 Y71.647 E25.62316
G1 X70.766 Y71.579 E25.63217
G1 X70.614 Y71.428 E25.64310
G1 X70.588 Y71.363 E25.64664
G1 X70.588 Y69.899 E25.72122
G1 X70.614 Y69.835 E25.72477
G1 X70.766 Y69.683 E25.73570
G1 X70.929 Y69.615 E25.74470
G1 X70.929 Y69.147 E25.76852
G1 X70.766 Y69.080 E25.77753
G1 X70.614 Y68.928 E25.78846
G1 X70.588 Y68.864 E25.79200
G1 X70.588 Y67.399 E25.86658
G1 X70.614 Y67.335 E25.87013
G1 X70.871 Y67.078 E25.88864
G1 X70.871 Y66.788 E25.90341
G1 X70.588 Y66.504 E25.92384
G1 X70.588 Y66.062 E25.94638
G1 X70.938 Y66.257 F7800.000
G1 X99.000 Y66.257 E28.49809 F1080.000
G1 X99.000 Y67.507 E28.61173
G1 X70.938 Y67.507 E31.16344
G1 X70.938 Y68.756 E31.27709
G1 X99.000 Y68.756 E33.82880
G1 X99.000 Y70.006 E33.94244
G1 X70.938 Y70.006 E36.49415
G1 X70.938 Y71.256 E36.60779
G1 X99.000 Y71.256 E39.15951
G1 X99.000 Y72.506 E39.27315
G1 X70.938 Y72.506 E41.82486
G1 X70.938 Y73.756 E41.93850
G1 X99.000 Y73.756 E44.49021
G1 X99.000 Y75.005 E44.60386
G1 X70.938 Y75.005 E47.15557
G1 X70.938 Y76.255 E47.26921
G1 X99.000 Y76.255 E49.82092
G1 X99.000 Y77.505 E49.93456
G1 X70.938 Y77.505 E52.48628
G1 X70.938 Y78.755 E52.59992
G1 X99.000 Y78.755 E55.15163
G1 X99.000 Y80.004 E55.26527
G1 X70.938 Y80.004 E57.81698
G1 X70.938 Y81.254 E57.93063
G1 X99.000 Y81.254 E60.48234
G1 X99.000 Y82.504 E60.59598
G1 X70.938 Y82.504 E63.14769
G1 X70.938 Y83.754 E63.26133
G1 X99.000 Y83.754 E65.81305
G1 X99.000 Y85.004 E65.92669
G1 X70.938 Y85.004 E68.47840
G1 X70.938 Y86.253 E68.59204
G1 X99.000 Y86.253 E71.14375
G1 X99.000 Y87.503 E71.25740
G1 X70.938 Y87.503 E73.80911
G1 X70.938 Y88.753 E73.92275
G1 X99.000 Y88.753 E76.47446
G1 X99.000 Y90.003 E76.58810
G1 X70.938 Y90.003 E79.13982
G1 X70.938 Y91.252 E79.25346
G1 X99.000 Y91.252 E81.80517
G1 X99.000 Y92.502 E81.91881
G1 X70.938 Y92.502 E84.47052
G1 X70.938 Y93.752 E84.58417
G1 X99.000 Y93.752 E87.13588
M106 S255
M104 S170 ; set temperature
M140 S60 ; set bed temperature
G1 Z0.590 F7800.000
G1 X98.325 Y66.350 F7800.000
G1 X97.975 Y66.350 E87.14810 F998.432
G1 X97.975 Y67.601 E87.19179
G1 X95.475 Y69.044 E87.29261
G1 X95.475 Y72.537 E87.41459
G1 X97.975 Y73.981 E87.51541
G1 X97.975 Y77.474 E87.63739
G1 X95.475 Y78.917 E87.73821
