; generated by Slic3r 1.0.0RC2 on 2014-01-13 at 17:08:59

; layer_height = 0.3
; perimeters = 3
; top_solid_layers = 5
; bottom_solid_layers = 5
; fill_density = 0.4
; perimeter_speed = 30
; infill_speed = 60
; travel_speed = 130
; nozzle_diameter = 0.35
; filament_diameter = 1.75
; extrusion_multiplier = 1.1
; perimeters extrusion width = 0.35mm
; infill extrusion width = 0.37mm
; solid infill extrusion width = 0.37mm
; top infill extrusion width = 0.37mm
; first layer extrusion width = 0.70mm

G21 ; set units to millimeters
M107
M190 S65 ; wait for bed temperature to be reached
M104 S175 ; set temperature
G28 ; home all axes
G1 Z5 F5000 ; lift nozzle
M109 S175 ; wait for temperature to be reached
G90 ; use absolute coordinates
G92 E0
M82 ; use absolute distances for extrusion
G1 Z0.350 F7800.000
G1 X65.320 Y60.320 F7800.000
G1 X66.320 Y59.490 E0.12999 F540.000
G1 X67.460 Y58.880 E0.25931
G1 X68.710 Y58.500 E0.38999
G1 X70.000 Y58.380 E0.51957
G1 X100.000 Y58.380 E3.52025
G1 X101.290 Y58.500 E3.64984
G1 X102.540 Y58.880 E3.78051
G1 X103.680 Y59.490 E3.90984
G1 X104.680 Y60.320 E4.03982
G1 X105.510 Y61.320 E4.16981
G1 X106.120 Y62.460 E4.29914
G1 X106.500 Y63.710 E4.42981
G1 X106.620 Y65.000 E4.55940
G1 X106.620 Y95.000 E7.56008
G1 X106.500 Y96.290 E7.68966
G1 X106.120 Y97.540 E7.82034
G1 X105.510 Y98.680 E7.94966
G1 X104.680 Y99.680 E8.07965
G1 X103.680 Y100.510 E8.20964
G1 X102.540 Y101.120 E8.33896
G1 X101.290 Y101.500 E8.46964
G1 X100.000 Y101.620 E8.59922
G1 X70.000 Y101.620 E11.59990
G1 X68.710 Y101.500 E11.72949
G1 X67.460 Y101.120 E11.86016
G1 X66.320 Y100.510 E11.98949
G1 X65.320 Y99.680 E12.11947
G1 X64.490 Y98.680 E12.24946
G1 X63.880 Y97.540 E12.37878
G1 X63.500 Y96.290 E12.50946
G1 X63.380 Y95.000 E12.63905
G1 X63.380 Y65.000 E15.63973
G1 X63.500 Y63.710 E15.76931
G1 X63.880 Y62.460 E15.89999
G1 X64.490 Y61.320 E16.02931
G1 X65.260 Y60.392 E16.14992
G1 X77.198 Y71.335 F7800.000
G1 X79.170 Y69.903 E16.39373 F540.000
G1 X81.397 Y68.911 E16.63753
G1 X83.781 Y68.404 E16.88133
G1 X86.219 Y68.404 E17.12513
G1 X88.603 Y68.911 E17.36894
G1 X90.830 Y69.903 E17.61274
G1 X92.802 Y71.335 E17.85654
G1 X94.433 Y73.147 E18.10034
G1 X95.651 Y75.258 E18.34415
G1 X96.405 Y77.576 E18.58795
G1 X96.659 Y80.000 E18.83175
G1 X96.405 Y82.424 E19.07556
G1 X95.651 Y84.742 E19.31936
G1 X94.433 Y86.853 E19.56316
G1 X92.802 Y88.665 E19.80697
G1 X90.830 Y90.097 E20.05077
G1 X88.603 Y91.089 E20.29457
G1 X86.219 Y91.596 E20.53837
G1 X83.781 Y91.596 E20.78218
G1 X81.397 Y91.089 E21.02598
G1 X79.170 Y90.097 E21.26978
G1 X77.198 Y88.665 E21.51358
G1 X75.567 Y86.853 E21.75739
G1 X74.349 Y84.742 E22.00119
G1 X73.595 Y82.424 E22.24499
G1 X73.341 Y80.000 E22.48880
G1 X73.595 Y77.576 E22.73260
G1 X74.349 Y75.258 E22.97640
G1 X75.567 Y73.147 E23.22020
G1 X77.136 Y71.405 E23.45463
G1 X77.619 Y71.802 F7800.000
G1 X79.484 Y70.447 E23.68530 F540.000
G1 X81.591 Y69.509 E23.91596
G1 X83.847 Y69.029 E24.14662
G1 X86.153 Y69.029 E24.37729
G1 X88.409 Y69.509 E24.60795
G1 X90.516 Y70.447 E24.83862
G1 X92.381 Y71.802 E25.06928
G1 X93.924 Y73.516 E25.29994
G1 X95.077 Y75.513 E25.53061
G1 X95.790 Y77.707 E25.76127
G1 X96.031 Y80.000 E25.99194
G1 X95.790 Y82.293 E26.22260
G1 X95.077 Y84.487 E26.45326
G1 X93.924 Y86.484 E26.68393
G1 X92.381 Y88.198 E26.91459
G1 X90.516 Y89.553 E27.14526
G1 X88.409 Y90.491 E27.37592
G1 X86.153 Y90.971 E27.60659
G1 X83.847 Y90.971 E27.83725
G1 X81.591 Y90.491 E28.06791
G1 X79.484 Y89.553 E28.29858
G1 X77.619 Y88.198 E28.52924
G1 X76.076 Y86.484 E28.75991
G1 X74.923 Y84.487 E28.99057
G1 X74.210 Y82.293 E29.22123
G1 X73.969 Y80.000 E29.45190
G1 X74.210 Y77.707 E29.68256
G1 X74.923 Y75.513 E29.91323
G1 X76.076 Y73.516 E30.14389
G1 X77.556 Y71.872 E30.36518
G1 X78.039 Y72.269 F7800.000
G1 X79.799 Y70.991 E30.58271 F378.000
G1 X81.785 Y70.106 E30.80023
G1 X83.913 Y69.654 E31.01776
G1 X86.087 Y69.654 E31.23528
G1 X88.215 Y70.106 E31.45281
G1 X90.201 Y70.991 E31.67033
G1 X91.961 Y72.269 E31.88786
G1 X93.416 Y73.885 E32.10538
G1 X94.503 Y75.769 E32.32291
G1 X95.175 Y77.837 E32.54043
G1 X95.403 Y80.000 E32.75796
G1 X95.175 Y82.163 E32.97549
G1 X94.503 Y84.231 E33.19301
G1 X93.869 Y85.330 E33.31993
G1 X93.416 Y86.115 E33.41054
G1 X91.961 Y87.731 E33.62806
G1 X90.201 Y89.009 E33.84559
G1 X88.215 Y89.894 E34.06311
G1 X86.087 Y90.346 E34.28064
G1 X83.913 Y90.346 E34.49816
G1 X81.785 Y89.894 E34.71569
G1 X79.799 Y89.009 E34.93322
G1 X78.039 Y87.731 E35.15074
G1 X76.584 Y86.115 E35.36827
G1 X75.497 Y84.231 E35.58579
G1 X74.825 Y82.163 E35.80332
G1 X74.597 Y80.000 E36.02084
G1 X74.825 Y77.837 E36.23837
G1 X75.497 Y75.769 E36.45589
G1 X76.584 Y73.885 E36.67342
G1 X77.976 Y72.339 E36.88157
G1 X77.931 Y71.654 F7800.000
G1 X71.600 Y66.600 F7800.000
G1 X98.400 Y66.600 E39.56222 F540.000
G1 X98.400 Y93.400 E42.24287
G1 X71.600 Y93.400 E44.92351
G1 X71.600 Y66.694 E47.59479
G1 X70.975 Y65.975 F7800.000
G1 X99.025 Y65.975 E50.40044 F540.000
G1 X99.025 Y94.025 E53.20610
G1 X70.975 Y94.025 E56.01175
G1 X70.975 Y66.069 E58.80803
G1 X70.350 Y65.350 F7800.000
G1 X99.650 Y65.350 E61.73869 F378.000
G1 X99.650 Y94.650 E64.66935
G1 X70.350 Y94.650 E67.60001
G1 X70.350 Y65.444 E70.52129
G1 X70.891 Y65.662 F7800.000
G1 X72.665 Y80.589 F7800.000
G1 X72.599 Y80.522 E70.53089 F1080.000
G1 X72.021 Y80.849 E70.59880
G1 X72.771 Y81.599 E70.70738
G1 X72.021 Y81.753 E70.78576
G1 X72.877 Y82.609 E70.90971
G1 X73.810 Y84.446 F7800.000
G1 X72.021 Y82.657 E71.16858 F1080.000
G1 X72.021 Y83.561 E71.26110
G1 X74.765 Y86.305 E71.65819
G1 X78.831 Y90.371 F7800.000
G1 X81.126 Y92.667 E71.99043 F1080.000
G1 X80.222 Y92.667 E72.08296
G1 X72.021 Y84.465 E73.26989
G1 X72.021 Y85.370 E73.36241
G1 X79.318 Y92.667 E74.41849
G1 X78.414 Y92.667 E74.51102
G1 X72.021 Y86.274 E75.43625
G1 X72.021 Y87.178 E75.52877
G1 X77.510 Y92.667 E76.32315
G1 X76.606 Y92.667 E76.41567
G1 X72.021 Y88.082 E77.07919
G1 X72.021 Y88.986 E77.17172
G1 X75.701 Y92.667 E77.70439
G1 X74.797 Y92.667 E77.79691
G1 X72.021 Y89.890 E78.19873
G1 X72.021 Y90.794 E78.29125
G1 X73.893 Y92.667 E78.56221
G1 X72.989 Y92.667 E78.65474
G1 X72.021 Y91.699 E78.79485
G1 X72.021 Y92.603 E78.88737
G1 X72.085 Y92.667 E78.89663
G1 X80.525 Y91.162 F7800.000
G1 X82.031 Y92.667 E79.11446 F1080.000
G1 X82.298 Y92.030 E79.18512
G1 X82.935 Y92.667 E79.27725
G1 X83.446 Y92.274 E79.34324
G1 X83.839 Y92.667 E79.40004
G1 X82.197 Y91.930 F7800.000
G1 X81.892 Y91.625 E79.44418 F1080.000
G1 X84.839 Y92.709 F7800.000
G1 X84.899 Y92.769 E79.45262 F360.000
G1 X84.949 Y67.773 F7800.000
G1 X84.883 Y67.707 E79.46201 F360.000
G1 X87.000 Y66.000 F7800.000
G1 X99.000 Y76.000 F7800.000
G1 X97.667 Y80.599 F7800.000
G1 X97.601 Y80.532 E79.47174 F1080.000
G1 X96.994 Y80.840 E79.54213
G1 X97.667 Y81.513 E79.64062
G1 X97.667 Y82.428 E79.73526
G1 X96.907 Y81.668 E79.84648
G1 X96.820 Y82.495 E79.93258
G1 X97.667 Y83.342 E80.05654
G1 X97.667 Y84.256 E80.15117
G1 X96.599 Y83.188 E80.30753
G1 X96.375 Y83.878 E80.38263
G1 X97.667 Y85.171 E80.57181
G1 X97.667 Y86.085 E80.66644
G1 X96.150 Y84.568 E80.88844
G1 X95.871 Y85.203 E80.96024
G1 X97.667 Y86.999 E81.22312
G1 X97.667 Y87.914 E81.31775
G1 X95.536 Y85.783 E81.62961
G1 X95.202 Y86.363 E81.69889
G1 X97.667 Y88.828 E82.05974
G1 X97.667 Y89.743 E82.15437
G1 X94.867 Y86.942 E82.56420
G1 X94.461 Y87.451 E82.63153
G1 X97.667 Y90.657 E83.10081
G1 X97.667 Y91.571 E83.19544
G1 X94.028 Y87.932 E83.72813
G1 X93.594 Y88.413 E83.79513
G1 X97.667 Y92.486 E84.39122
G1 X96.934 Y92.667 E84.46938
G1 X93.161 Y88.894 E85.02158
G1 X92.648 Y89.296 E85.08899
G1 X96.020 Y92.667 E85.58239
G1 X95.105 Y92.667 E85.67702
G1 X92.119 Y89.681 E86.11411
G1 X91.589 Y90.065 E86.18185
G1 X94.191 Y92.667 E86.56262
G1 X93.276 Y92.667 E86.65726
G1 X91.060 Y90.450 E86.98171
G1 X90.431 Y90.736 E87.05320
G1 X92.362 Y92.667 E87.33589
G1 X91.448 Y92.667 E87.43053
G1 X89.798 Y91.017 E87.67199
G1 X89.165 Y91.299 E87.74367
G1 X90.533 Y92.667 E87.94391
G1 X89.619 Y92.667 E88.03854
G1 X88.494 Y91.542 E88.20320
G1 X87.783 Y91.745 E88.27974
G1 X88.705 Y92.667 E88.41465
G1 X87.790 Y92.667 E88.50928
G1 X87.249 Y92.126 E88.58847
G1 X86.876 Y92.667 E88.65650
G1 X86.495 Y92.286 E88.71223
G1 X85.893 Y92.598 E88.78243
G1 X85.961 Y92.667 E88.79248
G1 X99.000 Y86.000 F7800.000
G1 X97.401 Y79.478 F7800.000
G1 X97.335 Y79.411 E88.80208 F1080.000
G1 X97.667 Y78.839 E88.86979
G1 X97.229 Y78.401 E88.93315
G1 X97.667 Y77.935 E88.99861
G1 X96.626 Y76.894 E89.14927
G1 X97.667 Y77.031 E89.25673
G1 X96.190 Y75.554 E89.47037
G1 X97.667 Y75.222 F7800.000
G1 X89.465 Y67.021 E90.65730 F1080.000
G1 X90.370 Y67.021 E90.74983
G1 X97.667 Y74.318 E91.80591
G1 X97.667 Y73.414 E91.89844
G1 X91.274 Y67.021 E92.82367
G1 X92.178 Y67.021 E92.91619
G1 X97.667 Y72.510 E93.71057
G1 X97.667 Y71.606 E93.80309
G1 X93.082 Y67.021 E94.46661
G1 X93.986 Y67.021 E94.55914
G1 X97.667 Y70.701 E95.09181
G1 X97.667 Y69.797 E95.18433
G1 X94.890 Y67.021 E95.58615
G1 X95.794 Y67.021 E95.67867
G1 X97.667 Y68.893 E95.94963
G1 X97.667 Y67.989 E96.04216
G1 X96.699 Y67.021 E96.18226
G1 X97.603 Y67.021 E96.27479
G1 X97.667 Y67.085 E96.28404
G1 X91.169 Y69.629 F7800.000
G1 X88.561 Y67.021 E96.66150 F1080.000
G1 X87.657 Y67.021 E96.75402
G1 X89.475 Y68.838 E97.01707
G1 X87.702 Y67.970 F7800.000
G1 X86.753 Y67.021 E97.15442 F1080.000
G1 X86.554 Y67.726 E97.22938
G1 X85.925 Y67.097 E97.32035
G1 X95.235 Y73.695 F7800.000
G1 X97.667 Y76.126 E97.67222 F1080.000
G1 X87.000 Y66.000 F7800.000
G1 X84.006 Y67.021 F7800.000
G1 X84.074 Y67.089 E97.68199 F1080.000
G1 X83.746 Y67.662 E97.74944
G1 X83.104 Y67.021 E97.84200
G1 X82.203 Y67.021 E97.93405
G1 X83.002 Y67.820 E98.04942
G1 X82.258 Y67.978 E98.12703
G1 X81.301 Y67.021 E98.26523
G1 X80.399 Y67.021 E98.35728
G1 X81.514 Y68.136 E98.51830
G1 X80.835 Y68.359 E98.59128
G1 X79.497 Y67.021 E98.78437
G1 X78.595 Y67.021 E98.87643
G1 X79.981 Y68.407 E99.07648
G1 X79.459 Y68.786 E99.14239
G1 X77.693 Y67.021 E99.39723
G1 X76.792 Y67.021 E99.48928
G1 X78.936 Y69.166 E99.79890
G1 X78.339 Y69.470 E99.86736
G1 X75.890 Y67.021 E100.22087
G1 X74.988 Y67.021 E100.31293
G1 X77.715 Y69.748 E100.70655
G1 X77.369 Y70.304 E100.77340
G1 X74.086 Y67.021 E101.24737
G1 X73.184 Y67.021 E101.33942
G1 X76.847 Y70.684 E101.86817
G1 X76.615 Y71.354 E101.94053
G1 X72.282 Y67.021 E102.56598
G1 X72.021 Y67.661 E102.63658
G1 X75.740 Y71.380 E103.17345
G1 X75.410 Y71.952 E103.24084
G1 X72.021 Y68.563 E103.73005
G1 X72.021 Y69.465 E103.82210
G1 X75.080 Y72.524 E104.26367
G1 X74.750 Y73.096 E104.33106
G1 X72.021 Y70.367 E104.72497
G1 X72.021 Y71.269 E104.81702
G1 X74.420 Y73.667 E105.16329
G1 X74.090 Y74.239 E105.23067
G1 X72.021 Y72.171 E105.52929
G1 X72.021 Y73.072 E105.62134
G1 X73.759 Y74.811 E105.87230
G1 X73.510 Y75.464 E105.94362
G1 X72.021 Y73.974 E106.15862
G1 X72.021 Y74.876 E106.25067
G1 X73.289 Y76.144 E106.43375
G1 X73.068 Y76.825 E106.50680
G1 X72.021 Y75.778 E106.65795
G1 X72.021 Y76.680 E106.75000
G1 X72.863 Y77.522 E106.87162
G1 X72.021 Y77.582 E106.95782
G1 X72.778 Y78.338 E107.06706
G1 X72.021 Y78.483 E107.14570
G1 X72.692 Y79.154 E107.24255
G1 X72.021 Y79.385 E107.31498
G1 X72.086 Y79.451 E107.32445
M106 S208
M104 S170 ; set temperature
M140 S60 ; set bed temperature
G1 Z0.650 F7800.000
G1 X73.622 Y80.000 F7800.000
G1 X73.871 Y77.634 E107.43867 F1800
G1 X74.606 Y75.372 E107.55289
G1 X75.795 Y73.312 E107.66711
G1 X77.387 Y71.545 E107.78133
G1 X79.311 Y70.146 E107.89555
G1 X81.484 Y69.179 E108.00977
G1 X83.811 Y68.684 E108.12399
G1 X86.189 Y68.684 E108.23821
G1 X88.516 Y69.179 E108.35243
G1 X90.689 Y70.146 E108.46665
G1 X92.613 Y71.545 E108.58087
G1 X94.205 Y73.312 E108.69510
G1 X95.394 Y75.372 E108.80932
G1 X96.129 Y77.634 E108.92354
G1 X96.378 Y80.000 E109.03776
G1 X96.129 Y82.366 E109.15198
G1 X95.394 Y84.628 E109.26620
G1 X94.205 Y86.688 E109.38042
G1 X93.504 Y87.466 E109.43072
G1 X92.613 Y88.455 E109.49464
G1 X90.689 Y89.854 E109.60886
G1 X88.516 Y90.821 E109.72308
G1 X86.189 Y91.316 E109.83730
G1 X83.811 Y91.316 E109.95152
G1 X81.484 Y90.821 E110.06574
G1 X79.311 Y89.854 E110.17996
G1 X77.387 Y88.455 E110.29418
G1 X75.795 Y86.688 E110.40841
G1 X74.606 Y84.628 E110.52263
G1 X73.871 Y82.366 E110.63685
G1 X73.628 Y80.052 E110.74855
G1 X73.974 Y80.000 F7800.000
G1 X74.215 Y77.708 E110.85923 F1800
G1 X74.927 Y75.515 E110.96992
G1 X76.080 Y73.519 E111.08061
G1 X77.622 Y71.806 E111.19130
G1 X79.487 Y70.451 E111.30199
G1 X81.593 Y69.514 E111.41267
G1 X83.847 Y69.034 E111.52336
G1 X86.153 Y69.034 E111.63405
G1 X88.407 Y69.514 E111.74474
G1 X90.513 Y70.451 E111.85542
G1 X92.378 Y71.806 E111.96611
G1 X93.920 Y73.519 E112.07680
G1 X95.073 Y75.515 E112.18749
G1 X95.785 Y77.708 E112.29818
G1 X96.026 Y80.000 E112.40886
G1 X95.785 Y82.292 E112.51955
G1 X95.073 Y84.485 E112.63024
G1 X93.920 Y86.481 E112.74093
G1 X93.244 Y87.232 E112.78946
G1 X92.378 Y88.194 E112.85162
G1 X90.513 Y89.549 E112.96230
G1 X88.407 Y90.486 E113.07299
G1 X86.153 Y90.966 E113.18368
G1 X83.847 Y90.966 E113.29437
G1 X81.593 Y90.486 E113.40505
G1 X79.487 Y89.549 E113.51574
G1 X77.622 Y88.194 E113.62643
G1 X76.080 Y86.481 E113.73712
G1 X74.927 Y84.485 E113.84780
G1 X74.215 Y82.292 E113.95849
G1 X73.979 Y80.052 E114.06666
G1 X74.326 Y80.000 F7800.000
G1 X74.559 Y77.781 E114.17381 F1260
G1 X75.249 Y75.658 E114.28097
G1 X76.364 Y73.726 E114.38812
G1 X77.858 Y72.068 E114.49528
G1 X79.663 Y70.756 E114.60243
G1 X81.702 Y69.848 E114.70959
G1 X83.884 Y69.384 E114.81674
G1 X86.116 Y69.384 E114.92390
G1 X88.298 Y69.848 E115.03105
G1 X90.337 Y70.756 E115.13821
G1 X92.142 Y72.068 E115.24536
G1 X93.636 Y73.726 E115.35252
G1 X94.751 Y75.658 E115.45967
G1 X95.441 Y77.781 E115.56683
G1 X95.674 Y80.000 E115.67398
G1 X95.441 Y82.219 E115.78114
G1 X94.751 Y84.342 E115.88829
G1 X93.636 Y86.274 E115.99545
G1 X92.984 Y86.998 E116.04222
G1 X92.142 Y87.932 E116.10260
G1 X90.337 Y89.244 E116.20976
G1 X88.298 Y90.152 E116.31691
G1 X86.116 Y90.616 E116.42407
G1 X83.884 Y90.616 E116.53122
G1 X81.702 Y90.152 E116.63838
G1 X79.663 Y89.244 E116.74553
G1 X77.858 Y87.932 E116.85269
G1 X76.364 Y86.274 E116.95984
G1 X75.249 Y84.342 E117.06700
G1 X74.559 Y82.219 E117.17415
G1 X74.331 Y80.052 E117.27878
G1 X74.029 Y79.815 F7800.000
G1 X70.875 Y65.875 F7800.000
G1 X99.125 Y65.875 E118.63533 F1800
G1 X99.125 Y94.125 E119.99188
G1 X70.875 Y94.125 E121.34842
G1 X70.875 Y65.927 E122.70245
G1 X70.525 Y65.525 F7800.000
G1 X99.475 Y65.525 E124.09261 F1800
G1 X99.475 Y94.475 E125.48276
G1 X70.525 Y94.475 E126.87292
G1 X70.525 Y65.578 E128.26056
G1 X70.175 Y65.175 F7800.000
G1 X99.825 Y65.175 E129.68434 F1260
G1 X99.825 Y94.825 E131.10811
G1 X70.175 Y94.825 E132.53188
G1 X70.175 Y65.228 E133.95313
G1 X70.478 Y65.350 F7800.000
G1 X71.150 Y66.113 F7800.000
G1 X71.113 Y66.150 E133.95574 F3600
G1 X71.113 Y66.669 E133.98181
G1 X71.669 Y66.113 E134.02129
G1 X72.187 Y66.113 E134.04736
G1 X71.113 Y67.187 E134.12372
G1 X71.113 Y67.705 E134.14979
G1 X72.705 Y66.113 E134.26302
G1 X73.224 Y66.113 E134.28910
G1 X71.113 Y68.224 E134.43920
G1 X71.113 Y68.742 E134.46528
G1 X73.742 Y66.113 E134.65226
G1 X74.261 Y66.113 E134.67833
G1 X71.113 Y69.261 E134.90219
G1 X71.113 Y69.779 E134.92826
G1 X74.779 Y66.113 E135.18900
G1 X75.298 Y66.113 E135.21507
G1 X71.113 Y70.298 E135.51268
G1 X71.113 Y70.816 E135.53876
G1 X75.816 Y66.113 E135.87324
G1 X76.334 Y66.113 E135.89931
G1 X71.113 Y71.334 E136.27067
G1 X71.113 Y71.853 E136.29675
G1 X76.853 Y66.113 E136.70498
G1 X77.371 Y66.113 E136.73106
G1 X71.113 Y72.371 E137.17617
G1 X71.113 Y72.890 E137.20224
G1 X77.890 Y66.113 E137.68423
G1 X78.408 Y66.113 E137.71031
G1 X71.113 Y73.408 E138.22917
G1 X71.113 Y73.927 E138.25524
G1 X78.927 Y66.113 E138.81098
G1 X79.445 Y66.113 E138.83706
G1 X71.113 Y74.445 E139.42967
G1 X71.113 Y74.964 E139.45574
G1 X79.964 Y66.113 E140.08523
G1 X80.482 Y66.113 E140.11131
G1 X71.113 Y75.482 E140.77767
G1 X71.113 Y76.000 E140.80375
G1 X81.000 Y66.113 E141.50699
G1 X81.519 Y66.113 E141.53306
G1 X71.113 Y76.519 E142.27318
G1 X71.113 Y77.037 E142.29926
G1 X82.037 Y66.113 E143.07625
G1 X82.556 Y66.113 E143.10232
G1 X77.507 Y71.163 E143.46146
G1 X76.533 Y72.136 F7800.000
G1 X71.113 Y77.556 E143.84695 F3600
