; generated by Slic3r 1.0.0RC2 on 2014-01-13 at 20:18:06

; layer_height = 0.2
; perimeters = 3
; top_solid_layers = 5
; bottom_solid_layers = 5
; fill_density = 0.4
; perimeter_speed = 30
; infill_speed = 60
; travel_speed = 80
; nozzle_diameter = 0.35
; filament_diameter = 1.68
; extrusion_multiplier = 1.0
; perimeters extrusion width = 0.35mm
; infill extrusion width = 0.52mm
; solid infill extrusion width = 0.52mm
; top infill extrusion width = 0.52mm
; first layer extrusion width = 0.70mm

G21 ; set units to millimeters
M107
M190 S65 ; wait for bed temperature to be reached
M104 S185 ; set temperature
G28 ; home all axes
G1 Z5 F5000 ; lift nozzle
M109 S185 ; wait for temperature to be reached
G90 ; use absolute coordinates
G92 E0
M82 ; use absolute distances for extrusion
G1 F1800.000 E-0.50000
G1 Z5.350 F4800.000
G92 E0
G1 X59.320 Y54.320 F4800.000
G1 Z0.350 F4800.000
G1 E0.50000 F1800.000
G1 X60.320 Y53.490 E0.62822 F540.000
G1 X61.460 Y52.880 E0.75579
G1 X62.710 Y52.500 E0.88469
G1 X64.000 Y52.380 E1.01252
G1 X106.000 Y52.380 E5.15645
G1 X107.290 Y52.500 E5.28428
G1 X108.540 Y52.880 E5.41318
G1 X109.680 Y53.490 E5.54075
G1 X110.680 Y54.320 E5.66897
G1 X111.510 Y55.320 E5.79719
G1 X112.120 Y56.460 E5.92476
G1 X112.500 Y57.710 E6.05367
G1 X112.620 Y59.000 E6.18149
G1 X112.620 Y101.000 E10.32542
G1 X112.500 Y102.290 E10.45325
G1 X112.120 Y103.540 E10.58215
G1 X111.510 Y104.680 E10.70972
G1 X110.680 Y105.680 E10.83794
G1 X109.680 Y106.510 E10.96616
G1 X108.540 Y107.120 E11.09373
G1 X107.290 Y107.500 E11.22264
G1 X106.000 Y107.620 E11.35046
G1 X64.000 Y107.620 E15.49439
G1 X62.710 Y107.500 E15.62222
G1 X61.460 Y107.120 E15.75112
G1 X60.320 Y106.510 E15.87869
G1 X59.320 Y105.680 E16.00691
G1 X58.490 Y104.680 E16.13513
G1 X57.880 Y103.540 E16.26270
G1 X57.500 Y102.290 E16.39161
G1 X57.380 Y101.000 E16.51943
G1 X57.380 Y59.000 E20.66336
G1 X57.500 Y57.710 E20.79119
G1 X57.880 Y56.460 E20.92009
G1 X58.490 Y55.320 E21.04766
G1 X59.260 Y54.392 E21.16663
G1 F1800.000 E20.66663
G1 Z5.350 F4800.000
G92 E0
G1 X74.573 Y68.419 F4800.000
G1 Z0.350 F4800.000
G1 E0.50000 F1800.000
G1 X77.208 Y66.504 E0.82143 F540.000
G1 X80.184 Y65.179 E1.14286
G1 X83.371 Y64.502 E1.46429
G1 X86.629 Y64.502 E1.78573
G1 X89.816 Y65.179 E2.10716
G1 X92.792 Y66.504 E2.42859
G1 X95.427 Y68.419 E2.75002
G1 X97.607 Y70.840 E3.07145
G1 X99.236 Y73.662 E3.39289
G1 X100.243 Y76.760 E3.71432
G1 X100.583 Y80.000 E4.03575
G1 X100.243 Y83.240 E4.35718
G1 X99.236 Y86.338 E4.67861
G1 X97.607 Y89.160 E5.00004
G1 X95.427 Y91.581 E5.32148
G1 X92.792 Y93.496 E5.64291
G1 X89.816 Y94.821 E5.96434
G1 X86.629 Y95.498 E6.28577
G1 X83.371 Y95.498 E6.60720
G1 X80.184 Y94.821 E6.92864
G1 X77.208 Y93.496 E7.25007
G1 X74.573 Y91.581 E7.57150
G1 X72.393 Y89.160 E7.89293
G1 X70.764 Y86.338 E8.21436
G1 X69.757 Y83.240 E8.53579
G1 X69.417 Y80.000 E8.85723
G1 X69.757 Y76.760 E9.17866
G1 X70.764 Y73.662 E9.50009
G1 X72.393 Y70.840 E9.82152
G1 X74.510 Y68.489 E10.13371
G1 X74.993 Y68.886 F4800.000
G1 X77.522 Y67.049 E10.44218 F540.000
G1 X80.379 Y65.777 E10.75065
G1 X83.437 Y65.127 E11.05912
G1 X86.563 Y65.127 E11.36759
G1 X89.621 Y65.777 E11.67606
G1 X92.478 Y67.049 E11.98453
G1 X95.007 Y68.886 E12.29301
G1 X97.099 Y71.210 E12.60148
G1 X98.662 Y73.917 E12.90995
G1 X99.628 Y76.891 E13.21842
G1 X99.955 Y80.000 E13.52689
G1 X99.628 Y83.109 E13.83536
G1 X98.662 Y86.083 E14.14383
G1 X97.099 Y88.790 E14.45231
G1 X95.007 Y91.114 E14.76078
G1 X92.478 Y92.951 E15.06925
G1 X89.621 Y94.223 E15.37772
G1 X86.563 Y94.873 E15.68619
G1 X83.437 Y94.873 E15.99466
G1 X80.379 Y94.223 E16.30314
G1 X77.522 Y92.951 E16.61161
G1 X74.993 Y91.114 E16.92008
G1 X72.901 Y88.790 E17.22855
G1 X71.338 Y86.083 E17.53702
G1 X70.372 Y83.109 E17.84549
G1 X70.045 Y80.000 E18.15396
G1 X70.372 Y76.891 E18.46244
G1 X71.338 Y73.917 E18.77091
G1 X72.901 Y71.210 E19.07938
G1 X74.930 Y68.956 E19.37860
G1 X75.414 Y69.353 F4800.000
G1 X77.837 Y67.593 E19.67411 F378.000
G1 X80.573 Y66.374 E19.96962
G1 X83.502 Y65.752 E20.26514
G1 X86.498 Y65.752 E20.56065
G1 X89.427 Y66.374 E20.85616
G1 X92.163 Y67.593 E21.15167
G1 X94.586 Y69.353 E21.44718
G1 X96.591 Y71.579 E21.74269
G1 X98.088 Y74.173 E22.03820
G1 X99.014 Y77.021 E22.33371
G1 X99.327 Y80.000 E22.62923
G1 X99.014 Y82.979 E22.92474
G1 X98.088 Y85.827 E23.22025
G1 X96.591 Y88.421 E23.51576
G1 X94.586 Y90.647 E23.81127
G1 X92.163 Y92.407 E24.10678
G1 X89.427 Y93.626 E24.40229
G1 X86.498 Y94.248 E24.69780
G1 X83.502 Y94.248 E24.99331
G1 X80.573 Y93.626 E25.28883
G1 X77.837 Y92.407 E25.58434
G1 X75.414 Y90.647 E25.87985
G1 X73.409 Y88.421 E26.17536
G1 X71.912 Y85.827 E26.47087
G1 X70.986 Y82.979 E26.76638
G1 X70.673 Y80.000 E27.06189
G1 X70.986 Y77.021 E27.35740
G1 X71.912 Y74.173 E27.65291
G1 X73.409 Y71.579 E27.94843
G1 X75.351 Y69.423 E28.23469
G1 X75.305 Y68.738 F4800.000
G1 X65.600 Y60.600 F4800.000
G1 X104.400 Y60.600 E32.06293 F540.000
G1 X104.400 Y99.400 E35.89117
G1 X65.600 Y99.400 E39.71942
G1 X65.600 Y60.694 E43.53841
G1 X64.975 Y59.975 F4800.000
G1 X105.025 Y59.975 E47.48996 F540.000
G1 X105.025 Y100.025 E51.44151
G1 X64.975 Y100.025 E55.39306
G1 X64.975 Y60.069 E59.33537
G1 X64.350 Y59.350 F4800.000
G1 X105.650 Y59.350 E63.41023 F378.000
G1 X105.650 Y100.650 E67.48509
G1 X64.350 Y100.650 E71.55995
G1 X64.350 Y59.444 E75.62556
G1 X64.891 Y59.662 F4800.000
G1 X66.021 Y82.866 F4800.000
G1 X71.348 Y88.193 E76.37545 F1080.000
G1 X70.290 Y86.243 F4800.000
G1 X66.021 Y81.975 E76.97637 F1080.000
G1 X66.021 Y81.083 E77.06513
G1 X69.861 Y84.922 E77.60564
G1 X69.431 Y83.602 E77.74388
G1 X66.021 Y80.191 E78.22397
G1 X66.021 Y79.300 E78.31273
G1 X69.260 Y82.538 E78.76862
G1 X69.155 Y81.542 E78.86835
G1 X66.021 Y78.408 E79.30950
G1 X66.021 Y77.516 E79.39826
G1 X69.050 Y80.545 E79.82466
G1 X69.031 Y79.635 E79.91532
G1 X66.021 Y76.625 E80.33906
G1 X66.021 Y75.733 E80.42782
G1 X69.116 Y78.828 E80.86350
G1 X69.201 Y78.021 E80.94426
G1 X66.021 Y74.842 E81.39188
G1 X66.021 Y73.950 E81.48064
G1 X69.286 Y77.214 E81.94019
G1 X69.414 Y76.451 E82.01722
G1 X66.021 Y73.058 E82.49489
G1 X66.021 Y72.167 E82.58365
G1 X69.633 Y75.778 E83.09210
G1 X69.852 Y75.105 E83.16254
G1 X66.021 Y71.275 E83.70178
G1 X66.021 Y70.383 E83.79054
G1 X70.070 Y74.432 E84.36056
G1 X70.289 Y73.759 E84.43100
G1 X66.021 Y69.492 E85.03181
G1 X66.021 Y68.600 E85.12057
G1 X70.572 Y73.151 E85.76123
G1 X70.898 Y72.586 E85.82621
G1 X66.021 Y67.709 E86.51282
G1 X66.021 Y66.817 E86.60158
G1 X71.225 Y72.020 E87.33413
G1 X71.551 Y71.455 E87.39911
G1 X66.021 Y65.925 E88.17761
G1 X66.021 Y65.034 E88.26637
G1 X71.877 Y70.890 E89.09082
G1 X72.249 Y70.370 E89.15444
G1 X66.021 Y64.142 E90.03122
G1 X66.021 Y63.250 E90.11998
G1 X72.672 Y69.901 E91.05622
G1 X73.094 Y69.432 E91.11907
G1 X66.021 Y62.359 E92.11479
G1 X66.021 Y61.467 E92.20355
G1 X73.517 Y68.962 E93.25875
G1 X73.939 Y68.493 E93.32160
G1 X66.467 Y61.021 E94.37350
G1 X67.359 Y61.021 E94.46226
G1 X74.378 Y68.040 E95.45038
G1 X74.894 Y67.665 E95.51392
G1 X68.250 Y61.021 E96.44922
G1 X69.142 Y61.021 E96.53798
G1 X75.410 Y67.290 E97.42045
G1 X75.927 Y66.914 E97.48399
G1 X70.034 Y61.021 E98.31364
G1 X70.925 Y61.021 E98.40240
G1 X76.443 Y66.539 E99.17923
G1 X76.960 Y66.164 E99.24277
G1 X71.817 Y61.021 E99.96678
G1 X72.709 Y61.021 E100.05554
G1 X77.569 Y65.882 E100.73987
G1 X78.186 Y65.608 E100.80710
G1 X73.600 Y61.021 E101.45276
G1 X74.492 Y61.021 E101.54152
G1 X78.803 Y65.333 E102.14850
G1 X79.420 Y65.058 E102.21573
G1 X75.383 Y61.021 E102.78405
G1 X76.275 Y61.021 E102.87281
G1 X80.037 Y64.783 E103.40245
G1 X80.769 Y64.624 E103.47705
G1 X77.167 Y61.021 E103.98426
G1 X78.058 Y61.021 E104.07302
G1 X81.505 Y64.468 E104.55822
G1 X82.240 Y64.311 E104.63305
G1 X78.950 Y61.021 E105.09625
G1 X79.842 Y61.021 E105.18501
G1 X82.975 Y64.155 E105.62620
G1 X83.792 Y64.080 E105.70787
G1 X80.733 Y61.021 E106.13855
G1 X81.625 Y61.021 E106.22731
G1 X84.684 Y64.080 E106.65799
G1 X85.576 Y64.080 E106.74675
G1 X82.517 Y61.021 E107.17743
G1 X83.408 Y61.021 E107.26619
G1 X86.467 Y64.080 E107.69687
G1 X87.544 Y64.266 E107.80563
G1 X84.300 Y61.021 E108.26237
G1 X85.191 Y61.021 E108.35113
G1 X88.676 Y64.506 E108.84176
G1 X89.809 Y64.747 E108.95699
G1 X86.083 Y61.021 E109.48150
G1 X86.975 Y61.021 E109.57026
G1 X91.358 Y65.405 E110.18737
G1 X92.965 Y66.120 F4800.000
G1 X87.866 Y61.021 E110.90523 F1080.000
G1 X88.758 Y61.021 E110.99399
G1 X103.979 Y76.242 E113.13679
G1 X103.979 Y77.134 E113.22555
G1 X98.652 Y71.807 E113.97545
G1 X99.710 Y73.757 F4800.000
G1 X103.979 Y78.025 E114.57637 F1080.000
G1 X103.979 Y78.917 E114.66513
G1 X100.139 Y75.078 E115.20564
G1 X100.569 Y76.398 E115.34389
G1 X103.979 Y79.809 E115.82398
G1 X103.979 Y80.700 E115.91274
G1 X100.740 Y77.462 E116.36863
G1 X100.845 Y78.458 E116.46836
G1 X103.979 Y81.592 E116.90951
G1 X103.979 Y82.483 E116.99827
G1 X100.950 Y79.455 E117.42468
G1 X100.969 Y80.365 E117.51534
G1 X103.979 Y83.375 E117.93908
G1 X103.979 Y84.267 E118.02784
G1 X100.884 Y81.172 E118.46352
G1 X100.799 Y81.979 E118.54428
G1 X103.979 Y85.158 E118.99190
G1 X103.979 Y86.050 E119.08065
G1 X100.714 Y82.786 E119.54021
G1 X100.586 Y83.549 E119.61723
G1 X103.979 Y86.942 E120.09490
G1 X103.979 Y87.833 E120.18366
G1 X100.367 Y84.222 E120.69212
G1 X100.148 Y84.895 E120.76256
G1 X103.979 Y88.725 E121.30180
G1 X103.979 Y89.617 E121.39056
G1 X99.930 Y85.568 E121.96058
G1 X99.711 Y86.241 E122.03102
G1 X103.979 Y90.508 E122.63182
G1 X103.979 Y91.400 E122.72058
G1 X99.428 Y86.849 E123.36124
G1 X99.102 Y87.414 E123.42622
G1 X103.979 Y92.291 E124.11283
G1 X103.979 Y93.183 E124.20159
G1 X98.775 Y87.980 E124.93414
G1 X98.449 Y88.545 E124.99912
G1 X103.979 Y94.075 E125.77762
G1 X103.979 Y94.966 E125.86638
G1 X98.123 Y89.110 E126.69082
G1 X97.751 Y89.630 E126.75445
G1 X103.979 Y95.858 E127.63122
G1 X103.979 Y96.750 E127.71998
G1 X97.328 Y90.099 E128.65623
G1 X96.906 Y90.568 E128.71908
G1 X103.979 Y97.641 E129.71479
G1 X103.979 Y98.533 E129.80355
G1 X96.483 Y91.038 E130.85875
G1 X96.061 Y91.507 E130.92160
G1 X103.533 Y98.979 E131.97350
G1 X102.641 Y98.979 E132.06226
G1 X95.622 Y91.960 E133.05038
G1 X95.106 Y92.335 E133.11393
G1 X101.750 Y98.979 E134.04922
G1 X100.858 Y98.979 E134.13798
G1 X94.590 Y92.710 E135.02046
G1 X94.073 Y93.086 E135.08400
G1 X99.966 Y98.979 E135.91366
G1 X99.075 Y98.979 E136.00242
G1 X93.557 Y93.461 E136.77925
G1 X93.040 Y93.836 E136.84279
G1 X98.183 Y98.979 E137.56680
G1 X97.291 Y98.979 E137.65556
G1 X92.431 Y94.118 E138.33989
G1 X91.814 Y94.392 E138.40712
G1 X96.400 Y98.979 E139.05278
G1 X95.508 Y98.979 E139.14154
G1 X91.197 Y94.667 E139.74853
G1 X90.580 Y94.942 E139.81576
G1 X94.617 Y98.979 E140.38408
G1 X93.725 Y98.979 E140.47284
G1 X89.963 Y95.217 E141.00249
G1 X89.231 Y95.376 E141.07709
G1 X92.833 Y98.979 E141.58429
G1 X91.942 Y98.979 E141.67305
G1 X88.495 Y95.532 E142.15826
G1 X87.760 Y95.689 E142.23309
G1 X91.050 Y98.979 E142.69629
G1 X90.158 Y98.979 E142.78505
G1 X87.025 Y95.845 E143.22625
G1 X86.208 Y95.920 E143.30791
G1 X89.267 Y98.979 E143.73859
G1 X88.375 Y98.979 E143.82735
G1 X85.316 Y95.920 E144.25803
G1 X84.424 Y95.920 E144.34679
G1 X87.484 Y98.979 E144.77747
G1 X86.592 Y98.979 E144.86623
G1 X83.533 Y95.920 E145.29691
G1 X82.456 Y95.734 E145.40567
G1 X85.700 Y98.979 E145.86241
G1 X84.809 Y98.979 E145.95117
G1 X81.324 Y95.494 E146.44180
G1 X80.191 Y95.253 E146.55703
G1 X83.917 Y98.979 E147.08154
G1 X83.025 Y98.979 E147.17030
G1 X78.642 Y94.595 E147.78741
G1 X77.035 Y93.880 F4800.000
G1 X82.134 Y98.979 E148.50526 F1080.000
G1 X81.242 Y98.979 E148.59402
G1 X66.021 Y83.758 E150.73683
G1 X66.021 Y84.650 E150.82559
G1 X80.350 Y98.979 E152.84288
G1 X79.459 Y98.979 E152.93164
G1 X66.021 Y85.541 E154.82340
G1 X66.021 Y86.433 E154.91216
G1 X78.567 Y98.979 E156.67839
G1 X77.676 Y98.979 E156.76715
G1 X66.021 Y87.324 E158.40786
G1 X66.021 Y88.216 E158.49662
G1 X76.784 Y98.979 E160.01180
G1 X75.892 Y98.979 E160.10056
G1 X66.021 Y89.108 E161.49022
G1 X66.021 Y89.999 E161.57898
G1 X75.001 Y98.979 E162.84311
G1 X74.109 Y98.979 E162.93187
G1 X66.021 Y90.891 E164.07048
G1 X66.021 Y91.783 E164.15924
G1 X73.217 Y98.979 E165.17232
G1 X72.326 Y98.979 E165.26108
G1 X66.021 Y92.674 E166.14863
G1 X66.021 Y93.566 E166.23739
G1 X71.434 Y98.979 E166.99942
G1 X70.542 Y98.979 E167.08818
G1 X66.021 Y94.458 E167.72468
G1 X66.021 Y95.349 E167.81344
G1 X69.651 Y98.979 E168.32442
G1 X68.759 Y98.979 E168.41318
G1 X66.021 Y96.241 E168.79863
G1 X66.021 Y97.132 E168.88739
G1 X67.868 Y98.979 E169.14732
G1 X66.976 Y98.979 E169.23608
G1 X66.021 Y98.024 E169.37048
G1 X66.021 Y98.916 E169.45924
G1 X66.084 Y98.979 E169.46812
G1 F1800.000 E168.96812
G1 Z5.350 F4800.000
G92 E0
G1 X89.650 Y61.021 F4800.000
G1 Z0.350 F4800.000
G1 E0.50000 F1800.000
G1 X103.979 Y75.350 E2.51728 F1080.000
G1 X103.979 Y74.459 E2.60604
G1 X90.541 Y61.021 E4.49779
G1 X91.433 Y61.021 E4.58655
G1 X103.979 Y73.567 E6.35278
G1 X103.979 Y72.676 E6.44154
G1 X92.324 Y61.021 E8.08224
G1 X93.216 Y61.021 E8.17100
G1 X103.979 Y71.784 E9.68618
G1 X103.979 Y70.892 E9.77494
G1 X94.108 Y61.021 E11.16459
G1 X94.999 Y61.021 E11.25335
G1 X103.979 Y70.001 E12.51747
G1 X103.979 Y69.109 E12.60623
G1 X95.891 Y61.021 E13.74483
G1 X96.783 Y61.021 E13.83359
G1 X103.979 Y68.217 E14.84667
G1 X103.979 Y67.326 E14.93543
G1 X97.674 Y61.021 E15.82298
G1 X98.566 Y61.021 E15.91174
G1 X103.979 Y66.434 E16.67376
G1 X103.979 Y65.542 E16.76252
G1 X99.458 Y61.021 E17.39902
G1 X100.349 Y61.021 E17.48778
G1 X103.979 Y64.651 E17.99875
G1 X103.979 Y63.759 E18.08751
G1 X101.241 Y61.021 E18.47295
G1 X102.132 Y61.021 E18.56171
G1 X103.979 Y62.868 E18.82164
G1 X103.979 Y61.976 E18.91040
G1 X103.024 Y61.021 E19.04479
G1 X103.916 Y61.021 E19.13355
G1 X103.979 Y61.084 E19.14242
M106 S89
M140 S60 ; set bed temperature
G1 F1800.000 E18.64242
G1 Z5.550 F4800.000
G92 E0
G1 X95.193 Y68.680 F4800.000
G1 Z0.550 F4800.000
G1 E0.50000 F1800.000
G1 X97.324 Y71.046 E0.60056 F1800
G1 X98.916 Y73.804 E0.70113
G1 X99.900 Y76.833 E0.80169
G1 X100.233 Y80.000 E0.90226
G1 X99.900 Y83.167 E1.00282
G1 X98.916 Y86.196 E1.10338
G1 X97.324 Y88.954 E1.20395
G1 X95.758 Y90.693 E1.27786
G1 X95.193 Y91.320 E1.30451
G1 X92.617 Y93.192 E1.40508
G1 X89.707 Y94.488 E1.50564
G1 X86.592 Y95.150 E1.60621
G1 X83.408 Y95.150 E1.70677
G1 X80.293 Y94.488 E1.80733
G1 X77.383 Y93.192 E1.90790
G1 X74.807 Y91.320 E2.00846
G1 X72.676 Y88.954 E2.10903
G1 X71.084 Y86.196 E2.20959
G1 X70.100 Y83.167 E2.31015
G1 X69.928 Y81.534 E2.36202
G1 X69.767 Y80.000 E2.41072
G1 X70.100 Y76.833 E2.51128
G1 X71.084 Y73.804 E2.61185
G1 X72.676 Y71.046 E2.71241
G1 X74.807 Y68.680 E2.81297
G1 X77.383 Y66.808 E2.91354
G1 X80.293 Y65.512 E3.01410
G1 X83.408 Y64.850 E3.11467
G1 X86.592 Y64.850 E3.21523
G1 X89.707 Y65.512 E3.31579
G1 X92.617 Y66.808 E3.41636
G1 X95.150 Y68.649 E3.51526
G1 X94.957 Y68.941 F4800.000
G1 X97.039 Y71.253 E3.61351 F1800
G1 X98.595 Y73.947 E3.71175
G1 X99.556 Y76.906 E3.80999
G1 X99.881 Y80.000 E3.90823
G1 X99.556 Y83.094 E4.00647
G1 X98.595 Y86.053 E4.10471
G1 X97.039 Y88.747 E4.20295
G1 X95.930 Y89.979 E4.25532
G1 X94.957 Y91.059 E4.30119
G1 X92.441 Y92.887 E4.39943
G1 X89.599 Y94.153 E4.49767
G1 X86.556 Y94.800 E4.59591
G1 X83.444 Y94.800 E4.69415
G1 X80.401 Y94.153 E4.79239
G1 X77.559 Y92.887 E4.89064
G1 X75.043 Y91.059 E4.98888
G1 X72.961 Y88.747 E5.08712
G1 X71.405 Y86.053 E5.18536
G1 X70.444 Y83.094 E5.28360
G1 X70.276 Y81.497 E5.33430
G1 X70.119 Y80.000 E5.38184
G1 X70.444 Y76.906 E5.48008
G1 X71.405 Y73.947 E5.57832
G1 X72.961 Y71.253 E5.67656
G1 X75.043 Y68.941 E5.77480
G1 X77.559 Y67.113 E5.87304
G1 X80.401 Y65.847 E5.97128
G1 X83.444 Y65.200 E6.06952
G1 X86.556 Y65.200 E6.16776
G1 X89.599 Y65.847 E6.26601
G1 X92.441 Y67.113 E6.36425
G1 X94.915 Y68.910 E6.46083
G1 X94.722 Y69.203 F4800.000
G1 X96.754 Y71.460 E6.55675 F1260
G1 X98.273 Y74.090 E6.65266
G1 X99.212 Y76.979 E6.74858
G1 X99.529 Y80.000 E6.84450
G1 X99.212 Y83.021 E6.94042
G1 X98.273 Y85.910 E7.03633
G1 X96.754 Y88.540 E7.13225
G1 X95.669 Y89.745 E7.18346
G1 X94.722 Y90.797 E7.22817
G1 X92.265 Y92.583 E7.32409
G1 X89.490 Y93.818 E7.42000
G1 X86.519 Y94.450 E7.51592
G1 X83.481 Y94.450 E7.61184
G1 X80.510 Y93.818 E7.70776
