; generated by Slic3r 1.0.0RC2 on 2014-01-13 at 19:22:19

; layer_height = 0.2
; perimeters = 3
; top_solid_layers = 5
; bottom_solid_layers = 5
; fill_density = 0.4
; perimeter_speed = 30
; infill_speed = 60
; travel_speed = 80
; nozzle_diameter = 0.35
; filament_diameter = 1.68
; extrusion_multiplier = 1.0
; perimeters extrusion width = 0.35mm
; infill extrusion width = 0.52mm
; solid infill extrusion width = 0.52mm
; top infill extrusion width = 0.52mm
; first layer extrusion width = 0.70mm

G21 ; set units to millimeters
M107
M190 S65 ; wait for bed temperature to be reached
M104 S185 ; set temperature
G28 ; home all axes
G1 Z5 F5000 ; lift nozzle
M109 S185 ; wait for temperature to be reached
G90 ; use absolute coordinates
G92 E0
M82 ; use absolute distances for extrusion
G1 Z0.350 F4800.000
G1 X59.100 Y75.320 F4800.000
G1 X80.260 Y54.150 E2.95322 F540.000
G1 X80.810 Y53.660 E3.02590
G1 X82.020 Y52.870 E3.16848
G1 X83.310 Y52.380 E3.30463
G1 X84.680 Y52.170 E3.44138
G1 X86.050 Y52.250 E3.57678
G1 X87.380 Y52.610 E3.71272
G1 X88.610 Y53.240 E3.84907
G1 X89.680 Y54.110 E3.98514
G1 X110.890 Y75.320 E6.94464
G1 X111.720 Y76.320 E7.07286
G1 X112.330 Y77.460 E7.20043
G1 X112.710 Y78.710 E7.32933
G1 X112.830 Y80.000 E7.45716
G1 X112.710 Y81.290 E7.58499
G1 X112.330 Y82.540 E7.71389
G1 X111.720 Y83.680 E7.84146
G1 X110.890 Y84.680 E7.96968
G1 X89.680 Y105.890 E10.92918
G1 X88.680 Y106.720 E11.05741
G1 X87.540 Y107.330 E11.18497
G1 X86.290 Y107.710 E11.31388
G1 X85.000 Y107.830 E11.44171
G1 X83.710 Y107.710 E11.56953
G1 X82.460 Y107.330 E11.69844
G1 X81.320 Y106.720 E11.82601
G1 X80.320 Y105.890 E11.95423
G1 X59.110 Y84.680 E14.91373
G1 X58.280 Y83.680 E15.04195
G1 X57.670 Y82.540 E15.16952
G1 X57.290 Y81.290 E15.29842
G1 X57.170 Y80.000 E15.42625
G1 X57.290 Y78.710 E15.55408
G1 X57.670 Y77.470 E15.68204
G1 X58.280 Y76.320 E15.81048
G1 X59.041 Y75.392 E15.92882
G1 X73.484 Y78.176 F4800.000
G1 X74.115 Y75.822 E16.16932 F540.000
G1 X75.222 Y73.650 E16.40981
G1 X76.756 Y71.756 E16.65030
G1 X78.650 Y70.222 E16.89080
G1 X80.822 Y69.115 E17.13129
G1 X83.176 Y68.484 E17.37178
G1 X85.610 Y68.357 E17.61228
G1 X88.018 Y68.738 E17.85277
G1 X90.293 Y69.611 E18.09327
G1 X92.337 Y70.939 E18.33376
G1 X94.061 Y72.662 E18.57425
G1 X95.389 Y74.707 E18.81475
G1 X96.262 Y76.982 E19.05524
G1 X96.643 Y79.390 E19.29573
G1 X96.516 Y81.824 E19.53623
G1 X95.885 Y84.178 E19.77672
G1 X94.778 Y86.350 E20.01721
G1 X93.244 Y88.244 E20.25771
G1 X91.350 Y89.778 E20.49820
G1 X89.178 Y90.885 E20.73870
G1 X86.824 Y91.516 E20.97919
G1 X84.390 Y91.643 E21.21968
G1 X81.982 Y91.262 E21.46018
G1 X79.707 Y90.389 E21.70067
G1 X77.663 Y89.061 E21.94116
G1 X75.939 Y87.337 E22.18166
G1 X74.611 Y85.293 E22.42215
G1 X73.738 Y83.018 E22.66265
G1 X73.357 Y80.610 E22.90314
G1 X73.479 Y78.270 E23.13438
G1 X74.105 Y78.274 F4800.000
G1 X74.702 Y76.047 E23.36192 F540.000
G1 X75.749 Y73.992 E23.58945
G1 X77.200 Y72.200 E23.81698
G1 X78.992 Y70.749 E24.04452
G1 X81.047 Y69.702 E24.27205
G1 X82.336 Y69.356 E24.40372
G1 X83.274 Y69.105 E24.49958
G1 X85.577 Y68.984 E24.72712
G1 X87.855 Y69.345 E24.95465
G1 X90.008 Y70.171 E25.18218
G1 X91.942 Y71.427 E25.40972
G1 X93.573 Y73.058 E25.63725
G1 X94.829 Y74.992 E25.86478
G1 X95.655 Y77.145 E26.09232
G1 X96.016 Y79.423 E26.31985
G1 X95.895 Y81.726 E26.54738
G1 X95.298 Y83.953 E26.77492
G1 X94.251 Y86.008 E27.00245
G1 X92.800 Y87.800 E27.22998
G1 X91.008 Y89.251 E27.45752
G1 X88.953 Y90.298 E27.68505
G1 X86.726 Y90.895 E27.91258
G1 X84.423 Y91.016 E28.14012
G1 X82.145 Y90.655 E28.36765
G1 X79.992 Y89.829 E28.59518
G1 X78.058 Y88.573 E28.82272
G1 X76.427 Y86.942 E29.05025
G1 X75.171 Y85.008 E29.27778
G1 X74.345 Y82.855 E29.50532
G1 X73.984 Y80.577 E29.73285
G1 X74.100 Y78.368 E29.95113
G1 X74.725 Y78.373 F4800.000
G1 X75.288 Y76.272 E30.16571 F378.000
G1 X76.276 Y74.334 E30.38028
G1 X77.644 Y72.644 E30.59485
G1 X79.334 Y71.276 E30.80943
G1 X81.272 Y70.288 E31.02400
G1 X82.498 Y69.960 E31.14919
G1 X83.373 Y69.725 E31.23857
G1 X85.544 Y69.612 E31.45314
G1 X87.692 Y69.952 E31.66772
G1 X89.723 Y70.731 E31.88229
G1 X91.547 Y71.916 E32.09686
G1 X93.084 Y73.453 E32.31144
G1 X94.269 Y75.277 E32.52601
G1 X95.048 Y77.308 E32.74058
G1 X95.388 Y79.456 E32.95515
G1 X95.275 Y81.627 E33.16973
G1 X94.712 Y83.728 E33.38430
G1 X93.724 Y85.666 E33.59887
G1 X92.356 Y87.356 E33.81345
G1 X90.666 Y88.724 E34.02802
G1 X88.728 Y89.712 E34.24259
G1 X86.627 Y90.275 E34.45717
G1 X84.456 Y90.388 E34.67174
G1 X82.308 Y90.048 E34.88631
G1 X80.277 Y89.269 E35.10088
G1 X78.453 Y88.084 E35.31546
G1 X76.916 Y86.547 E35.53003
G1 X75.731 Y84.723 E35.74460
G1 X74.952 Y82.692 E35.95918
G1 X74.612 Y80.544 E36.17375
G1 X74.720 Y78.466 E36.37907
G1 X74.254 Y77.963 F4800.000
G1 X66.049 Y80.000 F4800.000
G1 X85.000 Y61.049 E39.02334 F540.000
G1 X103.951 Y80.000 E41.66760
G1 X85.000 Y98.951 E44.31186
G1 X66.116 Y80.066 E46.94688
G1 X65.165 Y80.000 F4800.000
G1 X85.000 Y60.165 E49.71445 F540.000
G1 X104.835 Y80.000 E52.48202
G1 X85.000 Y99.835 E55.24960
G1 X65.232 Y80.066 E58.00792
G1 X64.282 Y80.000 F4800.000
G1 X85.000 Y59.282 E60.89880 F378.000
G1 X105.718 Y80.000 E63.78969
G1 X85.000 Y100.718 E66.68057
G1 X64.348 Y80.066 E69.56220
G1 X64.885 Y79.838 F4800.000
G1 X79.810 Y90.879 F4800.000
G1 X85.899 Y96.969 E70.42688 F1080.000
G1 X85.450 Y97.419 E70.49072
G1 X77.942 Y89.911 E71.55669
G1 X76.709 Y89.577 E71.68503
G1 X85.000 Y97.868 E72.86234
G1 X81.269 Y91.440 F4800.000
G1 X86.349 Y96.519 E73.58361 F1080.000
G1 X86.799 Y96.070 E73.64746
G1 X82.499 Y91.770 E74.25790
G1 X83.568 Y91.940 E74.36652
G1 X87.248 Y95.620 E74.88909
G1 X87.698 Y95.170 E74.95294
G1 X84.583 Y92.055 E75.39527
G1 X85.437 Y92.010 E75.48119
G1 X88.148 Y94.721 E75.86604
G1 X88.597 Y94.271 E75.92988
G1 X86.292 Y91.966 E76.25724
G1 X87.103 Y91.877 E76.33915
G1 X89.047 Y93.821 E76.61520
G1 X89.496 Y93.372 E76.67905
G1 X87.812 Y91.687 E76.91824
G1 X88.521 Y91.497 E76.99196
G1 X89.946 Y92.922 E77.19429
G1 X90.396 Y92.472 E77.25814
G1 X89.230 Y91.307 E77.42361
G1 X89.842 Y91.020 E77.49147
G1 X90.845 Y92.023 E77.63393
G1 X91.295 Y91.573 E77.69778
G1 X90.438 Y90.716 E77.81949
G1 X91.034 Y90.412 E77.88662
G1 X91.745 Y91.124 E77.98759
G1 X92.194 Y90.674 E78.05143
G1 X91.621 Y90.101 E78.13280
G1 X92.340 Y89.921 E78.20723
G1 X92.644 Y90.224 E78.25034
G1 X93.094 Y89.775 E78.31419
G1 X92.837 Y89.518 E78.35059
G1 X93.334 Y89.116 E78.41479
G1 X93.543 Y89.325 E78.44448
G1 X76.087 Y89.101 F4800.000
G1 X75.899 Y88.913 E78.47061 F360.000
G1 X89.243 Y95.556 F4800.000
G1 X96.314 Y88.485 F4800.000
G1 X99.142 Y74.343 F4800.000
G1 X93.645 Y73.123 F4800.000
G1 X93.587 Y71.252 F4800.000
G1 X93.748 Y71.413 E78.49300 F360.000
G1 X83.586 Y61.615 F4800.000
G1 X76.707 Y72.768 F4800.000
G1 X75.884 Y71.666 F4800.000
G1 X75.675 Y71.457 E78.52269 F1080.000
G1 X75.225 Y71.906 E78.58653
G1 X75.482 Y72.163 E78.62294
G1 X75.079 Y72.660 E78.68713
G1 X74.776 Y72.356 E78.73025
G1 X74.326 Y72.806 E78.79409
G1 X74.677 Y73.157 E78.84391
G1 X74.355 Y73.734 E78.91029
G1 X73.876 Y73.255 E78.97828
G1 X73.427 Y73.705 E79.04212
G1 X74.052 Y74.330 E79.13085
G1 X73.748 Y74.926 E79.19798
G1 X72.977 Y74.155 E79.30746
G1 X72.528 Y74.604 E79.37130
G1 X73.445 Y75.521 E79.50152
G1 X73.248 Y76.224 E79.57476
G1 X72.078 Y75.054 E79.74087
G1 X71.628 Y75.504 E79.80471
G1 X73.058 Y76.933 E80.00768
G1 X72.868 Y77.642 E80.08140
G1 X71.179 Y75.953 E80.32123
G1 X70.729 Y76.403 E80.38508
G1 X72.737 Y78.411 E80.67023
G1 X72.455 Y79.028 E80.73835
G1 X70.279 Y76.852 E81.04725
G1 X69.830 Y77.302 E81.11109
G1 X72.515 Y79.988 E81.49241
G1 X72.603 Y80.975 E81.59189
G1 X69.380 Y77.752 E82.04950
G1 X68.930 Y78.201 E82.11335
G1 X72.457 Y81.728 E82.61410
G1 X73.017 Y83.188 F4800.000
G1 X68.481 Y78.651 E83.25825 F1080.000
G1 X68.031 Y79.101 E83.32210
G1 X73.578 Y84.647 E84.10964
G1 X74.500 Y86.469 F4800.000
G1 X67.581 Y79.550 E85.09206 F1080.000
G1 X67.132 Y80.000 E85.15590
G1 X75.423 Y88.291 E86.33320
G1 X68.029 Y82.828 F4800.000
G1 X76.666 Y70.885 F4800.000
G1 X76.236 Y70.454 E86.39593 F1080.000
G1 X76.697 Y69.993 E86.46312
G1 X77.176 Y70.472 E86.53291
G1 X77.686 Y70.059 E86.60047
G1 X77.158 Y69.532 E86.67732
G1 X77.620 Y69.070 E86.74451
G1 X78.196 Y69.646 E86.82842
G1 X78.796 Y69.324 E86.89861
G1 X78.081 Y68.609 E87.00283
G1 X78.542 Y68.148 E87.07002
G1 X79.407 Y69.013 E87.19606
G1 X80.019 Y68.702 E87.26671
G1 X79.003 Y67.686 E87.41459
G1 X79.465 Y67.225 E87.48178
G1 X80.644 Y68.404 E87.65349
G1 X81.371 Y68.209 E87.73108
G1 X79.926 Y66.764 E87.94158
G1 X80.387 Y66.303 E88.00877
G1 X82.099 Y68.014 E88.25807
G1 X82.826 Y67.819 E88.33565
G1 X80.849 Y65.841 E88.62374
G1 X81.310 Y65.380 E88.69094
G1 X83.655 Y67.725 E89.03253
G1 X84.531 Y67.679 E89.12294
G1 X81.771 Y64.919 E89.52504
G1 X82.232 Y64.458 E89.59223
G1 X85.724 Y67.949 E90.10079
G1 X86.820 Y68.123 E90.21510
G1 X82.694 Y63.996 E90.81615
G1 X83.155 Y63.535 E90.88334
G1 X87.916 Y68.296 E91.57686
G1 X89.336 Y68.794 F4800.000
G1 X83.616 Y63.074 E92.41005 F1080.000
G1 X84.077 Y62.612 E92.47724
G1 X91.097 Y69.632 E93.49977
G1 X92.666 Y70.278 F4800.000
G1 X84.539 Y62.151 E94.68362 F1080.000
G1 X85.000 Y61.690 E94.75081
G1 X93.498 Y70.188 E95.98867
G1 X95.707 Y72.397 F4800.000
G1 X94.812 Y71.502 E96.11907 F1080.000
G1 X94.722 Y72.334 E96.20527
G1 X102.628 Y80.240 E97.35694
G1 X102.167 Y80.702 E97.42413
G1 X95.368 Y73.903 E98.41448
G1 X96.206 Y75.664 F4800.000
G1 X101.705 Y81.163 E99.21548 F1080.000
G1 X101.244 Y81.624 E99.28267
G1 X96.704 Y77.084 E99.94401
G1 X96.877 Y78.180 E100.05832
G1 X100.783 Y82.085 E100.62719
G1 X100.322 Y82.547 E100.69438
G1 X97.051 Y79.276 E101.17076
G1 X97.023 Y80.171 E101.26298
G1 X99.860 Y83.008 E101.67619
G1 X99.399 Y83.469 E101.74338
G1 X96.978 Y81.048 E102.09610
G1 X96.926 Y81.919 E102.18595
G1 X98.938 Y83.931 E102.47902
G1 X98.476 Y84.392 E102.54621
G1 X96.731 Y82.646 E102.80049
G1 X96.536 Y83.374 E102.87807
G1 X98.015 Y84.853 E103.09355
G1 X97.554 Y85.314 E103.16074
G1 X96.341 Y84.101 E103.33744
G1 X96.066 Y84.749 E103.40991
G1 X97.093 Y85.776 E103.55944
G1 X96.631 Y86.237 E103.62663
G1 X95.755 Y85.360 E103.75433
G1 X95.443 Y85.971 E103.82498
G1 X96.170 Y86.698 E103.93085
G1 X95.709 Y87.159 E103.99804
G1 X95.354 Y86.804 E104.04977
G1 X94.941 Y87.314 E104.11733
G1 X95.247 Y87.621 E104.16200
G1 X94.786 Y88.082 E104.22919
G1 X94.528 Y87.824 E104.26680
G1 X94.115 Y88.334 E104.33436
G1 X94.325 Y88.543 E104.36490
M106 S230
M140 S60 ; set bed temperature
G1 Z0.550 F4800.000
G1 X93.494 Y87.383 F4800.000
G1 X92.997 Y87.997 E104.38985 F1800
G1 X91.159 Y89.485 E104.46451
G1 X89.053 Y90.558 E104.53917
G1 X86.769 Y91.170 E104.61383
G1 X84.408 Y91.294 E104.68849
G1 X82.073 Y90.924 E104.76314
G1 X79.866 Y90.077 E104.83780
G1 X77.883 Y88.789 E104.91246
G1 X76.211 Y87.117 E104.98712
G1 X74.923 Y85.134 E105.06178
G1 X74.076 Y82.927 E105.13644
G1 X73.706 Y80.592 E105.21110
G1 X73.830 Y78.231 E105.28576
G1 X74.442 Y75.947 E105.36042
G1 X75.515 Y73.841 E105.43508
G1 X77.003 Y72.003 E105.50974
G1 X78.841 Y70.515 E105.58440
G1 X80.947 Y69.442 E105.65906
G1 X83.231 Y68.830 E105.73372
G1 X84.319 Y68.773 E105.76814
G1 X85.592 Y68.706 E105.80837
G1 X87.927 Y69.076 E105.88303
G1 X90.134 Y69.923 E105.95769
G1 X92.117 Y71.211 E106.03235
G1 X93.789 Y72.883 E106.10701
G1 X95.077 Y74.866 E106.18167
G1 X95.924 Y77.073 E106.25633
G1 X96.294 Y79.408 E106.33099
G1 X96.170 Y81.769 E106.40565
G1 X95.558 Y84.053 E106.48031
G1 X94.485 Y86.159 E106.55497
G1 X93.527 Y87.342 E106.60302
G1 X93.222 Y87.163 F4800.000
G1 X92.748 Y87.748 E106.62681 F1800
G1 X90.968 Y89.189 E106.69914
G1 X88.927 Y90.229 E106.77148
G1 X86.714 Y90.822 E106.84381
G1 X84.427 Y90.942 E106.91615
G1 X82.164 Y90.584 E106.98849
G1 X80.026 Y89.763 E107.06082
G1 X78.104 Y88.515 E107.13316
G1 X76.485 Y86.896 E107.20549
G1 X75.237 Y84.974 E107.27783
G1 X74.416 Y82.836 E107.35017
G1 X74.058 Y80.573 E107.42250
G1 X74.178 Y78.286 E107.49484
G1 X74.771 Y76.073 E107.56717
G1 X75.811 Y74.032 E107.63951
G1 X77.252 Y72.252 E107.71185
G1 X79.032 Y70.811 E107.78418
G1 X81.073 Y69.771 E107.85652
G1 X83.286 Y69.178 E107.92885
G1 X84.338 Y69.123 E107.96212
G1 X85.573 Y69.058 E108.00119
G1 X87.836 Y69.416 E108.07353
G1 X89.974 Y70.237 E108.14586
G1 X91.896 Y71.485 E108.21820
G1 X93.515 Y73.104 E108.29053
G1 X94.763 Y75.026 E108.36287
G1 X95.584 Y77.164 E108.43521
G1 X95.942 Y79.427 E108.50754
G1 X95.822 Y81.714 E108.57988
G1 X95.229 Y83.927 E108.65221
G1 X94.189 Y85.968 E108.72455
G1 X93.255 Y87.122 E108.77144
G1 X92.950 Y86.942 F4800.000
G1 X92.499 Y87.499 E108.79407 F1260
G1 X90.776 Y88.894 E108.86408
G1 X88.801 Y89.901 E108.93409
G1 X86.659 Y90.475 E109.00410
G1 X84.445 Y90.591 E109.07412
G1 X82.255 Y90.244 E109.14413
G1 X80.185 Y89.449 E109.21414
G1 X78.326 Y88.242 E109.28415
G1 X76.758 Y86.674 E109.35417
G1 X75.551 Y84.815 E109.42418
G1 X74.756 Y82.745 E109.49419
G1 X74.409 Y80.555 E109.56420
G1 X74.525 Y78.341 E109.63422
G1 X75.099 Y76.199 E109.70423
G1 X76.106 Y74.224 E109.77424
G1 X77.501 Y72.501 E109.84425
G1 X79.224 Y71.106 E109.91427
G1 X81.199 Y70.099 E109.98428
G1 X83.341 Y69.525 E110.05429
G1 X84.356 Y69.472 E110.08639
G1 X85.555 Y69.409 E110.12431
G1 X87.745 Y69.756 E110.19432
G1 X89.815 Y70.551 E110.26433
G1 X91.674 Y71.758 E110.33434
G1 X93.242 Y73.326 E110.40436
G1 X94.449 Y75.185 E110.47437
G1 X95.244 Y77.255 E110.54438
G1 X95.591 Y79.445 E110.61439
G1 X95.475 Y81.659 E110.68441
G1 X94.901 Y83.801 E110.75442
G1 X93.894 Y85.776 E110.82443
G1 X92.983 Y86.902 E110.87016
G1 X93.075 Y87.269 F4800.000
G1 X104.589 Y80.386 F4800.000
G1 X85.000 Y99.976 E111.74500 F1800
G1 X65.024 Y80.000 E112.63709
G1 X85.000 Y60.024 E113.52918
G1 X104.976 Y80.000 E114.42127
G1 X104.627 Y80.349 E114.43686
G1 X104.866 Y80.604 F4800.000
G1 X85.000 Y100.471 E115.32406 F1800
G1 X64.529 Y80.000 E116.23825
G1 X85.000 Y59.529 E117.15245
G1 X105.471 Y80.000 E118.06664
G1 X104.903 Y80.567 E118.09198
G1 X105.114 Y80.852 F4800.000
G1 X85.000 Y100.966 E118.99023 F1260
G1 X64.034 Y80.000 E119.92653
G1 X85.000 Y59.034 E120.86283
G1 X105.966 Y80.000 E121.79912
G1 X105.151 Y80.815 E121.83551
G1 X104.776 Y80.761 F4800.000
G1 X104.575 Y80.000 F4800.000
G1 X85.000 Y99.575 E123.04860 F3600
G1 X84.657 Y99.232 E123.06988
G1 X104.232 Y79.657 E124.28297
G1 X103.888 Y79.313 E124.30425
G1 X84.313 Y98.888 E125.51733
G1 X83.970 Y98.545 E125.53861
G1 X103.545 Y78.970 E126.75170
G1 X103.202 Y78.626 E126.77298
G1 X83.626 Y98.202 E127.98607
G1 X83.283 Y97.858 E128.00735
G1 X92.020 Y89.121 E128.54881
G1 X90.180 Y90.274 F4800.000
G1 X82.939 Y97.515 E128.99749 F3600
G1 X82.596 Y97.171 E129.01877
G1 X88.900 Y90.867 E129.40945
G1 X87.962 Y91.118 E129.45202
G1 X82.253 Y96.828 E129.80584
G1 X81.909 Y96.484 E129.82712
G1 X87.024 Y91.370 E130.14408
G1 X86.250 Y91.456 E130.17819
G1 X81.566 Y96.141 E130.46849
G1 X81.222 Y95.798 E130.48977
G1 X85.526 Y91.494 E130.75645
G1 X84.801 Y91.532 E130.78825
G1 X80.879 Y95.454 E131.03128
G1 X80.535 Y95.111 E131.05257
G1 X84.134 Y91.512 E131.27556
G1 X83.541 Y91.418 E131.30186
G1 X80.192 Y94.767 E131.50939
G1 X79.849 Y94.424 E131.53068
G1 X82.948 Y91.325 E131.72274
G1 X82.355 Y91.231 E131.74905
G1 X79.505 Y94.080 E131.92565
G1 X79.162 Y93.737 E131.94694
G1 X81.802 Y91.097 E132.11054
G1 X81.305 Y90.906 E132.13383
G1 X78.818 Y93.394 E132.28796
G1 X78.475 Y93.050 E132.30924
G1 X80.809 Y90.716 E132.45389
G1 X80.313 Y90.525 E132.47719
G1 X78.131 Y92.707 E132.61236
G1 X77.788 Y92.363 E132.63364
G1 X79.816 Y90.335 E132.75934
G1 X79.389 Y90.076 E132.78125
G1 X77.445 Y92.020 E132.90174
G1 X77.101 Y91.676 E132.92302
G1 X78.972 Y89.805 E133.03898
G1 X78.556 Y89.535 E133.06074
G1 X76.758 Y91.333 E133.17218
G1 X76.414 Y90.990 E133.19346
G1 X78.140 Y89.264 E133.30038
G1 X77.723 Y88.994 E133.32214
G1 X76.071 Y90.646 E133.42453
G1 X75.728 Y90.303 E133.44581
G1 X77.379 Y88.651 E133.54816
G1 X77.036 Y88.308 E133.56944
G1 X75.384 Y89.959 E133.67179
G1 X75.041 Y89.616 E133.69307
G1 X76.692 Y87.964 E133.79542
G1 X76.349 Y87.621 E133.81670
G1 X74.697 Y89.272 E133.91905
G1 X74.354 Y88.929 E133.94033
G1 X76.006 Y87.277 E134.04273
G1 X75.736 Y86.860 E134.06449
G1 X74.010 Y88.586 E134.17140
