; generated by Slic3r 1.0.0RC2 on 2014-01-13 at 18:25:16

; layer_height = 0.2
; perimeters = 3
; top_solid_layers = 5
; bottom_solid_layers = 5
; fill_density = 0.4
; perimeter_speed = 30
; infill_speed = 60
; travel_speed = 80
; nozzle_diameter = 0.35
; filament_diameter = 1.75
; extrusion_multiplier = 1.0
; perimeters extrusion width = 0.35mm
; infill extrusion width = 0.52mm
; solid infill extrusion width = 0.52mm
; top infill extrusion width = 0.52mm
; first layer extrusion width = 0.70mm

G21 ; set units to millimeters
M107
M190 S65 ; wait for bed temperature to be reached
M104 S195 ; set temperature
G28 ; home all axes
G1 Z5 F5000 ; lift nozzle
M109 S195 ; wait for temperature to be reached
G90 ; use absolute coordinates
G92 E0
M82 ; use absolute distances for extrusion
G1 Z0.350 F4800.000
G1 X65.320 Y60.320 F4800.000
G1 X66.320 Y59.490 E0.11817 F540.000
G1 X67.460 Y58.880 E0.23574
G1 X68.710 Y58.500 E0.35453
G1 X70.000 Y58.380 E0.47234
G1 X100.000 Y58.380 E3.20023
G1 X101.290 Y58.500 E3.31803
G1 X102.540 Y58.880 E3.43683
G1 X103.680 Y59.490 E3.55440
G1 X104.680 Y60.320 E3.67257
G1 X105.510 Y61.320 E3.79074
G1 X106.120 Y62.460 E3.90830
G1 X106.500 Y63.710 E4.02710
G1 X106.620 Y65.000 E4.14491
G1 X106.620 Y95.000 E6.87280
G1 X106.500 Y96.290 E6.99060
G1 X106.120 Y97.540 E7.10940
G1 X105.510 Y98.680 E7.22697
G1 X104.680 Y99.680 E7.34514
G1 X103.680 Y100.510 E7.46331
G1 X102.540 Y101.120 E7.58087
G1 X101.290 Y101.500 E7.69967
G1 X100.000 Y101.620 E7.81748
G1 X70.000 Y101.620 E10.54536
G1 X68.710 Y101.500 E10.66317
G1 X67.460 Y101.120 E10.78197
G1 X66.320 Y100.510 E10.89953
G1 X65.320 Y99.680 E11.01770
G1 X64.490 Y98.680 E11.13587
G1 X63.880 Y97.540 E11.25344
G1 X63.500 Y96.290 E11.37224
G1 X63.380 Y95.000 E11.49004
G1 X63.380 Y65.000 E14.21793
G1 X63.500 Y63.710 E14.33574
G1 X63.880 Y62.460 E14.45454
G1 X64.490 Y61.320 E14.57210
G1 X65.260 Y60.392 E14.68175
G1 X77.198 Y71.335 F4800.000
G1 X79.170 Y69.903 E14.90339 F540.000
G1 X81.397 Y68.911 E15.12503
G1 X83.781 Y68.404 E15.34666
G1 X86.219 Y68.404 E15.56830
G1 X88.603 Y68.911 E15.78994
G1 X90.830 Y69.903 E16.01158
G1 X92.802 Y71.335 E16.23322
G1 X94.433 Y73.147 E16.45486
G1 X95.651 Y75.258 E16.67650
G1 X96.405 Y77.576 E16.89814
G1 X96.659 Y80.000 E17.11978
G1 X96.405 Y82.424 E17.34141
G1 X95.651 Y84.742 E17.56305
G1 X94.433 Y86.853 E17.78469
G1 X92.802 Y88.665 E18.00633
G1 X90.830 Y90.097 E18.22797
G1 X88.603 Y91.089 E18.44961
G1 X86.219 Y91.596 E18.67125
G1 X83.781 Y91.596 E18.89289
G1 X81.397 Y91.089 E19.11453
G1 X79.170 Y90.097 E19.33617
G1 X77.198 Y88.665 E19.55780
G1 X75.567 Y86.853 E19.77944
G1 X74.349 Y84.742 E20.00108
G1 X73.595 Y82.424 E20.22272
G1 X73.341 Y80.000 E20.44436
G1 X73.595 Y77.576 E20.66600
G1 X74.349 Y75.258 E20.88764
G1 X75.567 Y73.147 E21.10928
G1 X77.136 Y71.405 E21.32239
G1 X77.619 Y71.802 F4800.000
G1 X79.484 Y70.447 E21.53209 F540.000
G1 X81.591 Y69.509 E21.74178
G1 X83.847 Y69.029 E21.95148
G1 X86.153 Y69.029 E22.16117
G1 X88.409 Y69.509 E22.37087
G1 X90.516 Y70.447 E22.58056
G1 X92.381 Y71.802 E22.79025
G1 X93.924 Y73.516 E22.99995
G1 X95.077 Y75.513 E23.20964
G1 X95.790 Y77.707 E23.41934
G1 X96.031 Y80.000 E23.62903
G1 X95.790 Y82.293 E23.83873
G1 X95.077 Y84.487 E24.04842
G1 X93.924 Y86.484 E24.25812
G1 X92.381 Y88.198 E24.46781
G1 X90.516 Y89.553 E24.67751
G1 X88.409 Y90.491 E24.88720
G1 X86.153 Y90.971 E25.09690
G1 X83.847 Y90.971 E25.30659
G1 X81.591 Y90.491 E25.51629
G1 X79.484 Y89.553 E25.72598
G1 X77.619 Y88.198 E25.93567
G1 X76.076 Y86.484 E26.14537
G1 X74.923 Y84.487 E26.35506
G1 X74.210 Y82.293 E26.56476
G1 X73.969 Y80.000 E26.77445
G1 X74.210 Y77.707 E26.98415
G1 X74.923 Y75.513 E27.19384
G1 X76.076 Y73.516 E27.40354
G1 X77.556 Y71.872 E27.60471
G1 X78.039 Y72.269 F4800.000
G1 X79.799 Y70.991 E27.80246 F378.000
G1 X81.785 Y70.106 E28.00021
G1 X83.913 Y69.654 E28.19796
G1 X86.087 Y69.654 E28.39571
G1 X88.215 Y70.106 E28.59346
G1 X90.201 Y70.991 E28.79121
G1 X91.961 Y72.269 E28.98896
G1 X93.416 Y73.885 E29.18671
G1 X94.503 Y75.769 E29.38446
G1 X95.175 Y77.837 E29.58221
G1 X95.403 Y80.000 E29.77996
G1 X95.175 Y82.163 E29.97771
G1 X94.503 Y84.231 E30.17546
G1 X93.869 Y85.330 E30.29084
G1 X93.416 Y86.115 E30.37322
G1 X91.961 Y87.731 E30.57097
G1 X90.201 Y89.009 E30.76872
G1 X88.215 Y89.894 E30.96647
G1 X86.087 Y90.346 E31.16422
G1 X83.913 Y90.346 E31.36197
G1 X81.785 Y89.894 E31.55972
G1 X79.799 Y89.009 E31.75747
G1 X78.039 Y87.731 E31.95522
G1 X76.584 Y86.115 E32.15297
G1 X75.497 Y84.231 E32.35072
G1 X74.825 Y82.163 E32.54847
G1 X74.597 Y80.000 E32.74622
G1 X74.825 Y77.837 E32.94397
G1 X75.497 Y75.769 E33.14172
G1 X76.584 Y73.885 E33.33947
G1 X77.976 Y72.339 E33.52870
G1 X77.931 Y71.654 F4800.000
G1 X71.600 Y66.600 F4800.000
G1 X98.400 Y66.600 E35.96565 F540.000
G1 X98.400 Y93.400 E38.40260
G1 X71.600 Y93.400 E40.83956
G1 X71.600 Y66.694 E43.26799
G1 X70.975 Y65.975 F4800.000
G1 X99.025 Y65.975 E45.81858 F540.000
G1 X99.025 Y94.025 E48.36918
G1 X70.975 Y94.025 E50.91977
G1 X70.975 Y66.069 E53.46184
G1 X70.350 Y65.350 F4800.000
G1 X99.650 Y65.350 E56.12608 F378.000
G1 X99.650 Y94.650 E58.79032
G1 X70.350 Y94.650 E61.45455
G1 X70.350 Y65.444 E64.11027
G1 X70.891 Y65.662 F4800.000
G1 X72.665 Y80.589 F4800.000
G1 X72.599 Y80.522 E64.11899 F1080.000
G1 X72.021 Y80.849 E64.18073
G1 X72.771 Y81.599 E64.27944
G1 X72.021 Y81.753 E64.35069
G1 X72.877 Y82.609 E64.46338
G1 X73.810 Y84.446 F4800.000
G1 X72.021 Y82.657 E64.69870 F1080.000
G1 X72.021 Y83.561 E64.78282
G1 X74.765 Y86.305 E65.14381
G1 X78.831 Y90.371 F4800.000
G1 X81.126 Y92.667 E65.44584 F1080.000
G1 X80.222 Y92.667 E65.52996
G1 X72.021 Y84.465 E66.60899
G1 X72.021 Y85.370 E66.69310
G1 X79.318 Y92.667 E67.65318
G1 X78.414 Y92.667 E67.73729
G1 X72.021 Y86.274 E68.57841
G1 X72.021 Y87.178 E68.66252
G1 X77.510 Y92.667 E69.38468
G1 X76.606 Y92.667 E69.46879
G1 X72.021 Y88.082 E70.07199
G1 X72.021 Y88.986 E70.15611
G1 X75.701 Y92.667 E70.64035
G1 X74.797 Y92.667 E70.72447
G1 X72.021 Y89.890 E71.08975
G1 X72.021 Y90.794 E71.17387
G1 X73.893 Y92.667 E71.42019
G1 X72.989 Y92.667 E71.50431
G1 X72.021 Y91.699 E71.63168
G1 X72.021 Y92.603 E71.71579
G1 X72.085 Y92.667 E71.72421
G1 X80.525 Y91.162 F4800.000
G1 X82.031 Y92.667 E71.92224 F1080.000
G1 X82.298 Y92.030 E71.98648
G1 X82.935 Y92.667 E72.07022
G1 X83.446 Y92.274 E72.13022
G1 X83.839 Y92.667 E72.18186
G1 X82.197 Y91.930 F4800.000
G1 X81.892 Y91.625 E72.22198 F1080.000
G1 X84.839 Y92.709 F4800.000
G1 X84.899 Y92.769 E72.22965 F360.000
G1 X84.949 Y67.773 F4800.000
G1 X84.883 Y67.707 E72.23819 F360.000
G1 X87.000 Y66.000 F4800.000
G1 X99.000 Y76.000 F4800.000
G1 X97.667 Y80.599 F4800.000
G1 X97.601 Y80.532 E72.24703 F1080.000
G1 X96.994 Y80.840 E72.31103
G1 X97.667 Y81.513 E72.40057
G1 X97.667 Y82.428 E72.48660
G1 X96.907 Y81.668 E72.58771
G1 X96.820 Y82.495 E72.66599
G1 X97.667 Y83.342 E72.77867
G1 X97.667 Y84.256 E72.86470
G1 X96.599 Y83.188 E73.00684
G1 X96.375 Y83.878 E73.07512
G1 X97.667 Y85.171 E73.24710
G1 X97.667 Y86.085 E73.33313
G1 X96.150 Y84.568 E73.53494
G1 X95.871 Y85.203 E73.60022
G1 X97.667 Y86.999 E73.83920
G1 X97.667 Y87.914 E73.92523
G1 X95.536 Y85.783 E74.20874
G1 X95.202 Y86.363 E74.27172
G1 X97.667 Y88.828 E74.59976
G1 X97.667 Y89.743 E74.68579
G1 X94.867 Y86.942 E75.05837
G1 X94.461 Y87.451 E75.11958
G1 X97.667 Y90.657 E75.54619
G1 X97.667 Y91.571 E75.63222
G1 X94.028 Y87.932 E76.11648
G1 X93.594 Y88.413 E76.17739
G1 X97.667 Y92.486 E76.71929
G1 X96.934 Y92.667 E76.79034
G1 X93.161 Y88.894 E77.29235
G1 X92.648 Y89.296 E77.35363
G1 X96.020 Y92.667 E77.80217
G1 X95.105 Y92.667 E77.88820
G1 X92.119 Y89.681 E78.28555
G1 X91.589 Y90.065 E78.34714
G1 X94.191 Y92.667 E78.69329
G1 X93.276 Y92.667 E78.77932
G1 X91.060 Y90.450 E79.07428
G1 X90.431 Y90.736 E79.13927
G1 X92.362 Y92.667 E79.39627
G1 X91.448 Y92.667 E79.48230
G1 X89.798 Y91.017 E79.70181
G1 X89.165 Y91.299 E79.76697
G1 X90.533 Y92.667 E79.94901
G1 X89.619 Y92.667 E80.03504
G1 X88.494 Y91.542 E80.18473
G1 X87.783 Y91.745 E80.25431
G1 X88.705 Y92.667 E80.37695
G1 X87.790 Y92.667 E80.46298
G1 X87.249 Y92.126 E80.53497
G1 X86.876 Y92.667 E80.59682
G1 X86.495 Y92.286 E80.64748
G1 X85.893 Y92.598 E80.71130
G1 X85.961 Y92.667 E80.72043
G1 X99.000 Y86.000 F4800.000
G1 X97.401 Y79.478 F4800.000
G1 X97.335 Y79.411 E80.72916 F1080.000
G1 X97.667 Y78.839 E80.79071
G1 X97.229 Y78.401 E80.84832
G1 X97.667 Y77.935 E80.90783
G1 X96.626 Y76.894 E81.04479
G1 X97.667 Y77.031 E81.14248
G1 X96.190 Y75.554 E81.33670
G1 X97.667 Y75.222 F4800.000
G1 X89.465 Y67.021 E82.41573 F1080.000
G1 X90.370 Y67.021 E82.49985
G1 X97.667 Y74.318 E83.45992
G1 X97.667 Y73.414 E83.54404
G1 X91.274 Y67.021 E84.38515
G1 X92.178 Y67.021 E84.46927
G1 X97.667 Y72.510 E85.19142
G1 X97.667 Y71.606 E85.27554
G1 X93.082 Y67.021 E85.87874
G1 X93.986 Y67.021 E85.96285
G1 X97.667 Y70.701 E86.44710
G1 X97.667 Y69.797 E86.53121
G1 X94.890 Y67.021 E86.89650
G1 X95.794 Y67.021 E86.98061
G1 X97.667 Y68.893 E87.22694
G1 X97.667 Y67.989 E87.31105
G1 X96.699 Y67.021 E87.43842
G1 X97.603 Y67.021 E87.52254
G1 X97.667 Y67.085 E87.53095
G1 X91.169 Y69.629 F4800.000
G1 X88.561 Y67.021 E87.87409 F1080.000
G1 X87.657 Y67.021 E87.95820
G1 X89.475 Y68.838 E88.19734
G1 X87.702 Y67.970 F4800.000
G1 X86.753 Y67.021 E88.32220 F1080.000
G1 X86.554 Y67.726 E88.39035
G1 X85.925 Y67.097 E88.47304
G1 X95.235 Y73.695 F4800.000
G1 X97.667 Y76.126 E88.79293 F1080.000
G1 X87.000 Y66.000 F4800.000
G1 X84.006 Y67.021 F4800.000
G1 X84.074 Y67.089 E88.80181 F1080.000
G1 X83.746 Y67.662 E88.86313
G1 X83.104 Y67.021 E88.94727
G1 X82.203 Y67.021 E89.03095
G1 X83.002 Y67.820 E89.13584
G1 X82.258 Y67.978 E89.20639
G1 X81.301 Y67.021 E89.33203
G1 X80.399 Y67.021 E89.41571
G1 X81.514 Y68.136 E89.56209
G1 X80.835 Y68.359 E89.62843
G1 X79.497 Y67.021 E89.80398
G1 X78.595 Y67.021 E89.88766
G1 X79.981 Y68.407 E90.06953
G1 X79.459 Y68.786 E90.12944
G1 X77.693 Y67.021 E90.36111
G1 X76.792 Y67.021 E90.44480
G1 X78.936 Y69.166 E90.72627
G1 X78.339 Y69.470 E90.78850
G1 X75.890 Y67.021 E91.10988
G1 X74.988 Y67.021 E91.19357
G1 X77.715 Y69.748 E91.55141
G1 X77.369 Y70.304 E91.61218
G1 X74.086 Y67.021 E92.04306
G1 X73.184 Y67.021 E92.12675
G1 X76.847 Y70.684 E92.60743
G1 X76.615 Y71.354 E92.67321
G1 X72.282 Y67.021 E93.24180
G1 X72.021 Y67.661 E93.30599
G1 X75.740 Y71.380 E93.79404
G1 X75.410 Y71.952 E93.85531
G1 X72.021 Y68.563 E94.30005
G1 X72.021 Y69.465 E94.38373
G1 X75.080 Y72.524 E94.78515
G1 X74.750 Y73.096 E94.84641
G1 X72.021 Y70.367 E95.20452
G1 X72.021 Y71.269 E95.28820
G1 X74.420 Y73.667 E95.60299
G1 X74.090 Y74.239 E95.66425
G1 X72.021 Y72.171 E95.93572
G1 X72.021 Y73.072 E96.01940
G1 X73.759 Y74.811 E96.24755
G1 X73.510 Y75.464 E96.31238
G1 X72.021 Y73.974 E96.50783
G1 X72.021 Y74.876 E96.59152
G1 X73.289 Y76.144 E96.75795
G1 X73.068 Y76.825 E96.82436
G1 X72.021 Y75.778 E96.96177
G1 X72.021 Y76.680 E97.04546
G1 X72.863 Y77.522 E97.15602
G1 X72.021 Y77.582 E97.23439
G1 X72.778 Y78.338 E97.33369
G1 X72.021 Y78.483 E97.40518
G1 X72.692 Y79.154 E97.49323
G1 X72.021 Y79.385 E97.55907
G1 X72.086 Y79.451 E97.56768
M106 S229
M140 S60 ; set bed temperature
G1 Z0.550 F4800.000
G1 X73.691 Y80.000 F4800.000
G1 X73.938 Y77.649 E97.63648 F1800
G1 X74.669 Y75.400 E97.70529
G1 X75.851 Y73.353 E97.77410
G1 X77.047 Y72.024 E97.82614
G1 X77.433 Y71.596 E97.84290
G1 X79.345 Y70.206 E97.91171
G1 X81.505 Y69.244 E97.98051
G1 X83.818 Y68.753 E98.04932
G1 X86.182 Y68.753 E98.11813
G1 X88.495 Y69.244 E98.18693
G1 X90.655 Y70.206 E98.25574
G1 X92.567 Y71.596 E98.32454
G1 X94.149 Y73.353 E98.39335
G1 X95.331 Y75.400 E98.46216
G1 X96.062 Y77.649 E98.53096
G1 X96.309 Y80.000 E98.59977
G1 X96.062 Y82.351 E98.66857
G1 X95.331 Y84.600 E98.73738
G1 X94.149 Y86.647 E98.80619
G1 X92.984 Y87.941 E98.85685
G1 X92.567 Y88.404 E98.87499
G1 X90.655 Y89.794 E98.94380
G1 X88.495 Y90.756 E99.01260
G1 X86.182 Y91.247 E99.08141
G1 X83.818 Y91.247 E99.15022
G1 X81.505 Y90.756 E99.21902
G1 X79.345 Y89.794 E99.28783
G1 X77.433 Y88.404 E99.35663
G1 X75.851 Y86.647 E99.42544
G1 X74.669 Y84.600 E99.49425
G1 X73.938 Y82.351 E99.56305
G1 X73.696 Y80.052 E99.63033
G1 X74.043 Y80.000 F4800.000
G1 X74.282 Y77.722 E99.69699 F1800
G1 X74.990 Y75.543 E99.76366
G1 X76.135 Y73.560 E99.83032
G1 X77.307 Y72.258 E99.88129
G1 X77.668 Y71.857 E99.89699
G1 X79.521 Y70.511 E99.96365
G1 X81.614 Y69.579 E100.03032
G1 X83.855 Y69.103 E100.09698
G1 X86.145 Y69.103 E100.16365
G1 X88.386 Y69.579 E100.23031
G1 X90.479 Y70.511 E100.29698
G1 X92.332 Y71.857 E100.36364
G1 X93.865 Y73.560 E100.43031
G1 X95.010 Y75.543 E100.49697
G1 X95.718 Y77.722 E100.56364
G1 X95.957 Y80.000 E100.63030
G1 X95.718 Y82.278 E100.69697
G1 X95.010 Y84.457 E100.76363
G1 X93.865 Y86.440 E100.83030
G1 X92.724 Y87.707 E100.87989
G1 X92.332 Y88.143 E100.89696
G1 X90.479 Y89.489 E100.96363
G1 X88.386 Y90.421 E101.03029
G1 X86.145 Y90.897 E101.09696
G1 X83.855 Y90.897 E101.16362
G1 X81.614 Y90.421 E101.23029
G1 X79.521 Y89.489 E101.29695
G1 X77.668 Y88.143 E101.36361
G1 X76.135 Y86.440 E101.43028
G1 X74.990 Y84.457 E101.49694
G1 X74.282 Y82.278 E101.56361
G1 X74.048 Y80.052 E101.62875
G1 X74.395 Y80.000 F4800.000
G1 X74.626 Y77.795 E101.69327 F1260
G1 X75.312 Y75.686 E101.75779
G1 X76.420 Y73.766 E101.82232
G1 X77.136 Y72.972 E101.85343
G1 X77.904 Y72.119 E101.88684
G1 X79.697 Y70.816 E101.95136
G1 X81.723 Y69.914 E102.01589
G1 X83.891 Y69.453 E102.08041
G1 X86.109 Y69.453 E102.14494
G1 X88.277 Y69.914 E102.20946
G1 X90.303 Y70.816 E102.27398
G1 X92.096 Y72.119 E102.33851
G1 X93.580 Y73.766 E102.40303
G1 X94.688 Y75.686 E102.46755
G1 X95.374 Y77.795 E102.53208
G1 X95.605 Y80.000 E102.59660
G1 X95.374 Y82.205 E102.66112
G1 X94.688 Y84.314 E102.72565
G1 X93.580 Y86.234 E102.79017
G1 X92.864 Y87.028 E102.82129
G1 X92.096 Y87.881 E102.85470
G1 X90.303 Y89.184 E102.91922
G1 X88.277 Y90.086 E102.98374
G1 X86.109 Y90.547 E103.04827
G1 X83.891 Y90.547 E103.11279
G1 X81.723 Y90.086 E103.17731
G1 X79.697 Y89.184 E103.24184
G1 X77.904 Y87.881 E103.30636
G1 X76.420 Y86.234 E103.37088
G1 X75.312 Y84.314 E103.43541
G1 X74.626 Y82.205 E103.49993
G1 X74.400 Y80.052 E103.56293
G1 X74.098 Y79.815 F4800.000
G1 X70.875 Y65.875 F4800.000
G1 X99.125 Y65.875 E104.38508 F1800
G1 X99.125 Y94.125 E105.20723
G1 X70.875 Y94.125 E106.02937
G1 X70.875 Y65.927 E106.85000
G1 X70.525 Y65.525 F4800.000
G1 X99.475 Y65.525 E107.69252 F1800
G1 X99.475 Y94.475 E108.53504
G1 X70.525 Y94.475 E109.37756
G1 X70.525 Y65.578 E110.21855
G1 X70.175 Y65.175 F4800.000
G1 X99.825 Y65.175 E111.08144 F1260
G1 X99.825 Y94.825 E111.94434
G1 X70.175 Y94.825 E112.80723
G1 X70.175 Y65.228 E113.66859
G1 X70.478 Y65.350 F4800.000
G1 X71.182 Y66.134 F4800.000
G1 X71.134 Y66.182 E113.67134 F3600
G1 X71.134 Y66.866 E113.69881
G1 X71.866 Y66.134 E113.74040
G1 X72.549 Y66.134 E113.76788
G1 X71.134 Y67.549 E113.84832
G1 X71.134 Y68.233 E113.87579
G1 X73.233 Y66.134 E113.99509
G1 X73.917 Y66.134 E114.02256
G1 X71.134 Y68.917 E114.18071
G1 X71.134 Y69.600 E114.20818
G1 X74.600 Y66.134 E114.40518
G1 X75.284 Y66.134 E114.43265
G1 X71.134 Y70.284 E114.66850
G1 X71.134 Y70.967 E114.69597
G1 X75.967 Y66.134 E114.97067
G1 X76.651 Y66.134 E114.99814
G1 X71.134 Y71.651 E115.31169
G1 X71.134 Y72.334 E115.33916
G1 X77.334 Y66.134 E115.69157
G1 X78.018 Y66.134 E115.71904
G1 X71.134 Y73.018 E116.11029
G1 X71.134 Y73.701 E116.13776
G1 X78.701 Y66.134 E116.56786
G1 X79.385 Y66.134 E116.59533
G1 X71.134 Y74.385 E117.06429
G1 X71.134 Y75.068 E117.09176
G1 X80.068 Y66.134 E117.59956
G1 X80.752 Y66.134 E117.62703
G1 X71.134 Y75.752 E118.17369
G1 X71.134 Y76.436 E118.20116
G1 X81.436 Y66.134 E118.78666
G1 X82.119 Y66.134 E118.81414
G1 X71.134 Y77.119 E119.43849
G1 X71.134 Y77.803 E119.46596
G1 X75.507 Y73.429 E119.71453
G1 X74.574 Y75.047 F4800.000
G1 X71.134 Y78.486 E119.91002 F3600
G1 X71.134 Y79.170 E119.93749
G1 X74.152 Y76.152 E120.10902
G1 X73.823 Y77.164 E120.15181
G1 X71.134 Y79.853 E120.30464
G1 X71.134 Y80.537 E120.33211
G1 X73.637 Y78.034 E120.47437
G1 X73.557 Y78.798 E120.50524
G1 X71.134 Y81.220 E120.64294
G1 X71.134 Y81.904 E120.67041
G1 X73.476 Y79.561 E120.80355
G1 X73.458 Y80.263 E120.83177
