; generated by Slic3r 1.0.0RC2 on 2014-01-13 at 22:56:32

; layer_height = 0.35
; perimeters = 4
; top_solid_layers = 10
; bottom_solid_layers = 10
; fill_density = 0.3
; perimeter_speed = 30
; infill_speed = 50
; travel_speed = 80
; nozzle_diameter = 0.35
; filament_diameter = 1.7
; extrusion_multiplier = 1.0
; perimeters extrusion width = 0.35mm
; infill extrusion width = 0.37mm
; solid infill extrusion width = 0.37mm
; top infill extrusion width = 0.37mm
; first layer extrusion width = 0.70mm

G21 ; set units to millimeters
M107
M190 S65 ; wait for bed temperature to be reached
M104 S185 ; set temperature
G28 ; home all axes
G1 Z5 F5000 ; lift nozzle
M109 S185 ; wait for temperature to be reached
G90 ; use absolute coordinates
G92 E0
M82 ; use absolute distances for extrusion
G1 F1800.000 E-0.50000
G1 Z5.350 F4800.000
G92 E0
G1 X54.860 Y75.320 F4800.000
G1 Z0.350 F4800.000
G1 E0.50000 F1800.000
G1 X80.260 Y49.910 E3.96192 F540.000
G1 X80.810 Y49.420 E4.03290
G1 X82.020 Y48.630 E4.17214
G1 X83.310 Y48.140 E4.30511
G1 X84.680 Y47.930 E4.43866
G1 X86.050 Y48.010 E4.57090
G1 X87.380 Y48.370 E4.70366
G1 X88.610 Y49.000 E4.83682
G1 X89.680 Y49.870 E4.96971
G1 X115.130 Y75.320 E8.43776
G1 X115.960 Y76.320 E8.56299
G1 X116.570 Y77.460 E8.68757
G1 X116.950 Y78.710 E8.81346
G1 X117.070 Y80.000 E8.93830
G1 X116.950 Y81.290 E9.06313
G1 X116.570 Y82.540 E9.18902
G1 X115.960 Y83.680 E9.31361
G1 X115.130 Y84.680 E9.43883
G1 X89.680 Y110.130 E12.90689
G1 X88.680 Y110.960 E13.03211
G1 X87.540 Y111.570 E13.15669
G1 X86.290 Y111.950 E13.28258
G1 X85.000 Y112.070 E13.40742
G1 X83.710 Y111.950 E13.53226
G1 X82.460 Y111.570 E13.65815
G1 X81.320 Y110.960 E13.78273
G1 X80.320 Y110.130 E13.90795
G1 X54.870 Y84.680 E17.37601
G1 X54.040 Y83.680 E17.50123
G1 X53.430 Y82.540 E17.62582
G1 X53.050 Y81.290 E17.75171
G1 X52.930 Y80.000 E17.87654
G1 X53.050 Y78.710 E18.00138
G1 X53.430 Y77.470 E18.12635
G1 X54.040 Y76.320 E18.25178
G1 X54.801 Y75.392 E18.36736
G1 F1800.000 E17.86736
G1 Z5.350 F4800.000
G92 E0
G1 X70.926 Y77.771 F4800.000
G1 Z0.350 F4800.000
G1 E0.50000 F1800.000
G1 X71.697 Y74.893 E0.78705 F540.000
G1 X73.049 Y72.239 E1.07410
G1 X74.924 Y69.924 E1.36114
G1 X77.239 Y68.049 E1.64819
G1 X79.893 Y66.697 E1.93524
G1 X81.576 Y66.246 E2.10310
G1 X82.771 Y65.926 E2.22229
G1 X85.746 Y65.770 E2.50934
G1 X88.688 Y66.236 E2.79638
G1 X91.469 Y67.303 E3.08343
G1 X93.968 Y68.926 E3.37048
G1 X96.074 Y71.032 E3.65753
G1 X97.697 Y73.531 E3.94458
G1 X98.764 Y76.312 E4.23162
G1 X99.230 Y79.254 E4.51867
G1 X99.074 Y82.229 E4.80572
G1 X98.303 Y85.107 E5.09277
G1 X96.951 Y87.761 E5.37981
G1 X95.076 Y90.076 E5.66686
G1 X92.761 Y91.951 E5.95391
G1 X90.107 Y93.303 E6.24096
G1 X87.229 Y94.074 E6.52801
G1 X84.254 Y94.230 E6.81506
G1 X81.312 Y93.764 E7.10210
G1 X78.531 Y92.697 E7.38915
G1 X76.032 Y91.074 E7.67620
G1 X73.926 Y88.968 E7.96325
G1 X72.303 Y86.469 E8.25029
G1 X71.236 Y83.688 E8.53734
G1 X70.770 Y80.746 E8.82439
G1 X70.921 Y77.864 E9.10241
G1 X71.546 Y77.869 F4800.000
G1 X72.283 Y75.119 E9.37680 F540.000
G1 X73.576 Y72.581 E9.65119
G1 X75.368 Y70.368 E9.92558
G1 X77.581 Y68.576 E10.19997
G1 X80.119 Y67.283 E10.47436
G1 X81.738 Y66.849 E10.63589
G1 X82.869 Y66.546 E10.74875
G1 X85.713 Y66.397 E11.02314
G1 X88.525 Y66.843 E11.29753
G1 X91.184 Y67.863 E11.57192
G1 X93.572 Y69.414 E11.84631
G1 X95.586 Y71.428 E12.12070
G1 X97.137 Y73.816 E12.39509
G1 X98.157 Y76.475 E12.66948
G1 X98.603 Y79.287 E12.94387
G1 X98.454 Y82.131 E13.21827
G1 X97.717 Y84.881 E13.49266
G1 X96.424 Y87.419 E13.76705
G1 X94.632 Y89.632 E14.04144
G1 X92.419 Y91.424 E14.31583
G1 X89.881 Y92.717 E14.59022
G1 X87.131 Y93.454 E14.86461
G1 X84.287 Y93.603 E15.13900
G1 X81.475 Y93.157 E15.41339
G1 X78.816 Y92.137 E15.68778
G1 X76.428 Y90.586 E15.96217
G1 X74.414 Y88.572 E16.23656
G1 X72.863 Y86.184 E16.51096
G1 X71.843 Y83.525 E16.78535
G1 X71.397 Y80.713 E17.05974
G1 X71.541 Y77.963 E17.32510
G1 X72.167 Y77.967 F4800.000
G1 X72.870 Y75.344 E17.58683 F540.000
G1 X74.103 Y72.923 E17.84856
G1 X75.813 Y70.813 E18.11030
G1 X77.923 Y69.103 E18.37203
G1 X80.344 Y67.870 E18.63376
G1 X81.900 Y67.453 E18.78897
G1 X82.967 Y67.167 E18.89550
G1 X85.680 Y67.025 E19.15723
G1 X88.363 Y67.450 E19.41896
G1 X90.899 Y68.423 E19.68070
G1 X93.177 Y69.902 E19.94243
G1 X95.097 Y71.823 E20.20416
G1 X96.577 Y74.101 E20.46590
G1 X97.550 Y76.637 E20.72763
G1 X97.975 Y79.320 E20.98936
G1 X97.833 Y82.033 E21.25110
G1 X97.130 Y84.656 E21.51283
G1 X95.897 Y87.077 E21.77457
G1 X94.187 Y89.187 E22.03630
G1 X92.077 Y90.897 E22.29803
G1 X89.656 Y92.130 E22.55977
G1 X87.033 Y92.833 E22.82150
G1 X84.320 Y92.975 E23.08323
G1 X81.637 Y92.550 E23.34497
G1 X79.101 Y91.577 E23.60670
G1 X76.823 Y90.098 E23.86843
G1 X74.902 Y88.177 E24.13017
G1 X73.423 Y85.899 E24.39190
G1 X72.450 Y83.363 E24.65364
G1 X72.025 Y80.680 E24.91537
G1 X72.162 Y78.061 E25.16807
G1 X72.788 Y78.066 F4800.000
G1 X73.457 Y75.569 E25.41715 F378.000
G1 X74.630 Y73.266 E25.66622
G1 X76.257 Y71.257 E25.91530
G1 X78.266 Y69.630 E26.16438
G1 X80.569 Y68.457 E26.41345
G1 X82.061 Y68.057 E26.56233
G1 X83.066 Y67.788 E26.66253
G1 X85.647 Y67.652 E26.91161
G1 X88.200 Y68.057 E27.16068
G1 X90.613 Y68.983 E27.40976
G1 X92.781 Y70.391 E27.65883
G1 X94.609 Y72.219 E27.90791
G1 X96.017 Y74.387 E28.15699
G1 X96.943 Y76.800 E28.40606
G1 X97.348 Y79.353 E28.65514
G1 X97.212 Y81.934 E28.90422
G1 X96.543 Y84.431 E29.15329
G1 X95.370 Y86.734 E29.40237
G1 X93.743 Y88.743 E29.65145
G1 X91.734 Y90.370 E29.90052
G1 X89.431 Y91.543 E30.14960
G1 X86.934 Y92.212 E30.39867
G1 X84.353 Y92.348 E30.64775
G1 X81.800 Y91.943 E30.89683
G1 X79.387 Y91.017 E31.14590
G1 X77.219 Y89.609 E31.39498
G1 X75.391 Y87.781 E31.64406
G1 X73.983 Y85.613 E31.89313
G1 X73.057 Y83.200 E32.14221
G1 X72.652 Y80.647 E32.39128
G1 X72.783 Y78.159 E32.63133
G1 X72.316 Y77.656 F4800.000
G1 X62.690 Y80.000 F4800.000
G1 X85.000 Y57.690 E35.67146 F540.000
G1 X107.310 Y80.000 E38.71159
G1 X85.000 Y102.310 E41.75172
G1 X62.757 Y80.066 E44.78281
G1 X61.807 Y80.000 F4800.000
G1 X85.000 Y56.807 E47.94337 F540.000
G1 X108.193 Y80.000 E51.10392
G1 X85.000 Y103.193 E54.26447
G1 X61.873 Y80.066 E57.41599
G1 X60.923 Y80.000 F4800.000
G1 X85.000 Y55.923 E60.69697 F540.000
G1 X109.077 Y80.000 E63.97795
G1 X85.000 Y104.077 E67.25893
G1 X60.989 Y80.066 E70.53088
G1 X60.039 Y80.000 F4800.000
G1 X85.000 Y55.039 E73.93228 F378.000
G1 X109.961 Y80.000 E77.33368
G1 X85.000 Y104.961 E80.73509
G1 X60.105 Y80.066 E84.12746
G1 X60.643 Y79.838 F4800.000
G1 X78.932 Y93.301 F4800.000
G1 X85.929 Y100.298 E85.13000 F1080.000
G1 X85.465 Y100.763 E85.19656
G1 X76.730 Y92.028 E86.44792
G1 X75.880 Y92.107 E86.53443
G1 X85.000 Y101.227 E87.84105
G1 X80.440 Y93.879 F4800.000
G1 X86.394 Y99.833 E88.69410 F1080.000
G1 X86.858 Y99.369 E88.76066
G1 X81.748 Y94.259 E89.49281
G1 X82.852 Y94.434 E89.60605
G1 X87.323 Y98.904 E90.24658
G1 X87.787 Y98.440 E90.31315
G1 X83.956 Y94.608 E90.86207
G1 X84.894 Y94.617 E90.95712
G1 X88.252 Y97.975 E91.43819
G1 X88.717 Y97.511 E91.50475
G1 X85.777 Y94.571 E91.92589
G1 X86.660 Y94.525 E92.01546
G1 X89.181 Y97.046 E92.37667
G1 X89.646 Y96.581 E92.44323
G1 X87.501 Y94.436 E92.75054
G1 X88.234 Y94.240 E92.82740
G1 X90.110 Y96.117 E93.09628
G1 X90.575 Y95.652 E93.16284
G1 X88.966 Y94.044 E93.39329
G1 X89.699 Y93.847 E93.47015
G1 X91.039 Y95.188 E93.66217
G1 X91.504 Y94.723 E93.72873
G1 X90.404 Y93.623 E93.88632
G1 X91.020 Y93.310 E93.95630
G1 X91.969 Y94.259 E94.09226
G1 X92.433 Y93.794 E94.15882
G1 X91.867 Y93.228 E94.23986
G1 X92.483 Y92.915 E94.30985
G1 X92.898 Y93.329 E94.36927
G1 X93.362 Y92.865 E94.43583
G1 X93.099 Y92.601 E94.47362
G1 X93.714 Y92.287 E94.54361
G1 X93.827 Y92.400 E94.55978
G1 X94.449 Y91.924 F4800.000
G1 X94.291 Y91.766 E94.58392 F360.000
G1 X94.702 Y91.187 E94.66055 F360.000
G1 X94.944 Y91.429 E94.69753 F360.000
G1 X95.439 Y90.934 E94.77308 F360.000
G1 X95.249 Y90.744 E94.80211 F360.000
G1 X95.744 Y90.249 E94.87766 F360.000
G1 X95.934 Y90.439 E94.90670 F360.000
G1 X96.429 Y89.944 E94.98224 F360.000
G1 X96.187 Y89.702 E95.01922 F360.000
G1 X96.766 Y89.291 E95.09585 F360.000
G1 X96.924 Y89.449 E95.11999 F360.000
G1 F1800.000 E94.61999
G1 Z5.350 F4800.000
G92 E0
G1 X96.443 Y70.465 F4800.000
G1 Z0.350 F4800.000
G1 E0.50000 F1800.000
G1 X94.535 Y68.557 E0.75996 F360.000
G1 X85.000 Y55.958 F4800.000
G1 X75.709 Y68.234 F4800.000
G1 X75.551 Y68.076 E0.78410 F360.000
G1 X75.056 Y68.571 E0.85965 F360.000
G1 X75.298 Y68.813 E0.89663 F360.000
G1 X74.751 Y69.256 E0.97259 F360.000
G1 X74.561 Y69.066 E1.00163 F360.000
G1 X74.066 Y69.561 E1.07717 F360.000
G1 X74.256 Y69.751 E1.10621 F360.000
G1 X73.813 Y70.298 E1.18217 F360.000
G1 X73.571 Y70.056 E1.21915 F360.000
G1 X73.076 Y70.551 E1.29469 F360.000
G1 X73.234 Y70.709 E1.31884 F360.000
G1 X69.444 Y88.485 F4800.000
G1 X73.360 Y89.733 F4800.000
G1 X75.267 Y91.640 E1.57880 F360.000
G1 X76.515 Y95.556 F4800.000
G1 X97.728 Y91.314 F4800.000
G1 X97.400 Y88.827 F4800.000
G1 X97.288 Y88.715 E1.59445 F1080.000
G1 X97.853 Y88.374 E1.65948
G1 X97.593 Y88.115 E1.69564
G1 X97.899 Y87.516 E1.76200
G1 X98.305 Y87.922 E1.81867
G1 X98.757 Y87.470 E1.88178
G1 X98.204 Y86.917 E1.95896
G1 X98.277 Y86.085 E2.04132
G1 X99.210 Y87.017 E2.17142
G1 X99.662 Y86.565 E2.23453
G1 X98.583 Y85.485 E2.38513
G1 X98.817 Y84.815 E2.45519
G1 X100.115 Y86.113 E2.63619
G1 X100.567 Y85.660 E2.69931
G1 X99.008 Y84.102 E2.91675
G1 X99.200 Y83.388 E2.98963
G1 X101.019 Y85.208 E3.24352
G1 X101.472 Y84.755 E3.30663
G1 X99.391 Y82.674 E3.59695
G1 X99.514 Y81.892 E3.67505
G1 X101.924 Y84.303 E4.01138
G1 X102.377 Y83.851 E4.07449
G1 X99.559 Y81.033 E4.46764
G1 X99.604 Y80.173 E4.55257
G1 X102.829 Y83.398 E5.00255
G1 X103.281 Y82.946 E5.06567
G1 X99.649 Y79.313 E5.57248
G1 X99.499 Y78.258 E5.67758
G1 X103.734 Y82.493 E6.26843
G1 X104.186 Y82.041 E6.33154
G1 X99.328 Y77.183 E7.00926
G1 X99.124 Y76.074 E7.12056
G1 X104.639 Y81.589 E7.88995
G1 X105.091 Y81.136 E7.95307
G1 X98.560 Y74.605 E8.86422
G1 X97.844 Y72.984 F4800.000
G1 X105.543 Y80.684 E9.93843 F1080.000
G1 X105.996 Y80.231 E10.00155
G1 X96.862 Y71.098 E11.27586
G1 X97.352 Y70.683 E11.33920
G1 X98.786 Y72.117 E11.53928
G1 X95.531 Y72.445 F4800.000
G1 X92.071 Y63.029 F4800.000
G1 X80.757 Y60.201 F4800.000
G1 X76.483 Y70.237 F4800.000
G1 X72.713 Y71.286 F4800.000
G1 X72.540 Y71.113 E11.56405 F1080.000
G1 X71.914 Y71.417 E11.63449
G1 X72.399 Y71.901 E11.70393
G1 X72.085 Y72.517 E11.77392
G1 X71.450 Y71.881 E11.86499
G1 X70.985 Y72.346 E11.93155
G1 X71.772 Y73.133 E12.04425
G1 X71.458 Y73.748 E12.11424
G1 X70.521 Y72.810 E12.24857
G1 X70.056 Y73.275 E12.31513
G1 X71.144 Y74.364 E12.47108
G1 X70.897 Y75.046 E12.54458
G1 X69.591 Y73.740 E12.73171
G1 X69.127 Y74.204 E12.79827
G1 X70.701 Y75.778 E13.02382
G1 X70.505 Y76.511 E13.10068
G1 X68.662 Y74.669 E13.36467
G1 X68.198 Y75.133 E13.43123
G1 X70.308 Y77.244 E13.73364
G1 X70.178 Y78.043 E13.81562
G1 X67.733 Y75.598 E14.16589
G1 X67.268 Y76.062 E14.23245
G1 X70.132 Y78.926 E14.64265
G1 X70.085 Y79.808 E14.73222
G1 X66.804 Y76.527 E15.20235
G1 X66.339 Y76.992 E15.26891
G1 X70.039 Y80.691 E15.79898
G1 X69.993 Y81.574 E15.88854
G1 X65.875 Y77.456 E16.47854
G1 X65.410 Y77.921 E16.54510
G1 X70.741 Y83.252 E17.30890
G1 X71.121 Y84.560 E17.44691
G1 X64.946 Y78.385 E18.33161
G1 X64.481 Y78.850 E18.39817
G1 X71.699 Y86.068 E19.43237
G1 X71.909 Y87.207 F4800.000
G1 X64.016 Y79.314 E20.56313 F1080.000
G1 X63.552 Y79.779 E20.62969
G1 X72.883 Y89.111 E21.96665
G1 X66.615 Y74.343 F4800.000
G1 X76.483 Y70.237 F4800.000
G1 X76.285 Y67.712 F4800.000
G1 X76.117 Y67.544 E21.99015 F1080.000
G1 X76.405 Y66.926 E22.05732
G1 X76.885 Y67.407 E22.12430
G1 X77.484 Y67.101 E22.19066
G1 X76.857 Y66.474 E22.27816
G1 X77.309 Y66.022 E22.34127
G1 X78.083 Y66.796 E22.44927
G1 X78.683 Y66.490 E22.51563
G1 X77.762 Y65.569 E22.64414
G1 X78.214 Y65.117 E22.70726
G1 X79.282 Y66.185 E22.85627
G1 X79.930 Y65.928 E22.92501
G1 X78.667 Y64.664 E23.10124
G1 X79.119 Y64.212 E23.16436
G1 X80.643 Y65.736 E23.37703
G1 X81.357 Y65.545 E23.44991
G1 X79.571 Y63.760 E23.69903
G1 X80.024 Y63.307 E23.76214
G1 X82.070 Y65.354 E24.04770
G1 X82.810 Y65.189 E24.12248
G1 X80.476 Y62.855 E24.44815
G1 X80.928 Y62.402 E24.51126
G1 X83.670 Y65.144 E24.89376
G1 X84.530 Y65.099 E24.97869
G1 X81.381 Y61.950 E25.41802
G1 X81.833 Y61.498 E25.48114
G1 X85.390 Y65.054 E25.97729
G1 X86.742 Y65.501 E26.11779
G1 X82.286 Y61.045 E26.73946
G1 X82.738 Y60.593 E26.80257
G1 X87.817 Y65.672 E27.51112
G1 X88.926 Y65.876 E27.62242
G1 X83.190 Y60.141 E28.42263
G1 X83.643 Y59.688 E28.48575
G1 X90.395 Y66.440 E29.42772
G1 X92.016 Y67.156 F4800.000
G1 X84.095 Y59.236 E30.53276 F1080.000
G1 X84.548 Y58.783 E30.59588
G1 X93.902 Y68.138 E31.90102
G1 X94.317 Y67.648 E31.96436
G1 X85.000 Y58.331 E33.26422
M106 S110
M140 S60 ; set bed temperature
G1 F1800.000 E32.76422
G1 Z5.700 F4800.000
G92 E0
G1 X85.532 Y66.302 F4800.000
G1 Z0.700 F4800.000
G1 E0.50000 F1800.000
G1 X85.718 Y66.293 E0.51008 F1800
G1 X88.553 Y66.741 E0.66495
G1 X91.232 Y67.770 E0.81982
G1 X93.638 Y69.333 E0.97469
G1 X95.667 Y71.362 E1.12956
G1 X97.230 Y73.768 E1.28443
G1 X98.259 Y76.447 E1.43930
G1 X98.707 Y79.282 E1.59417
G1 X98.557 Y82.147 E1.74904
G1 X97.815 Y84.919 E1.90391
G1 X96.512 Y87.476 E2.05878
G1 X94.706 Y89.706 E2.21365
G1 X92.476 Y91.512 E2.36852
G1 X89.919 Y92.815 E2.52339
G1 X87.147 Y93.557 E2.67826
G1 X84.282 Y93.707 E2.83313
G1 X81.447 Y93.259 E2.98799
G1 X78.768 Y92.230 E3.14286
G1 X76.362 Y90.667 E3.29773
G1 X74.333 Y88.638 E3.45260
G1 X72.770 Y86.232 E3.60747
G1 X71.741 Y83.553 E3.76234
G1 X71.293 Y80.718 E3.91721
G1 X71.443 Y77.853 E4.07208
G1 X72.185 Y75.081 E4.22695
G1 X73.488 Y72.524 E4.38182
G1 X75.294 Y70.294 E4.53669
G1 X77.524 Y68.488 E4.69156
G1 X80.081 Y67.185 E4.84643
G1 X82.853 Y66.443 E5.00130
G1 X85.479 Y66.305 E5.14325
G1 X85.700 Y66.644 F4800.000
G1 X88.462 Y67.081 E5.29415 F1800
G1 X91.072 Y68.083 E5.44505
G1 X93.417 Y69.606 E5.59595
G1 X95.394 Y71.583 E5.74685
G1 X96.917 Y73.928 E5.89774
G1 X97.919 Y76.538 E6.04864
G1 X98.356 Y79.300 E6.19954
G1 X98.210 Y82.092 E6.35044
G1 X97.486 Y84.793 E6.50134
G1 X96.217 Y87.284 E6.65224
G1 X94.457 Y89.457 E6.80314
G1 X92.284 Y91.217 E6.95404
G1 X89.793 Y92.486 E7.10494
G1 X88.535 Y92.823 E7.17523
G1 X87.092 Y93.210 E7.25583
G1 X84.300 Y93.356 E7.40673
G1 X81.538 Y92.919 E7.55763
G1 X78.928 Y91.917 E7.70853
G1 X76.583 Y90.394 E7.85943
G1 X74.606 Y88.417 E8.01033
G1 X73.083 Y86.072 E8.16123
G1 X72.081 Y83.462 E8.31213
G1 X71.644 Y80.700 E8.46302
G1 X71.790 Y77.908 E8.61392
G1 X72.514 Y75.207 E8.76482
G1 X73.783 Y72.716 E8.91572
G1 X75.543 Y70.543 E9.06662
G1 X77.716 Y68.783 E9.21752
G1 X80.207 Y67.514 E9.36842
G1 X82.908 Y66.790 E9.51932
G1 X85.648 Y66.647 E9.66738
G1 X85.682 Y66.995 F4800.000
G1 X88.370 Y67.421 E9.81431 F1800
G1 X90.912 Y68.397 E9.96124
G1 X93.195 Y69.880 E10.10817
G1 X95.120 Y71.805 E10.25509
G1 X96.603 Y74.088 E10.40202
G1 X97.579 Y76.630 E10.54895
G1 X98.005 Y79.318 E10.69588
G1 X97.862 Y82.037 E10.84281
G1 X97.157 Y84.667 E10.98973
G1 X95.922 Y87.093 E11.13666
G1 X94.208 Y89.208 E11.28359
G1 X92.093 Y90.922 E11.43052
G1 X89.667 Y92.157 E11.57745
G1 X88.444 Y92.485 E11.64576
G1 X87.037 Y92.862 E11.72438
G1 X84.318 Y93.005 E11.87130
G1 X81.630 Y92.579 E12.01823
G1 X79.088 Y91.603 E12.16516
G1 X76.805 Y90.120 E12.31209
G1 X74.880 Y88.195 E12.45902
G1 X73.397 Y85.912 E12.60594
G1 X72.421 Y83.370 E12.75287
G1 X71.995 Y80.682 E12.89980
G1 X72.138 Y77.963 E13.04673
G1 X72.843 Y75.333 E13.19366
G1 X74.078 Y72.907 E13.34058
G1 X75.792 Y70.792 E13.48751
G1 X77.907 Y69.078 E13.63444
G1 X80.333 Y67.843 E13.78137
G1 X82.963 Y67.138 E13.92830
G1 X85.629 Y66.998 E14.07239
G1 X85.663 Y67.347 F4800.000
G1 X88.279 Y67.761 E14.21535 F1260
G1 X90.752 Y68.710 E14.35831
G1 X92.974 Y70.153 E14.50126
G1 X94.847 Y72.026 E14.64422
G1 X96.289 Y74.248 E14.78718
G1 X97.239 Y76.721 E14.93014
G1 X97.653 Y79.337 E15.07309
G1 X97.592 Y80.512 E15.13658
G1 X97.514 Y81.982 E15.21605
G1 X96.829 Y84.541 E15.35901
G1 X95.626 Y86.901 E15.50197
G1 X93.959 Y88.959 E15.64492
G1 X91.901 Y90.626 E15.78788
G1 X89.541 Y91.829 E15.93084
