; generated by Slic3r 1.0.0RC2 on 2014-01-13 at 22:49:36

; layer_height = 0.35
; perimeters = 4
; top_solid_layers = 10
; bottom_solid_layers = 10
; fill_density = 0.3
; perimeter_speed = 30
; infill_speed = 50
; travel_speed = 80
; nozzle_diameter = 0.35
; filament_diameter = 1.7
; extrusion_multiplier = 1.0
; perimeters extrusion width = 0.35mm
; infill extrusion width = 0.37mm
; solid infill extrusion width = 0.37mm
; top infill extrusion width = 0.37mm
; first layer extrusion width = 0.70mm

G21 ; set units to millimeters
M107
M190 S65 ; wait for bed temperature to be reached
M104 S185 ; set temperature
G28 ; home all axes
G1 Z5 F5000 ; lift nozzle
M109 S185 ; wait for temperature to be reached
G90 ; use absolute coordinates
G92 E0
M82 ; use absolute distances for extrusion
G1 F1800.000 E-0.50000
G1 Z5.350 F4800.000
G92 E0
G1 X48.500 Y75.310 F4800.000
G1 Z0.350 F4800.000
G1 E0.50000 F1800.000
G1 X80.310 Y43.500 E4.83473 F540.000
G1 X81.310 Y42.670 E4.95995
G1 X82.450 Y42.060 E5.08454
G1 X83.700 Y41.680 E5.21043
G1 X84.990 Y41.560 E5.33526
G1 X86.280 Y41.680 E5.46010
G1 X87.520 Y42.060 E5.58507
G1 X88.670 Y42.670 E5.71050
G1 X89.670 Y43.490 E5.83511
G1 X121.490 Y75.300 E10.17053
G1 X122.320 Y76.310 E10.29649
G1 X122.930 Y77.450 E10.42108
G1 X123.310 Y78.700 E10.54696
G1 X123.430 Y79.990 E10.67180
G1 X123.310 Y81.280 E10.79664
G1 X122.930 Y82.520 E10.92161
G1 X122.320 Y83.670 E11.04704
G1 X121.490 Y84.670 E11.17226
G1 X89.670 Y116.490 E15.50836
G1 X88.670 Y117.320 E15.63358
G1 X87.520 Y117.930 E15.75902
G1 X86.280 Y118.310 E15.88398
G1 X84.990 Y118.430 E16.00882
G1 X83.700 Y118.310 E16.13366
G1 X82.450 Y117.930 E16.25955
G1 X81.310 Y117.320 E16.38413
G1 X80.300 Y116.490 E16.51010
G1 X48.490 Y84.670 E20.84551
G1 X47.670 Y83.670 E20.97012
G1 X47.060 Y82.520 E21.09555
G1 X46.680 Y81.280 E21.22052
G1 X46.560 Y79.990 E21.34536
G1 X46.680 Y78.700 E21.47020
G1 X47.060 Y77.450 E21.59608
G1 X47.670 Y76.310 E21.72067
G1 X48.440 Y75.382 E21.83686
G1 F1800.000 E21.33686
G1 Z5.350 F4800.000
G92 E0
G1 X68.019 Y77.310 F4800.000
G1 Z0.350 F4800.000
G1 E0.50000 F1800.000
G1 X68.949 Y73.839 E0.84633 F540.000
G1 X70.581 Y70.636 E1.19266
G1 X72.843 Y67.843 E1.53900
G1 X75.636 Y65.581 E1.88533
G1 X78.839 Y63.949 E2.23166
G1 X82.310 Y63.019 E2.57799
G1 X85.900 Y62.831 E2.92432
G1 X89.450 Y63.393 E3.27065
G1 X92.805 Y64.681 E3.61698
G1 X95.820 Y66.639 E3.96332
G1 X98.361 Y69.180 E4.30965
G1 X100.319 Y72.195 E4.65598
G1 X101.607 Y75.550 E5.00231
G1 X102.169 Y79.100 E5.34864
G1 X101.981 Y82.690 E5.69497
G1 X101.051 Y86.161 E6.04131
G1 X99.419 Y89.364 E6.38764
G1 X97.157 Y92.157 E6.73397
G1 X94.364 Y94.419 E7.08030
G1 X91.161 Y96.051 E7.42663
G1 X87.690 Y96.981 E7.77296
G1 X84.100 Y97.169 E8.11930
G1 X80.550 Y96.607 E8.46563
G1 X77.195 Y95.319 E8.81196
G1 X74.180 Y93.361 E9.15829
G1 X71.639 Y90.820 E9.50462
G1 X69.681 Y87.805 E9.85095
G1 X68.393 Y84.450 E10.19729
G1 X67.831 Y80.900 E10.54362
G1 X68.014 Y77.404 E10.88092
G1 X68.640 Y77.409 F4800.000
G1 X69.536 Y74.064 E11.21459 F540.000
G1 X71.108 Y70.978 E11.54827
G1 X73.287 Y68.287 E11.88194
G1 X75.978 Y66.108 E12.21561
G1 X79.064 Y64.536 E12.54929
G1 X82.409 Y63.640 E12.88296
G1 X85.867 Y63.458 E13.21664
G1 X89.287 Y64.000 E13.55031
G1 X92.520 Y65.241 E13.88399
G1 X95.424 Y67.127 E14.21766
G1 X97.873 Y69.576 E14.55134
G1 X99.759 Y72.480 E14.88501
G1 X101.000 Y75.713 E15.21869
G1 X101.542 Y79.133 E15.55236
G1 X101.360 Y82.591 E15.88603
G1 X100.464 Y85.936 E16.21971
G1 X98.892 Y89.022 E16.55338
G1 X96.713 Y91.713 E16.88706
G1 X94.022 Y93.892 E17.22073
G1 X90.936 Y95.464 E17.55441
G1 X87.591 Y96.360 E17.88808
G1 X84.133 Y96.542 E18.22176
G1 X80.713 Y96.000 E18.55543
G1 X77.480 Y94.759 E18.88911
G1 X74.576 Y92.873 E19.22278
G1 X72.127 Y90.424 E19.55645
G1 X70.241 Y87.520 E19.89013
G1 X69.000 Y84.287 E20.22380
G1 X68.458 Y80.867 E20.55748
G1 X68.635 Y77.502 E20.88212
G1 X69.260 Y77.507 F4800.000
G1 X70.122 Y74.289 E21.20314 F540.000
G1 X71.635 Y71.321 E21.52415
G1 X73.732 Y68.732 E21.84517
G1 X76.321 Y66.635 E22.16619
G1 X79.289 Y65.122 E22.48721
G1 X82.507 Y64.260 E22.80822
G1 X85.834 Y64.086 E23.12924
G1 X89.125 Y64.607 E23.45026
G1 X92.235 Y65.801 E23.77128
G1 X95.029 Y67.615 E24.09229
G1 X97.385 Y69.971 E24.41331
G1 X99.199 Y72.765 E24.73433
G1 X100.393 Y75.875 E25.05535
G1 X100.914 Y79.166 E25.37636
G1 X100.740 Y82.493 E25.69738
G1 X99.878 Y85.711 E26.01840
G1 X98.365 Y88.679 E26.33941
G1 X96.268 Y91.268 E26.66043
G1 X93.679 Y93.365 E26.98145
G1 X90.711 Y94.878 E27.30247
G1 X87.493 Y95.740 E27.62348
G1 X84.166 Y95.914 E27.94450
G1 X80.875 Y95.393 E28.26552
G1 X77.765 Y94.199 E28.58654
G1 X74.971 Y92.385 E28.90755
G1 X72.615 Y90.029 E29.22857
G1 X70.801 Y87.235 E29.54959
G1 X69.607 Y84.125 E29.87060
G1 X69.086 Y80.834 E30.19162
G1 X69.255 Y77.601 E30.50361
G1 X69.881 Y77.605 F4800.000
G1 X70.709 Y74.514 E30.81197 F378.000
G1 X72.162 Y71.663 E31.12033
G1 X74.176 Y69.176 E31.42869
G1 X76.663 Y67.162 E31.73705
G1 X79.514 Y65.709 E32.04541
G1 X82.605 Y64.881 E32.35377
G1 X85.801 Y64.713 E32.66213
G1 X88.962 Y65.214 E32.97049
G1 X91.950 Y66.361 E33.27885
G1 X94.633 Y68.104 E33.58721
G1 X96.896 Y70.367 E33.89557
G1 X98.639 Y73.050 E34.20393
G1 X99.786 Y76.038 E34.51229
G1 X100.287 Y79.199 E34.82065
G1 X100.119 Y82.395 E35.12901
G1 X99.291 Y85.486 E35.43737
G1 X97.838 Y88.337 E35.74573
G1 X95.824 Y90.824 E36.05409
G1 X93.337 Y92.838 E36.36245
G1 X90.486 Y94.291 E36.67081
G1 X87.395 Y95.119 E36.97917
G1 X84.199 Y95.287 E37.28753
G1 X81.038 Y94.786 E37.59589
G1 X78.050 Y93.639 E37.90425
G1 X75.367 Y91.896 E38.21261
G1 X73.104 Y89.633 E38.52097
G1 X71.361 Y86.950 E38.82933
G1 X70.214 Y83.962 E39.13769
G1 X69.713 Y80.801 E39.44605
G1 X69.876 Y77.699 E39.74538
G1 X69.409 Y77.195 F4800.000
G1 X56.326 Y80.000 F4800.000
G1 X85.000 Y51.326 E43.65272 F540.000
G1 X113.674 Y80.000 E47.56006
G1 X85.000 Y108.674 E51.46740
G1 X56.393 Y80.066 E55.36571
G1 X55.443 Y80.000 F4800.000
G1 X85.000 Y50.443 E59.39348 F540.000
G1 X114.557 Y80.000 E63.42125
G1 X85.000 Y109.557 E67.44902
G1 X55.509 Y80.066 E71.46775
G1 X54.559 Y80.000 F4800.000
G1 X85.000 Y49.559 E75.61594 F540.000
G1 X115.441 Y80.000 E79.76413
G1 X85.000 Y110.441 E83.91233
G1 X54.625 Y80.066 E88.05149
G1 X53.675 Y80.000 F4800.000
G1 X85.000 Y48.675 E92.32010 F378.000
G1 X116.325 Y80.000 E96.58872
G1 X85.000 Y111.325 E100.85734
G1 X53.741 Y80.066 E105.11692
G1 X54.279 Y79.838 F4800.000
G1 X68.680 Y86.373 F4800.000
G1 X59.637 Y77.330 E106.35788 F1080.000
G1 X60.082 Y76.885 E106.41894
G1 X68.125 Y84.929 E107.52275
G1 X67.859 Y83.773 E107.63790
G1 X60.527 Y76.440 E108.64408
G1 X60.972 Y75.995 E108.70514
G1 X67.692 Y82.715 E109.62728
G1 X67.524 Y81.658 E109.73117
G1 X61.417 Y75.550 E110.56927
G1 X61.862 Y75.105 E110.63033
G1 X67.421 Y80.665 E111.39322
G1 X67.465 Y79.819 E111.47539
G1 X62.307 Y74.660 E112.18330
G1 X62.752 Y74.215 E112.24437
G1 X67.510 Y78.973 E112.89730
G1 X67.554 Y78.128 E112.97947
G1 X63.197 Y73.770 E113.57742
G1 X63.642 Y73.325 E113.63848
G1 X67.598 Y77.282 E114.18146
G1 X67.780 Y76.574 E114.25241
G1 X64.087 Y72.881 E114.75924
G1 X64.531 Y72.436 E114.82031
G1 X67.968 Y75.872 E115.29188
G1 X68.156 Y75.170 E115.36239
G1 X64.976 Y71.991 E115.79871
G1 X65.421 Y71.546 E115.85978
G1 X68.344 Y74.468 E116.26085
G1 X68.532 Y73.766 E116.33135
G1 X65.866 Y71.101 E116.69717
G1 X66.311 Y70.656 E116.75823
G1 X68.820 Y73.164 E117.10246
G1 X69.120 Y72.575 E117.16666
G1 X66.756 Y70.211 E117.49105
G1 X67.201 Y69.766 E117.55211
G1 X69.421 Y71.985 E117.85666
G1 X69.721 Y71.395 E117.92086
G1 X67.646 Y69.321 E118.20557
G1 X68.091 Y68.876 E118.26663
G1 X70.021 Y70.806 E118.53149
G1 X70.353 Y70.248 E118.59450
G1 X68.536 Y68.431 E118.84383
G1 X68.981 Y67.986 E118.90489
G1 X70.751 Y69.756 E119.14780
G1 X71.149 Y69.264 E119.20920
G1 X69.426 Y67.541 E119.44569
G1 X69.871 Y67.096 E119.50675
G1 X71.548 Y68.773 E119.73683
G1 X71.946 Y68.281 E119.79822
G1 X70.316 Y66.651 E120.02188
G1 X70.761 Y66.206 E120.08294
G1 X72.344 Y67.789 E120.30018
G1 X72.789 Y67.344 E120.36124
G1 X71.206 Y65.761 E120.57848
G1 X71.651 Y65.316 E120.63954
G1 X73.281 Y66.946 E120.86320
G1 X73.773 Y66.548 E120.92460
G1 X72.096 Y64.871 E121.15467
G1 X72.541 Y64.426 E121.21573
G1 X74.264 Y66.149 E121.45223
G1 X74.756 Y65.751 E121.51363
G1 X72.986 Y63.981 E121.75654
G1 X73.431 Y63.536 E121.81760
G1 X75.248 Y65.353 E122.06692
G1 X75.806 Y65.021 E122.12993
G1 X73.876 Y63.091 E122.39480
G1 X74.321 Y62.646 E122.45586
G1 X76.395 Y64.721 E122.74057
G1 X76.985 Y64.421 E122.80477
G1 X74.766 Y62.201 E123.10932
G1 X75.211 Y61.756 E123.17038
G1 X77.575 Y64.120 E123.49477
G1 X78.164 Y63.820 E123.55897
G1 X75.656 Y61.311 E123.90320
G1 X76.101 Y60.866 E123.96426
G1 X78.766 Y63.532 E124.33008
G1 X79.468 Y63.344 E124.40059
G1 X76.546 Y60.421 E124.80166
G1 X76.991 Y59.976 E124.86272
G1 X80.170 Y63.156 E125.29904
G1 X80.872 Y62.968 E125.36955
G1 X77.436 Y59.531 E125.84113
G1 X77.881 Y59.086 E125.90219
G1 X81.574 Y62.780 E126.40902
G1 X82.282 Y62.598 E126.47998
G1 X78.325 Y58.642 E127.02296
G1 X78.770 Y58.197 E127.08402
G1 X83.128 Y62.554 E127.68197
G1 X83.974 Y62.510 E127.76414
G1 X79.215 Y57.752 E128.41708
G1 X79.660 Y57.307 E128.47814
G1 X84.819 Y62.465 E129.18606
G1 X85.665 Y62.421 E129.26822
G1 X80.105 Y56.862 E130.03112
G1 X80.550 Y56.417 E130.09218
G1 X86.658 Y62.524 E130.93028
G1 X87.715 Y62.692 E131.03416
G1 X80.995 Y55.972 E131.95631
G1 X81.440 Y55.527 E132.01737
G1 X88.773 Y62.859 E133.02356
G1 X89.929 Y63.126 E133.13871
G1 X81.885 Y55.082 E134.24252
G1 X82.330 Y54.637 E134.30358
G1 X91.373 Y63.680 E135.54454
G1 X92.818 Y64.234 F4800.000
G1 X82.775 Y54.192 E136.92265 F1080.000
G1 X83.220 Y53.747 E136.98371
G1 X95.220 Y65.746 E138.63038
G1 X99.254 Y69.780 F4800.000
G1 X111.253 Y81.780 E140.27704 F1080.000
G1 X111.698 Y81.335 E140.33811
G1 X83.665 Y53.302 E144.18498
G1 X84.110 Y52.857 E144.24605
G1 X112.143 Y80.890 E148.09292
G1 X112.588 Y80.445 E148.15399
G1 X84.555 Y52.412 E152.00086
G1 X85.000 Y51.967 E152.06193
G1 X113.033 Y80.000 E155.90880
G1 X101.874 Y75.071 F4800.000
G1 X109.918 Y83.115 E157.01262 F1080.000
G1 X109.473 Y83.560 E157.07368
G1 X102.141 Y76.227 E158.07987
G1 X102.308 Y77.285 E158.18375
G1 X109.028 Y84.005 E159.10590
G1 X108.583 Y84.450 E159.16696
G1 X102.476 Y78.342 E160.00506
G1 X102.579 Y79.335 E160.10193
G1 X108.138 Y84.895 E160.86483
G1 X107.693 Y85.340 E160.92589
G1 X102.535 Y80.181 E161.63381
G1 X102.490 Y81.026 E161.71597
G1 X107.248 Y85.785 E162.36891
G1 X106.803 Y86.230 E162.42997
G1 X102.446 Y81.872 E163.02793
G1 X102.402 Y82.718 E163.11009
G1 X106.358 Y86.675 E163.65307
G1 X105.913 Y87.119 E163.71413
G1 X102.220 Y83.426 E164.22096
G1 X102.032 Y84.128 E164.29147
G1 X105.469 Y87.564 E164.76305
G1 X105.024 Y88.009 E164.82411
G1 X101.844 Y84.830 E165.26044
G1 X101.656 Y85.532 E165.33095
G1 X104.579 Y88.454 E165.73202
G1 X104.134 Y88.899 E165.79308
G1 X101.468 Y86.234 E166.15889
G1 X101.180 Y86.836 E166.22366
G1 X103.689 Y89.344 E166.56789
G1 X103.244 Y89.789 E166.62895
G1 X100.880 Y87.425 E166.95334
G1 X100.579 Y88.015 E167.01754
G1 X102.799 Y90.234 E167.32209
G1 X102.354 Y90.679 E167.38315
G1 X100.279 Y88.604 E167.66786
G1 X99.979 Y89.194 E167.73206
G1 X101.909 Y91.124 E167.99693
G1 X101.464 Y91.569 E168.05799
G1 X99.647 Y89.752 E168.30732
G1 X99.249 Y90.244 E168.36872
G1 X101.019 Y92.014 E168.61163
G1 X100.574 Y92.459 E168.67269
G1 X98.851 Y90.736 E168.90918
G1 X98.452 Y91.227 E168.97058
G1 X100.129 Y92.904 E169.20065
G1 X99.684 Y93.349 E169.26172
G1 X98.054 Y91.719 E169.48537
G1 X97.656 Y92.211 E169.54677
G1 X99.239 Y93.794 E169.76401
G1 X98.794 Y94.239 E169.82507
G1 X97.211 Y92.656 E170.04231
G1 X96.719 Y93.054 E170.10371
G1 X98.349 Y94.684 E170.32737
G1 X97.904 Y95.129 E170.38843
G1 X96.227 Y93.452 E170.61850
G1 X95.736 Y93.850 E170.67990
G1 X97.459 Y95.574 E170.91639
G1 X97.014 Y96.019 E170.97745
G1 X95.244 Y94.249 E171.22036
G1 X94.752 Y94.647 E171.28176
G1 X96.569 Y96.464 E171.53109
G1 X96.124 Y96.909 E171.59215
G1 X94.194 Y94.979 E171.85702
G1 X93.605 Y95.279 E171.92122
G1 X95.679 Y97.354 E172.20593
G1 X95.234 Y97.799 E172.26699
G1 X93.015 Y95.579 E172.57154
G1 X92.425 Y95.880 E172.63574
G1 X94.789 Y98.244 E172.96013
G1 X94.344 Y98.689 E173.02119
G1 X91.836 Y96.180 E173.36542
G1 X91.234 Y96.468 E173.43019
G1 X93.899 Y99.134 E173.79600
G1 X93.454 Y99.579 E173.85707
G1 X90.532 Y96.656 E174.25814
G1 X89.830 Y96.844 E174.32864
G1 X93.009 Y100.024 E174.76497
G1 X92.564 Y100.469 E174.82603
G1 X89.128 Y97.032 E175.29761
G1 X88.426 Y97.220 E175.36812
G1 X92.119 Y100.913 E175.87495
G1 X91.675 Y101.358 E175.93601
G1 X87.718 Y97.402 E176.47898
G1 X86.872 Y97.446 E176.56115
G1 X91.230 Y101.803 E177.15910
G1 X90.785 Y102.248 E177.22017
G1 X86.027 Y97.490 E177.87310
G1 X85.181 Y97.535 E177.95527
G1 X90.340 Y102.693 E178.66318
G1 X89.895 Y103.138 E178.72424
G1 X84.335 Y97.579 E179.48714
G1 X83.342 Y97.476 E179.58401
G1 X89.450 Y103.583 E180.42211
G1 X89.005 Y104.028 E180.48317
G1 X82.285 Y97.308 E181.40531
G1 X81.227 Y97.141 E181.50919
G1 X88.560 Y104.473 E182.51538
G1 X88.115 Y104.918 E182.57644
G1 X80.071 Y96.875 E183.68025
G1 X78.627 Y96.320 F4800.000
G1 X87.670 Y105.363 E184.92121 F1080.000
G1 X87.225 Y105.808 E184.98227
G1 X77.182 Y95.766 E186.36037
G1 X74.780 Y94.254 F4800.000
G1 X86.780 Y106.253 E188.00703 F1080.000
G1 X86.335 Y106.698 E188.06809
G1 X58.302 Y78.665 E191.91497
G1 X57.857 Y79.110 E191.97603
G1 X85.890 Y107.143 E195.82291
G1 X85.445 Y107.588 E195.88397
G1 X57.412 Y79.555 E199.73085
G1 X56.967 Y80.000 E199.79191
G1 X85.000 Y108.033 E203.63878
G1 X70.746 Y90.220 F4800.000
G1 X58.747 Y78.220 E205.28544 F1080.000
G1 X59.192 Y77.775 E205.34650
G1 X69.234 Y87.818 E206.72460
G1 F1800.000 E206.22460
G1 Z5.350 F4800.000
G92 E0
G1 X101.320 Y73.627 F4800.000
G1 Z0.350 F4800.000
G1 E0.50000 F1800.000
G1 X110.363 Y82.670 E1.74096 F1080.000
G1 X110.808 Y82.225 E1.80202
G1 X100.766 Y72.182 E3.18013
M140 S60 ; set bed temperature
G1 F1800.000 E2.68013
G1 Z5.700 F4800.000
G92 E0
G1 X99.852 Y72.432 F4800.000
G1 Z0.700 F4800.000
G1 E0.50000 F1800.000
G1 X101.101 Y75.686 E0.68808 F1800
G1 X101.646 Y79.128 E0.87615
G1 X101.464 Y82.608 E1.06422
G1 X100.562 Y85.974 E1.25230
G1 X98.980 Y89.079 E1.44037
G1 X96.787 Y91.787 E1.62845
G1 X94.079 Y93.980 E1.81652
G1 X92.516 Y94.776 E1.91116
G1 X90.974 Y95.562 E2.00459
G1 X87.608 Y96.464 E2.19267
G1 X84.128 Y96.646 E2.38074
G1 X80.686 Y96.101 E2.56882
G1 X77.432 Y94.852 E2.75689
G1 X74.510 Y92.954 E2.94497
G1 X72.046 Y90.490 E3.13304
G1 X70.148 Y87.568 E3.32111
G1 X68.899 Y84.314 E3.50919
G1 X68.354 Y80.872 E3.69726
G1 X68.536 Y77.392 E3.88534
G1 X69.438 Y74.026 E4.07341
G1 X71.020 Y70.921 E4.26149
G1 X72.139 Y69.540 E4.35741
G1 X73.213 Y68.213 E4.44956
G1 X75.921 Y66.020 E4.63763
G1 X79.026 Y64.438 E4.82571
G1 X82.392 Y63.536 E5.01378
G1 X85.872 Y63.354 E5.20186
G1 X89.314 Y63.899 E5.38993
G1 X92.568 Y65.148 E5.57801
G1 X95.490 Y67.046 E5.76608
G1 X97.954 Y69.510 E5.95415
G1 X99.824 Y72.388 E6.13939
G1 X99.539 Y72.592 F4800.000
G1 X100.761 Y75.777 E6.32350 F1800
G1 X101.295 Y79.146 E6.50760
G1 X101.116 Y82.553 E6.69171
G1 X100.234 Y85.848 E6.87581
G1 X98.685 Y88.887 E7.05991
G1 X96.538 Y91.538 E7.24402
G1 X93.887 Y93.685 E7.42812
G1 X92.357 Y94.464 E7.52077
G1 X90.848 Y95.234 E7.61222
G1 X87.553 Y96.116 E7.79633
G1 X84.146 Y96.295 E7.98043
G1 X80.777 Y95.761 E8.16453
G1 X77.592 Y94.539 E8.34864
G1 X74.731 Y92.681 E8.53274
G1 X72.319 Y90.269 E8.71684
G1 X70.461 Y87.408 E8.90095
G1 X69.239 Y84.223 E9.08505
G1 X68.705 Y80.854 E9.26915
G1 X68.884 Y77.447 E9.45326
G1 X69.766 Y74.152 E9.63736
G1 X71.315 Y71.113 E9.82147
G1 X72.411 Y69.760 E9.91540
G1 X73.462 Y68.462 E10.00557
G1 X76.113 Y66.315 E10.18967
G1 X79.152 Y64.766 E10.37378
G1 X82.447 Y63.884 E10.55788
G1 X85.854 Y63.705 E10.74198
G1 X89.223 Y64.239 E10.92609
G1 X92.408 Y65.461 E11.11019
G1 X95.269 Y67.319 E11.29429
G1 X97.681 Y69.731 E11.47840
G1 X99.510 Y72.548 E11.65967
G1 X99.225 Y72.752 F4800.000
G1 X100.421 Y75.868 E11.83980 F1800
G1 X100.944 Y79.164 E12.01993
G1 X100.769 Y82.498 E12.20007
G1 X99.905 Y85.721 E12.38020
G1 X98.390 Y88.695 E12.56033
