; generated by Slic3r 1.0.0RC2 on 2014-01-05 at 14:18:26

; layer_height = 0.3
; perimeters = 3
; top_solid_layers = 5
; bottom_solid_layers = 5
; fill_density = 0.4
; perimeter_speed = 30
; infill_speed = 60
; travel_speed = 130
; nozzle_diameter = 0.35
; filament_diameter = 1.75
; extrusion_multiplier = 1.1
; perimeters extrusion width = 0.35mm
; infill extrusion width = 0.37mm
; solid infill extrusion width = 0.37mm
; top infill extrusion width = 0.37mm
; first layer extrusion width = 0.70mm

G21 ; set units to millimeters
M107
M190 S65 ; wait for bed temperature to be reached
M104 S175 ; set temperature
G28 ; home all axes
G1 Z5 F5000 ; lift nozzle
M109 S175 ; wait for temperature to be reached
G90 ; use absolute coordinates
G92 E0
M82 ; use absolute distances for extrusion
G1 Z0.350 F7800.000
G1 X55.320 Y62.820 F7800.000
G1 X56.320 Y61.990 E0.12999 F540.000
G1 X57.460 Y61.380 E0.25931
G1 X58.710 Y61.000 E0.38999
G1 X60.000 Y60.880 E0.51957
G1 X110.000 Y60.880 E5.52070
G1 X111.290 Y61.000 E5.65029
G1 X112.540 Y61.380 E5.78097
G1 X113.680 Y61.990 E5.91029
G1 X114.680 Y62.820 E6.04028
G1 X115.510 Y63.820 E6.17026
G1 X116.120 Y64.960 E6.29959
G1 X116.500 Y66.210 E6.43026
G1 X116.620 Y67.500 E6.55985
G1 X116.620 Y92.500 E9.06041
G1 X116.500 Y93.790 E9.19000
G1 X116.120 Y95.040 E9.32068
G1 X115.510 Y96.180 E9.45000
G1 X114.680 Y97.180 E9.57999
G1 X113.680 Y98.010 E9.70997
G1 X112.540 Y98.620 E9.83930
G1 X111.290 Y99.000 E9.96998
G1 X110.000 Y99.120 E10.09956
G1 X60.000 Y99.120 E15.10069
G1 X58.710 Y99.000 E15.23028
G1 X57.460 Y98.620 E15.36095
G1 X56.320 Y98.010 E15.49028
G1 X55.320 Y97.180 E15.62026
G1 X54.490 Y96.180 E15.75025
G1 X53.880 Y95.040 E15.87957
G1 X53.500 Y93.790 E16.01025
G1 X53.380 Y92.500 E16.13984
G1 X53.380 Y67.500 E18.64040
G1 X53.500 Y66.210 E18.76999
G1 X53.880 Y64.960 E18.90067
G1 X54.490 Y63.820 E19.02999
G1 X55.260 Y62.892 E19.15060
G1 X98.477 Y69.643 F7800.000
G1 X100.582 Y68.960 E19.37197 F540.000
G1 X101.883 Y70.750 E19.59334
G1 X100.582 Y72.540 E19.81470
G1 X98.477 Y71.857 E20.03607
G1 X98.477 Y69.737 E20.24806
G1 X98.347 Y69.032 F7800.000
G1 X101.059 Y76.740 F7800.000
G1 X103.427 Y80.000 E20.65106 F540.000
G1 X101.059 Y83.260 E21.05407
G1 X97.227 Y82.015 E21.45708
G1 X97.227 Y77.985 E21.86010
G1 X100.970 Y76.769 E22.25374
G1 X100.821 Y77.475 F7800.000
G1 X102.655 Y80.000 E22.56592 F540.000
G1 X100.820 Y82.525 E22.87810
G1 X97.852 Y81.561 E23.19029
G1 X97.852 Y78.439 E23.50249
G1 X100.731 Y77.504 E23.80531
G1 X100.582 Y78.210 F7800.000
G1 X101.883 Y80.000 E24.02667 F540.000
G1 X100.582 Y81.790 E24.24803
G1 X98.477 Y81.107 E24.46940
G1 X98.477 Y78.893 E24.69077
G1 X100.493 Y78.239 E24.90276
G1 X101.123 Y77.897 F7800.000
G1 X90.000 Y76.468 F7800.000
G1 X74.182 Y80.000 F7800.000
G1 X72.957 Y82.957 E25.22288 F540.000
G1 X70.000 Y84.182 E25.54299
G1 X67.043 Y82.957 E25.86311
G1 X65.818 Y80.000 E26.18322
G1 X67.043 Y77.043 E26.50334
G1 X70.000 Y75.818 E26.82346
G1 X72.957 Y77.043 E27.14357
G1 X74.146 Y79.913 E27.45431
G1 X73.505 Y80.000 F7800.000
G1 X72.479 Y82.479 E27.72265 F540.000
G1 X70.000 Y83.505 E27.99099
G1 X67.521 Y82.479 E28.25933
G1 X66.495 Y80.000 E28.52766
G1 X67.521 Y77.521 E28.79600
G1 X70.000 Y76.495 E29.06434
G1 X72.479 Y77.521 E29.33267
G1 X73.469 Y79.913 E29.59164
G1 X72.829 Y80.000 F7800.000
G1 X72.000 Y82.000 E29.80819 F540.000
G1 X70.000 Y82.829 E30.02475
G1 X68.000 Y82.000 E30.24131
G1 X67.171 Y80.000 E30.45787
G1 X68.000 Y78.000 E30.67443
G1 X70.000 Y77.171 E30.89099
G1 X72.000 Y78.000 E31.10754
G1 X72.793 Y79.913 E31.31473
G1 X73.325 Y80.380 F7800.000
G1 X85.818 Y80.000 F7800.000
G1 X87.043 Y77.043 E31.63484 F540.000
G1 X90.000 Y75.818 E31.95496
G1 X92.957 Y77.043 E32.27508
G1 X94.182 Y80.000 E32.59519
G1 X92.957 Y82.957 E32.91531
G1 X90.000 Y84.182 E33.23542
G1 X87.043 Y82.957 E33.55554
G1 X85.854 Y80.087 E33.86628
G1 X86.495 Y80.000 F7800.000
G1 X87.521 Y77.521 E34.13462 F540.000
G1 X90.000 Y76.495 E34.40296
G1 X92.479 Y77.521 E34.67129
G1 X93.505 Y80.000 E34.93963
G1 X92.479 Y82.479 E35.20797
G1 X90.000 Y83.505 E35.47630
G1 X87.521 Y82.479 E35.74464
G1 X86.531 Y80.087 E36.00360
G1 X87.171 Y80.000 F7800.000
G1 X88.000 Y78.000 E36.22016 F540.000
G1 X90.000 Y77.171 E36.43672
G1 X92.000 Y78.000 E36.65328
G1 X92.829 Y80.000 E36.86984
G1 X92.000 Y82.000 E37.08639
G1 X90.000 Y82.829 E37.30295
G1 X88.000 Y82.000 E37.51951
G1 X87.207 Y80.087 E37.72669
G1 X86.675 Y79.620 F7800.000
G1 X89.248 Y83.221 F7800.000
G1 X98.477 Y88.243 F7800.000
G1 X100.582 Y87.560 E37.94806 F540.000
G1 X101.883 Y89.350 E38.16942
G1 X100.582 Y91.140 E38.39078
G1 X98.477 Y90.457 E38.61215
G1 X98.477 Y88.337 E38.82415
G1 X98.347 Y87.632 F7800.000
G1 X97.227 Y87.335 F7800.000
G1 X97.227 Y90.900 E39.18071 F540.000
G1 X61.600 Y90.900 E42.74425
G1 X61.600 Y69.100 E44.92479
G1 X97.227 Y69.100 E48.48832
G1 X97.227 Y72.765 E48.85489
G1 X101.059 Y74.010 E49.25790
G1 X103.427 Y70.750 E49.66091
G1 X102.228 Y69.100 E49.86494
G1 X108.400 Y69.100 E50.48225
G1 X108.400 Y90.900 E52.66279
G1 X102.301 Y90.900 E53.27283
G1 X103.427 Y89.350 E53.46450
G1 X101.059 Y86.090 E53.86750
G1 X97.316 Y87.306 E54.26114
G1 X97.852 Y87.789 F7800.000
G1 X97.852 Y90.911 E54.57333 F540.000
G1 X98.628 Y91.163 E54.65499
G1 X98.571 Y91.525 E54.69167
G1 X60.975 Y91.525 E58.45214
G1 X60.975 Y68.475 E60.75768
G1 X98.879 Y68.475 E64.54894
G1 X98.936 Y68.837 E64.58562
G1 X97.852 Y69.189 E64.69966
G1 X97.852 Y72.311 E65.01185
G1 X100.820 Y73.275 E65.32404
G1 X102.655 Y70.750 E65.63623
G1 X101.002 Y68.475 E65.91751
G1 X109.025 Y68.475 E66.71999
G1 X109.025 Y91.525 E69.02553
G1 X101.075 Y91.525 E69.82075
G1 X102.655 Y89.350 E70.08967
G1 X100.821 Y86.825 E70.40185
G1 X97.941 Y87.760 E70.70467
G1 X99.942 Y87.084 F7800.000
G1 X109.650 Y92.150 F7800.000
G1 X60.350 Y92.150 E75.63578 F378.000
G1 X60.350 Y67.850 E78.06632
G1 X109.650 Y67.850 E82.99744
G1 X109.650 Y92.056 E85.41861
G1 X109.109 Y91.838 F7800.000
G1 X103.939 Y90.479 F7800.000
G1 X103.469 Y90.009 E85.48549 F1080.000
G1 X103.844 Y89.494 E85.54975
G1 X104.829 Y90.479 E85.69015
G1 X105.720 Y90.479 E85.77991
G1 X102.242 Y87.001 E86.27568
G1 X99.586 Y86.126 F7800.000
G1 X94.293 Y80.833 E87.03014 F1080.000
G1 X94.032 Y81.463 E87.09883
G1 X98.914 Y86.344 E87.79466
G1 X98.241 Y86.563 E87.86589
G1 X93.771 Y82.092 E88.50309
G1 X93.510 Y82.722 E88.57179
G1 X97.569 Y86.781 E89.15035
G1 X96.897 Y86.999 E89.22159
G1 X93.207 Y83.309 E89.74755
G1 X92.578 Y83.570 E89.81625
G1 X96.806 Y87.798 E90.41891
G1 X96.806 Y88.689 E90.50867
G1 X91.948 Y83.831 E91.20109
G1 X91.318 Y84.092 E91.26979
G1 X96.806 Y89.579 E92.05196
G1 X96.806 Y90.470 E92.14172
G1 X90.688 Y84.353 E93.01365
G1 X90.059 Y84.614 E93.08235
G1 X95.924 Y90.479 E93.91837
G1 X95.033 Y90.479 E94.00813
G1 X88.622 Y84.067 E94.92206
G1 X85.933 Y81.378 F7800.000
G1 X74.076 Y69.521 E96.61215 F1080.000
G1 X73.186 Y69.521 E96.70191
G1 X94.143 Y90.479 E99.68917
G1 X93.252 Y90.479 E99.77893
G1 X72.295 Y69.521 E102.76620
G1 X71.405 Y69.521 E102.85595
G1 X92.362 Y90.479 E105.84322
G1 X91.471 Y90.479 E105.93297
G1 X70.514 Y69.521 E108.92024
G1 X69.623 Y69.521 E109.01000
G1 X90.581 Y90.479 E111.99726
G1 X89.690 Y90.479 E112.08702
G1 X68.733 Y69.521 E115.07428
G1 X67.842 Y69.521 E115.16404
G1 X88.800 Y90.479 E118.15131
G1 X87.909 Y90.479 E118.24106
G1 X66.952 Y69.521 E121.22833
G1 X66.061 Y69.521 E121.31808
G1 X87.019 Y90.479 E124.30535
G1 X86.128 Y90.479 E124.39511
G1 X73.922 Y78.273 E126.13493
G1 X74.552 Y79.793 F7800.000
G1 X85.238 Y90.479 E127.65805 F1080.000
G1 X84.347 Y90.479 E127.74781
G1 X74.413 Y80.544 E129.16390
G1 X74.152 Y81.174 E129.23260
G1 X83.457 Y90.479 E130.55894
G1 X82.566 Y90.479 E130.64869
G1 X73.891 Y81.803 E131.88527
G1 X73.630 Y82.433 E131.95397
G1 X81.676 Y90.479 E133.10080
G1 X80.785 Y90.479 E133.19055
G1 X73.369 Y83.063 E134.24762
G1 X72.866 Y83.451 E134.31162
G1 X79.895 Y90.479 E135.31341
G1 X79.004 Y90.479 E135.40317
G1 X72.237 Y83.711 E136.36779
G1 X71.607 Y83.972 E136.43648
G1 X78.114 Y90.479 E137.36392
G1 X77.223 Y90.479 E137.45368
G1 X70.977 Y84.233 E138.34394
G1 X70.348 Y84.494 E138.41264
G1 X76.333 Y90.479 E139.26572
G1 X75.442 Y90.479 E139.35547
G1 X69.319 Y84.356 E140.22822
G1 X67.799 Y83.726 F7800.000
G1 X74.552 Y90.479 E141.19073 F1080.000
G1 X73.661 Y90.479 E141.28048
G1 X62.021 Y78.839 E142.93961
G1 X62.021 Y79.729 E143.02936
G1 X72.770 Y90.479 E144.56155
G1 X71.880 Y90.479 E144.65131
G1 X62.021 Y80.620 E146.05657
G1 X62.021 Y81.511 E146.14632
G1 X70.989 Y90.479 E147.42464
G1 X70.099 Y90.479 E147.51440
G1 X62.021 Y82.401 E148.66579
G1 X62.021 Y83.292 E148.75554
G1 X69.208 Y90.479 E149.77999
G1 X68.318 Y90.479 E149.86975
G1 X62.021 Y84.182 E150.76727
G1 X62.021 Y85.073 E150.85702
G1 X67.427 Y90.479 E151.62761
G1 X66.537 Y90.479 E151.71736
G1 X62.021 Y85.963 E152.36101
G1 X62.021 Y86.854 E152.45077
G1 X65.646 Y90.479 E152.96748
G1 X64.756 Y90.479 E153.05724
G1 X62.021 Y87.744 E153.44702
G1 X62.021 Y88.635 E153.53677
G1 X63.865 Y90.479 E153.79962
G1 X62.975 Y90.479 E153.88937
G1 X62.021 Y89.525 E154.02529
G1 X62.021 Y90.416 E154.11504
G1 X62.084 Y90.479 E154.12402
G1 X66.274 Y82.201 F7800.000
G1 X62.021 Y77.948 E154.73017 F1080.000
G1 X62.021 Y77.058 E154.81992
G1 X65.644 Y80.681 E155.33632
G1 X65.506 Y79.652 E155.44090
G1 X62.021 Y76.167 E155.93763
G1 X62.021 Y75.277 E156.02739
G1 X65.767 Y79.023 E156.56130
G1 X66.028 Y78.393 E156.63000
G1 X62.021 Y74.386 E157.20108
G1 X62.021 Y73.496 E157.29084
G1 X66.289 Y77.763 E157.89911
G1 X66.549 Y77.134 E157.96780
G1 X62.021 Y72.605 E158.61325
G1 X62.021 Y71.715 E158.70300
G1 X66.937 Y76.631 E159.40372
G1 X67.567 Y76.370 E159.47242
G1 X62.021 Y70.824 E160.26289
G1 X62.021 Y69.934 E160.35265
G1 X68.197 Y76.109 E161.23288
G1 X68.826 Y75.848 E161.30158
G1 X62.499 Y69.521 E162.20343
G1 X63.390 Y69.521 E162.29319
G1 X69.456 Y75.587 E163.15786
G1 X70.207 Y75.448 E163.23484
G1 X64.280 Y69.521 E164.07960
G1 X65.171 Y69.521 E164.16936
G1 X71.727 Y76.078 E165.10388
G1 X85.386 Y79.941 F7800.000
G1 X74.967 Y69.521 E166.58914 F1080.000
G1 X75.857 Y69.521 E166.67889
G1 X85.647 Y79.312 E168.07439
G1 X85.908 Y78.682 E168.14309
G1 X76.748 Y69.521 E169.44883
G1 X77.638 Y69.521 E169.53858
G1 X86.169 Y78.052 E170.75457
G1 X86.430 Y77.422 E170.82327
G1 X78.529 Y69.521 E171.94950
G1 X79.419 Y69.521 E172.03925
G1 X86.691 Y76.793 E173.07573
G1 X87.278 Y76.490 E173.14235
G1 X80.310 Y69.521 E174.13561
G1 X81.200 Y69.521 E174.22537
G1 X87.908 Y76.229 E175.18146
G1 X88.537 Y75.968 E175.25015
G1 X82.091 Y69.521 E176.16906
G1 X82.981 Y69.521 E176.25882
G1 X89.167 Y75.707 E177.14054
G1 X89.797 Y75.446 E177.20924
G1 X83.872 Y69.521 E178.05379
G1 X84.762 Y69.521 E178.14355
G1 X91.030 Y75.789 E179.03689
G1 X92.550 Y76.418 F7800.000
G1 X85.653 Y69.521 E180.01999 F1080.000
G1 X86.543 Y69.521 E180.10974
G1 X96.806 Y79.784 E181.57253
G1 X96.806 Y78.893 E181.66228
G1 X87.434 Y69.521 E182.99813
G1 X88.324 Y69.521 E183.08789
G1 X96.806 Y78.003 E184.29680
G1 X97.234 Y77.540 E184.36032
G1 X89.215 Y69.521 E185.50330
G1 X90.105 Y69.521 E185.59306
G1 X97.906 Y77.322 E186.70492
G1 X98.578 Y77.103 E186.77616
G1 X90.996 Y69.521 E187.85689
G1 X91.886 Y69.521 E187.94665
G1 X99.250 Y76.885 E188.99626
G1 X99.922 Y76.667 E189.06749
G1 X92.777 Y69.521 E190.08598
G1 X93.667 Y69.521 E190.17573
G1 X100.594 Y76.448 E191.16309
G1 X101.263 Y74.446 F7800.000
G1 X107.979 Y81.161 E192.12028 F1080.000
G1 X107.979 Y80.270 E192.21004
G1 X101.638 Y73.930 E193.11382
G1 X102.013 Y73.414 E193.17808
G1 X107.979 Y79.380 E194.02844
G1 X107.979 Y78.489 E194.11820
G1 X102.388 Y72.898 E194.91515
G1 X102.762 Y72.383 E194.97941
G1 X107.979 Y77.599 E195.72294
G1 X107.979 Y76.708 E195.81270
G1 X103.137 Y71.867 E196.50281
G1 X103.512 Y71.351 E196.56707
G1 X107.979 Y75.818 E197.20378
G1 X107.979 Y74.927 E197.29353
G1 X103.887 Y70.835 E197.87682
G1 X103.463 Y69.521 E198.01596
G1 X107.979 Y74.037 E198.65960
G1 X107.979 Y73.146 E198.74936
G1 X104.354 Y69.521 E199.26607
G1 X105.244 Y69.521 E199.35583
G1 X107.979 Y72.256 E199.74560
G1 X107.979 Y71.365 E199.83536
G1 X106.135 Y69.521 E200.09819
G1 X107.025 Y69.521 E200.18795
G1 X107.979 Y70.475 E200.32386
G1 X107.979 Y69.584 E200.41361
G1 X107.916 Y69.521 E200.42258
G1 X100.053 Y74.126 F7800.000
G1 X107.979 Y82.051 E201.55227 F1080.000
G1 X107.979 Y82.942 E201.64202
G1 X98.734 Y73.698 E202.95974
G1 X96.806 Y71.769 F7800.000
G1 X94.558 Y69.521 E203.28011 F1080.000
G1 X95.448 Y69.521 E203.36987
G1 X96.806 Y70.878 E203.56330
G1 X96.806 Y69.988 E203.65306
G1 X96.339 Y69.521 E203.71956
G1 X93.582 Y77.450 F7800.000
G1 X96.806 Y80.674 E204.17910 F1080.000
G1 X96.806 Y81.565 E204.26886
G1 X94.211 Y78.970 E204.63863
G1 X94.554 Y80.203 E204.76759
G1 X100.258 Y85.907 E205.58068
G1 X100.930 Y85.689 E205.65191
G1 X97.926 Y82.685 E206.08013
G1 X99.245 Y83.113 E206.21993
G1 X106.610 Y90.479 E207.26977
G1 X107.501 Y90.479 E207.35952
G1 X100.564 Y83.542 E208.34828
G1 X101.409 Y83.496 E208.43352
G1 X107.979 Y90.066 E209.37004
G1 X107.979 Y89.176 E209.45979
G1 X101.783 Y82.980 E210.34289
G1 X102.158 Y82.464 E210.40715
G1 X107.979 Y88.285 E211.23683
G1 X107.979 Y87.395 E211.32659
G1 X102.533 Y81.949 E212.10285
G1 X102.907 Y81.433 E212.16711
G1 X107.979 Y86.504 E212.88996
G1 X107.979 Y85.614 E212.97972
G1 X103.282 Y80.917 E213.64916
G1 X103.657 Y80.401 E213.71342
G1 X107.979 Y84.723 E214.32944
G1 X107.979 Y83.833 E214.41919
G1 X103.423 Y79.277 E215.06851
G1 X106.625 Y68.500 F7800.000
G1 X99.593 Y68.617 F7800.000
G1 X99.531 Y68.555 E215.07733 F360.000
G1 X92.185 Y68.500 F7800.000
G1 X96.815 Y91.500 F7800.000
G1 X99.220 Y91.460 F7800.000
G1 X99.279 Y91.519 E215.08561 F360.000
M104 S170 ; set temperature
M140 S60 ; set bed temperature
G1 Z0.650 F7800.000
G1 X104.375 Y91.500 F7800.000
G1 X100.649 Y72.746 F7800.000
G1 X98.302 Y71.984 E215.20410 F1800
G1 X98.302 Y69.516 E215.32259
G1 X100.649 Y68.754 E215.44108
G1 X102.099 Y70.750 E215.55956
G1 X100.679 Y72.704 E215.67552
G1 X100.515 Y72.335 F7800.000
G1 X98.652 Y71.729 E215.76959 F1800
G1 X98.652 Y69.771 E215.86365
G1 X100.515 Y69.165 E215.95772
G1 X101.666 Y70.750 E216.05178
G1 X100.546 Y72.292 E216.14332
G1 X100.373 Y72.654 F7800.000
G1 X100.782 Y77.592 F7800.000
G1 X102.532 Y80.000 E216.28623 F1800
G1 X100.782 Y82.408 E216.42913
G1 X97.952 Y81.488 E216.57204
G1 X97.952 Y78.512 E216.71495
G1 X100.732 Y77.609 E216.85534
G1 X100.649 Y78.004 F7800.000
G1 X102.099 Y80.000 E216.97382 F1800
G1 X100.649 Y81.996 E217.09230
G1 X98.302 Y81.234 E217.21079
G1 X98.302 Y78.766 E217.32927
G1 X100.599 Y78.020 E217.44524
G1 X100.515 Y78.415 F7800.000
G1 X101.666 Y80.000 E217.53930 F1800
G1 X100.515 Y81.585 E217.63336
G1 X98.652 Y80.979 E217.72743
G1 X98.652 Y79.021 E217.82149
G1 X100.465 Y78.431 E217.91304
G1 X100.818 Y78.240 F7800.000
G1 X93.397 Y80.000 F7800.000
G1 X92.402 Y82.402 E218.03789 F1800
G1 X90.000 Y83.397 E218.16274
G1 X87.598 Y82.402 E218.28759
G1 X86.603 Y80.000 E218.41244
G1 X87.598 Y77.598 E218.53729
G1 X90.000 Y76.603 E218.66214
G1 X92.402 Y77.598 E218.78699
G1 X93.377 Y79.951 E218.90932
G1 X93.018 Y80.000 F7800.000
G1 X92.134 Y82.134 E219.02025 F1800
G1 X90.000 Y83.018 E219.13118
G1 X87.866 Y82.134 E219.24211
G1 X86.982 Y80.000 E219.35304
G1 X87.866 Y77.866 E219.46396
G1 X90.000 Y76.982 E219.57489
G1 X92.134 Y77.866 E219.68582
G1 X92.998 Y79.951 E219.79423
G1 X92.639 Y80.000 F7800.000
G1 X91.866 Y81.866 E219.89123 F1800
G1 X90.000 Y82.639 E219.98824
G1 X88.134 Y81.866 E220.08524
G1 X87.361 Y80.000 E220.18224
G1 X88.134 Y78.134 E220.27925
G1 X90.000 Y77.361 E220.37625
G1 X91.866 Y78.134 E220.47326
G1 X92.619 Y79.951 E220.56774
G1 X92.917 Y80.213 F7800.000
G1 X91.505 Y77.091 F7800.000
G1 X73.397 Y80.000 F7800.000
G1 X72.402 Y82.402 E220.69259 F1800
G1 X70.000 Y83.397 E220.81744
G1 X67.598 Y82.402 E220.94230
G1 X66.603 Y80.000 E221.06715
G1 X67.598 Y77.598 E221.19200
G1 X70.000 Y76.603 E221.31685
G1 X72.402 Y77.598 E221.44170
G1 X73.377 Y79.951 E221.56403
G1 X73.018 Y80.000 F7800.000
G1 X72.134 Y82.134 E221.67496 F1800
G1 X70.000 Y83.018 E221.78589
G1 X67.866 Y82.134 E221.89681
G1 X66.982 Y80.000 E222.00774
G1 X67.866 Y77.866 E222.11867
G1 X70.000 Y76.982 E222.22960
